; GCode generated by RepSnapper by Kulitorum
G21                              ;metric is good!
G90                              ;absolute positioning
T0                                 ;select new extruder
G28                               ;go home
G92 E0                          ;set extruder home
M104 S73.0                   ;set temperature
G1 X20 Y20 F500            ;Move away from 0.0, so we use the same reset (in the layer code) for each layer


G1 F70
G1 Z0 E0 F70

G1 F2300
G1 X13.35 Y10.35 F2300
G1 X71.35 E58 F2300
G1 Y106.65 E154.3 F2300
G1 X10.35 E215.3 F2300
G1 Y37.5 E284.45 F2300
G1 X13.35 E287.45 F2300
G1 Y10.35 E314.6 F2300
G1 X18.1139 Y15.1314 E321.337 F2300
G1 X18.1701 Y15.0784 F2300
G1 X17.9134 Y15.3203 E321.69 F2300
G1 X17.4403 Y16.0432 E322.554 F2300
G1 X17.2527 Y16.8493 E323.381 F2300
G1 X17.2524 Y17.1462 E323.678 F2300
G1 X17.4424 Y17.9653 E324.519 F2300
G1 X18.0807 Y18.8518 E325.612 F2300
G1 X18.8893 Y19.3543 E326.564 F2300
G1 X20.0363 Y19.5555 E327.728 F2300
G1 X21.0875 Y19.3149 E328.806 F2300
G1 X22.0191 Y18.6317 E329.962 F2300
G1 X22.5008 Y17.8022 E330.921 F2300
G1 X22.6354 Y17.0815 E331.654 F2300
G1 X22.5083 Y16.2276 E332.517 F2300
G1 X22.35 Y15.863 E332.915 F2300
G1 X22.2331 Y15.6631 E333.146 F2300
G1 X22.0106 Y15.3673 E333.517 F2300
G1 X21.4616 Y14.891 E334.243 F2300
G1 X20.5908 Y14.5215 E335.189 F2300
G1 X19.8495 Y14.449 E335.934 F2300
G1 X19.2172 Y14.5423 E336.573 F2300
G1 X18.7098 Y14.7304 E337.114 F2300
G1 X18.1701 Y15.0784 E337.757 F2300
G1 X20.3044 Y14.4935 F2300
G1 X16.1609 Y10.35 E343.616 F2300
G1 X18.9893 Y10.35 F2300
G1 X39.857 Y31.2177 E373.128 F2300
G1 X39.857 Y28.3893 F2300
G1 X21.8177 Y10.35 E398.639 F2300
G1 X24.6462 Y10.35 F2300
G1 X39.857 Y25.5608 E420.151 F2300
G1 Y23.65 F2300
G1 Y34.2234 E430.724 F2300
G1 X35.6676 Y44.3374 E441.671 F2300
G1 X35.15 Y44.855 E442.403 F2300
G1 Y68.5 E466.048 F2300
G1 X38.65 E469.548 F2300
G1 Y86.645 E487.693 F2300
G1 X47.355 Y95.35 E500.004 F2300
G1 X62.85 E515.499 F2300
G1 Y21.65 E589.199 F2300
G1 X56.1502 E595.899 F2300
G1 X56.15 Y23.65 E597.899 F2300
G1 X39.857 E614.192 F2300
G1 X40.7746 Y23.65 F2300
G1 X35.3812 Y18.2566 E621.819 F2300
G1 X34.956 Y18.471 F2300
G1 X35.8978 Y17.9962 E622.874 F2300
G1 X36.5263 Y17.2561 E623.845 F2300
G1 X36.8269 Y16.3805 E624.771 F2300
G1 X36.8124 Y15.5422 E625.609 F2300
G1 X36.6134 Y14.9264 E626.256 F2300
G1 X36.5096 Y14.7242 E626.484 F2300
G1 X35.901 Y14.0078 E627.424 F2300
G1 X35.1081 Y13.5749 E628.327 F2300
G1 X34.0679 Y13.4535 E629.374 F2300
G1 X33.1398 Y13.7233 E630.341 F2300
G1 X32.4863 Y14.2 E631.15 F2300
G1 X31.9545 Y14.9893 E632.101 F2300
G1 X31.7771 Y15.6065 E632.744 F2300
G1 Y16.3932 E633.53 F2300
G1 X31.9486 Y16.9932 E634.154 F2300
G1 X32.2671 Y17.5476 E634.794 F2300
G1 X33.1231 Y18.2707 E635.914 F2300
G1 X34.0568 Y18.5438 E636.887 F2300
G1 X34.956 Y18.471 E637.789 F2300
G1 X36.7008 Y16.7478 F2300
G1 X43.603 Y23.65 E647.55 F2300
G1 X46.4314 Y23.65 F2300
G1 X33.1315 Y10.35 E666.359 F2300
G1 X35.9599 Y10.35 F2300
G1 X49.2599 Y23.65 E685.168 F2300
G1 X52.0883 Y23.65 F2300
G1 X38.7883 Y10.35 E703.977 F2300
G1 X41.6167 Y10.35 F2300
G1 X47.4886 Y16.2218 E712.282 F2300
G1 X47.4477 Y15.8868 F2300
G1 X47.5505 Y16.7298 E713.131 F2300
G1 X48.0186 Y17.613 E714.13 F2300
G1 X48.5584 Y18.11 E714.864 F2300
G1 X49.562 Y18.5193 E715.948 F2300
G1 X50.4973 Y18.5071 E716.883 F2300
G1 X51.3634 Y18.1626 E717.815 F2300
G1 X52.0983 Y17.4621 E718.831 F2300
G1 X52.5098 Y16.4896 E719.887 F2300
G1 Y15.5214 E720.855 F2300
G1 X52.2545 Y14.7982 E721.622 F2300
G1 X51.6824 Y14.0762 E722.543 F2300
G1 X50.9183 Y13.6142 E723.436 F2300
G1 X49.8808 Y13.4457 E724.487 F2300
G1 X48.9355 Y13.6763 E725.46 F2300
G1 X48.1997 Y14.1849 E726.354 F2300
G1 X47.6236 Y15.0584 E727.401 F2300
G1 X47.4477 Y15.8868 E728.248 F2300
G1 X48.2472 Y14.1521 F2300
G1 X44.4452 Y10.35 E733.625 F2300
G1 X47.2736 Y10.35 F2300
G1 X50.464 Y13.5404 E738.137 F2300
G1 X52.5098 Y15.5862 F2300
G1 X58.5736 Y21.65 E746.712 F2300
G1 X56.1502 Y22.055 F2300
G1 X51.8213 Y17.7261 E752.834 F2300
G1 X49.7831 Y18.5164 F2300
G1 X54.9167 Y23.65 E760.094 F2300
G1 X61.402 Y21.65 F2300
G1 X50.102 Y10.35 E776.075 F2300
G1 X52.9304 Y10.35 F2300
G1 X71.35 Y28.7696 E802.124 F2300
G1 Y31.598 F2300
G1 X62.85 Y23.098 E814.145 F2300
G1 X62.85 Y25.9264 F2300
G1 X71.35 Y34.4264 E826.165 F2300
G1 Y37.2548 F2300
G1 X62.85 Y28.7548 E838.186 F2300
G1 Y31.5833 F2300
G1 X71.35 Y40.0833 E850.207 F2300
G1 Y42.9117 F2300
G1 X62.85 Y34.4117 E862.228 F2300
G1 Y37.2401 F2300
G1 X71.35 Y45.7401 E874.249 F2300
G1 Y48.5686 F2300
G1 X62.85 Y40.0686 E886.269 F2300
G1 Y42.897 F2300
G1 X71.35 Y51.397 E898.29 F2300
G1 Y54.2254 F2300
G1 X62.85 Y45.7254 E910.311 F2300
G1 Y48.5538 F2300
G1 X71.35 Y57.0538 E922.332 F2300
G1 Y59.8823 F2300
G1 X62.85 Y51.3823 E934.353 F2300
G1 X62.85 Y54.2107 F2300
G1 X71.35 Y62.7107 E946.374 F2300
G1 Y65.5391 F2300
G1 X62.85 Y57.0391 E958.394 F2300
G1 Y59.8675 F2300
G1 X71.35 Y68.3675 E970.415 F2300
G1 Y71.196 F2300
G1 X62.85 Y62.696 E982.436 F2300
G1 Y65.5244 F2300
G1 X71.35 Y74.0244 E994.457 F2300
G1 Y76.8528 F2300
G1 X62.85 Y68.3528 E1006.48 F2300
G1 Y71.1813 F2300
G1 X71.35 Y79.6813 E1018.5 F2300
G1 Y82.5097 F2300
G1 X62.85 Y74.0097 E1030.52 F2300
G1 Y76.8381 F2300
G1 X71.35 Y85.3381 E1042.54 F2300
G1 Y88.1665 F2300
G1 X62.85 Y79.6665 E1054.56 F2300
G1 Y82.495 F2300
G1 X71.35 Y90.995 E1066.58 F2300
G1 Y93.8234 F2300
G1 X62.85 Y85.3234 E1078.6 F2300
G1 Y88.1518 F2300
G1 X71.35 Y96.6518 E1090.62 F2300
G1 Y99.4802 F2300
G1 X62.85 Y90.9802 E1102.64 F2300
G1 Y93.8087 F2300
G1 X71.35 Y102.309 E1114.67 F2300
G1 Y105.137 F2300
G1 X68.0591 Y101.846 E1119.32 F2300
G1 X67.9499 Y102.216 F2300
G1 X68.2499 Y101.2 E1120.38 F2300
G1 X68.1121 Y100.15 E1121.44 F2300
G1 X67.5872 Y99.2736 E1122.46 F2300
G1 X66.692 Y98.6432 E1123.55 F2300
G1 X65.7748 Y98.4446 E1124.49 F2300
G1 X64.7725 Y98.6163 E1125.51 F2300
G1 X63.8558 Y99.2267 E1126.61 F2300
G1 X63.2941 Y100.146 E1127.69 F2300
G1 X63.1902 Y100.535 E1128.09 F2300
G1 Y101.491 E1129.05 F2300
G1 X63.6276 Y102.5 E1130.15 F2300
G1 X64.4507 Y103.232 E1131.25 F2300
G1 X65.4179 Y103.541 E1132.26 F2300
G1 X66.3136 Y103.482 E1133.16 F2300
G1 X67.2948 Y103 E1134.25 F2300
G1 X67.9499 Y102.216 E1135.28 F2300
G1 X66.6843 Y103.3 F2300
G1 X70.0345 Y106.65 E1140.01 F2300
G1 X67.206 F2300
G1 X55.9061 Y95.35 E1155.99 F2300
G1 X58.7345 F2300
G1 X63.3839 Y99.9994 E1162.57 F2300
G1 X64.8209 Y98.608 F2300
G1 X61.5629 Y95.35 E1167.18 F2300
G1 X53.0776 F2300
G1 X64.3776 Y106.65 E1183.16 F2300
G1 X61.5492 F2300
G1 X50.2492 Y95.35 E1199.14 F2300
G1 X47.4208 F2300
G1 X50.6189 Y98.5481 E1203.66 F2300
G1 X50.7746 Y98.5624 F2300
G1 X49.6828 Y98.4623 E1204.76 F2300
G1 X48.7495 Y98.7692 E1205.74 F2300
G1 X47.9323 Y99.4955 E1206.83 F2300
G1 X47.53 Y100.342 E1207.77 F2300
G1 X47.4622 Y101.314 E1208.74 F2300
G1 X47.8051 Y102.313 E1209.8 F2300
G1 X48.4905 Y103.064 E1210.82 F2300
G1 X49.3738 Y103.479 E1211.79 F2300
G1 X50.3757 Y103.527 E1212.8 F2300
G1 X51.114 Y103.299 E1213.57 F2300
G1 X51.8897 Y102.722 E1214.54 F2300
G1 X52.4129 Y101.849 E1215.55 F2300
G1 X52.5459 Y100.765 E1216.65 F2300
G1 X52.3061 Y99.8964 E1217.55 F2300
G1 X51.6618 Y99.0566 E1218.61 F2300
G1 X50.7746 Y98.5624 E1219.62 F2300
G1 X52.4353 Y100.364 F2300
G1 X58.7208 Y106.65 E1228.51 F2300
G1 X55.8923 F2300
G1 X51.9178 Y102.675 E1234.13 F2300
G1 X49.9192 Y103.505 F2300
G1 X53.0639 Y106.65 E1238.58 F2300
G1 X50.2355 F2300
G1 X10.35 Y66.7645 E1294.99 F2300
G1 X10.35 Y63.9361 F2300
G1 X27.3961 Y80.9822 E1319.09 F2300
G1 X27.3755 Y81.2443 F2300
G1 X27.5775 Y82.0012 E1319.88 F2300
G1 X28.1923 Y82.843 E1320.92 F2300
G1 X28.7354 Y83.2227 E1321.58 F2300
G1 X29.2817 Y83.4439 E1322.17 F2300
G1 X30.0662 Y83.5543 E1322.96 F2300
G1 X31.0159 Y83.3877 E1323.93 F2300
G1 X31.6664 Y83.0504 E1324.66 F2300
G1 X32.3027 Y82.4175 E1325.56 F2300
G1 X32.6696 Y81.6369 E1326.42 F2300
G1 X32.7548 Y80.9468 E1327.11 F2300
G1 X32.5446 Y80.0031 E1328.08 F2300
G1 X31.9165 Y79.145 E1329.14 F2300
G1 X31.0223 Y78.6113 E1330.19 F2300
G1 X29.8543 Y78.45 E1331.37 F2300
G1 X28.7358 Y78.7708 E1332.53 F2300
G1 X27.8896 Y79.4788 E1333.63 F2300
G1 X27.4441 Y80.3743 E1334.63 F2300
G1 X27.3755 Y81.2443 E1335.51 F2300
G1 X28.3423 Y79.1 F2300
G1 X10.35 Y61.1077 E1360.95 F2300
G1 X10.35 Y58.2792 F2300
G1 X30.6275 Y78.5568 E1389.63 F2300
G1 X32.6795 Y80.6087 F2300
G1 X38.65 Y86.5792 E1398.07 F2300
G1 Y83.7508 F2300
G1 X10.35 Y55.4508 E1438.09 F2300
G1 X10.35 Y52.6224 F2300
G1 X38.65 Y80.9224 E1478.11 F2300
G1 Y78.0939 F2300
G1 X10.35 Y49.7939 E1518.14 F2300
G1 X10.35 Y46.9655 F2300
G1 X38.65 Y75.2655 E1558.16 F2300
G1 Y72.4371 F2300
G1 X10.35 Y44.1371 E1598.18 F2300
G1 X10.35 Y41.3087 F2300
G1 X19.65 Y50.6087 E1611.33 F2300
G1 Y50.7335 F2300
G1 X22.3442 Y55.4 E1616.72 F2300
G1 X27.829 E1622.21 F2300
G1 X30.658 Y50.5 E1627.87 F2300
G1 X27.829 Y45.6 E1633.52 F2300
G1 X22.3442 E1639.01 F2300
G1 X19.65 Y50.2665 E1644.4 F2300
G1 Y50.7335 E1644.86 F2300
G1 X20.56 Y48.6903 F2300
G1 X10.35 Y38.4802 E1659.3 F2300
G1 X12.1982 Y37.5 F2300
G1 X21.5953 Y46.8971 E1672.59 F2300
G1 X23.1266 Y45.6 F2300
G1 X13.35 Y35.8234 E1686.42 F2300
G1 Y32.995 F2300
G1 X25.955 Y45.6 E1704.24 F2300
G1 X30.3889 Y50.0339 F2300
G1 X35.15 Y54.795 E1710.98 F2300
G1 Y51.9665 F2300
G1 X13.35 Y30.1665 E1741.81 F2300
G1 X13.35 Y27.3381 F2300
G1 X35.15 Y49.1381 E1772.64 F2300
G1 Y46.3097 F2300
G1 X13.35 Y24.5097 E1803.47 F2300
G1 X13.35 Y21.6812 F2300
G1 X27.3939 Y35.7252 E1823.33 F2300
G1 X27.394 Y35.6099 F2300
G1 X27.3936 Y36.3852 E1824.1 F2300
G1 X27.6889 Y37.2166 E1824.99 F2300
G1 X28.1373 Y37.7906 E1825.71 F2300
G1 X28.8189 Y38.2671 E1826.55 F2300
G1 X29.5349 Y38.506 E1827.3 F2300
G1 X30.6817 Y38.4858 E1828.45 F2300
G1 X31.3723 Y38.2287 E1829.18 F2300
G1 X31.8638 Y37.8971 E1829.78 F2300
G1 X32.5186 Y37.0481 E1830.85 F2300
G1 X32.7261 Y36.373 E1831.56 F2300
G1 X32.7025 Y35.4933 E1832.44 F2300
G1 X32.3765 Y34.6913 E1833.3 F2300
G1 X31.6552 Y33.9376 E1834.35 F2300
G1 X30.5641 Y33.4891 E1835.52 F2300
G1 X29.6487 Y33.4739 E1836.44 F2300
G1 X28.5349 Y33.8883 E1837.63 F2300
G1 X27.7394 Y34.6923 E1838.76 F2300
G1 X27.394 Y35.6099 E1839.74 F2300
G1 X28.4606 Y33.9634 F2300
G1 X13.35 Y18.8528 E1861.11 F2300
G1 X13.35 Y16.0244 F2300
G1 X30.9896 Y33.664 E1886.06 F2300
G1 X32.6227 Y35.2971 F2300
G1 X37.4236 Y40.098 E1892.85 F2300
G1 X36.5952 Y42.098 F2300
G1 X32.0948 Y37.5976 E1899.21 F2300
G1 X30.1637 Y38.4949 F2300
G1 X35.7668 Y44.098 E1907.13 F2300
G1 X38.2521 Y38.098 F2300
G1 X19.64 Y19.486 E1933.46 F2300
G1 X21.7855 Y18.803 F2300
G1 X39.0805 Y36.098 E1957.91 F2300
G1 X39.857 Y34.0461 F2300
G1 X22.5904 Y16.7795 E1982.33 F2300
G1 X17.2524 Y17.0984 F2300
G1 X13.35 Y13.196 E1987.85 F2300
G1 X27.4746 Y10.35 F2300
G1 X32.0187 Y14.8941 E1994.28 F2300
G1 X33.5555 Y13.6025 F2300
G1 X30.303 Y10.35 E1998.88 F2300
G1 X55.7589 Y10.35 F2300
G1 X71.35 Y25.9411 E2020.93 F2300
G1 Y23.1127 F2300
G1 X66.5846 Y18.3473 E2027.67 F2300
G1 X66.2615 Y18.4957 F2300
G1 X67.2253 Y18.0528 E2028.73 F2300
G1 X67.8978 Y17.3028 E2029.73 F2300
G1 X68.1743 Y16.6333 E2030.46 F2300
G1 X68.2473 Y15.797 E2031.3 F2300
G1 X68.0075 Y14.8994 E2032.23 F2300
G1 X67.3979 Y14.0875 E2033.24 F2300
G1 X66.4763 Y13.5625 E2034.3 F2300
G1 X65.378 Y13.4619 E2035.41 F2300
G1 X64.3692 Y13.823 E2036.48 F2300
G1 X64.1715 Y13.9571 E2036.72 F2300
G1 X63.5051 Y14.6874 E2037.71 F2300
G1 X63.1623 Y15.686 E2038.76 F2300
G1 X63.2287 Y16.6464 E2039.72 F2300
G1 X63.5134 Y17.3217 E2040.46 F2300
G1 X64.1926 Y18.066 E2041.46 F2300
G1 X65.1602 Y18.5005 E2042.53 F2300
G1 X66.2615 Y18.4957 E2043.63 F2300
G1 X68.0354 Y16.9697 F2300
G1 X71.35 Y20.2843 E2048.31 F2300
G1 Y17.4559 F2300
G1 X64.2441 Y10.35 E2058.36 F2300
G1 X61.4157 Y10.35 F2300
G1 X64.7518 Y13.6861 E2063.08 F2300
G1 X63.3568 Y15.1195 F2300
G1 X58.5873 Y10.35 E2069.83 F2300
G1 X67.0726 Y10.35 F2300
G1 X71.35 Y14.6274 E2075.88 F2300
G1 Y11.799 F2300
G1 X69.901 Y10.35 E2077.93 F2300
G1 X29.6949 Y52.1682 F2300
G1 X35.15 Y57.6234 E2085.64 F2300
G1 Y60.4518 F2300
G1 X28.6596 Y53.9614 E2094.82 F2300
G1 X27.2698 Y55.4 F2300
G1 X35.15 Y63.2802 E2105.96 F2300
G1 Y66.1087 F2300
G1 X24.4413 Y55.4 E2121.11 F2300
G1 X37.5413 Y68.5 F2300
G1 X38.65 Y69.6087 E2122.68 F2300
G1 X31.9804 Y82.7381 F2300
G1 X48.3588 Y99.1164 E2145.84 F2300
G1 X47.4795 Y101.066 F2300
G1 X29.9522 Y83.5382 E2170.62 F2300
G1 X33.8393 Y98.4896 F2300
G1 X33.1344 Y98.7277 E2171.37 F2300
G1 X32.5295 Y99.1608 E2172.11 F2300
G1 X32.1275 Y99.6572 E2172.75 F2300
G1 X31.791 Y100.511 E2173.67 F2300
G1 Y101.495 E2174.65 F2300
G1 X32.2295 Y102.501 E2175.75 F2300
G1 X32.9779 Y103.188 E2176.77 F2300
G1 X33.8462 Y103.515 E2177.69 F2300
G1 X34.7041 Y103.524 E2178.55 F2300
G1 X35.7185 Y103.128 E2179.64 F2300
G1 X36.4268 Y102.416 E2180.65 F2300
G1 X36.7538 Y101.711 E2181.42 F2300
G1 X36.8446 Y100.761 E2182.38 F2300
G1 X36.6065 Y99.8975 E2183.27 F2300
G1 X35.9797 Y99.076 E2184.31 F2300
G1 X35.4801 Y98.7358 E2184.91 F2300
G1 X34.7075 Y98.4807 E2185.72 F2300
G1 X34.2958 Y98.4495 E2186.14 F2300
G1 X33.8393 Y98.4896 E2186.6 F2300
G1 X33.6528 Y98.5526 F2300
G1 X10.35 Y75.2498 E2219.55 F2300
G1 X10.35 Y78.0782 F2300
G1 X32.0714 Y99.7996 E2250.27 F2300
G1 X35.4893 Y103.217 F2300
G1 X38.9218 Y106.65 E2255.12 F2300
G1 X41.7502 F2300
G1 X36.7588 Y101.659 E2262.18 F2300
G1 X36.0933 Y106.65 F2300
G1 X10.35 Y80.9067 E2298.59 F2300
G1 X10.35 Y83.7351 F2300
G1 X33.2649 Y106.65 E2331 F2300
G1 X30.4365 F2300
G1 X10.35 Y86.5635 E2359.4 F2300
G1 Y89.3919 F2300
G1 X18.7148 Y97.7567 E2371.23 F2300
G1 X18.9693 Y97.6193 F2300
G1 X18.2707 Y97.9964 E2372.03 F2300
G1 X17.8081 Y98.441 E2372.67 F2300
G1 X17.4994 Y98.9227 E2373.24 F2300
G1 X17.32 Y99.4118 E2373.76 F2300
G1 X17.2451 Y100.057 E2374.41 F2300
G1 X17.4909 Y101.073 E2375.46 F2300
G1 X18.1065 Y101.872 E2376.46 F2300
G1 X18.7238 Y102.28 E2377.2 F2300
G1 X19.8894 Y102.557 E2378.4 F2300
G1 X20.9573 Y102.369 E2379.49 F2300
G1 X21.932 Y101.728 E2380.65 F2300
G1 X22.5025 Y100.801 E2381.74 F2300
G1 X22.6369 Y100.001 E2382.55 F2300
G1 X22.5039 Y99.2067 E2383.36 F2300
G1 X22.079 Y98.4418 E2384.23 F2300
G1 X21.3052 Y97.7945 E2385.24 F2300
G1 X20.2989 Y97.4679 E2386.3 F2300
G1 X19.5085 Y97.4809 E2387.09 F2300
G1 X18.9693 Y97.6193 E2387.65 F2300
G1 X17.3794 Y99.2498 F2300
G1 X10.35 Y92.2204 E2397.59 F2300
G1 Y95.0488 F2300
G1 X21.9512 Y106.65 E2413.99 F2300
G1 X24.7796 F2300
G1 X20.5673 Y102.438 E2419.95 F2300
G1 X22.2194 Y101.261 F2300
G1 X27.6081 Y106.65 E2427.57 F2300
G1 X19.1228 F2300
G1 X10.35 Y97.8772 E2439.98 F2300
G1 X10.35 Y100.706 F2300
G1 X16.2944 Y106.65 E2448.39 F2300
G1 X13.4659 F2300
G1 X10.35 Y103.534 E2452.79 F2300
G1 X10.35 Y106.362 F2300
G1 X10.6375 Y106.65 E2453.2 F2300
G1 X44.5786 F2300
G1 X10.35 Y72.4214 E2501.6 F2300
G1 X10.35 Y69.5929 F2300
G1 X47.4071 Y106.65 E2554.01 F2300
G1 F70
G1 Z0.4 F70

G1 X47.2736 F2300
G1 X50.4068 Y103.517 E2558.44 F2300
G1 X49.3736 Y103.479 E2559.44 F2300
G1 X48.4905 Y103.064 E2560.42 F2300
G1 X47.8051 Y102.313 E2561.43 F2300
G1 X47.4622 Y101.314 E2562.49 F2300
G1 X47.53 Y100.342 E2563.46 F2300
G1 X47.9323 Y99.4955 E2564.4 F2300
G1 X48.7495 Y98.7692 E2565.49 F2300
G1 X49.6828 Y98.4623 E2566.48 F2300
G1 X50.7743 Y98.5623 E2567.57 F2300
G1 X51.6518 Y99.0493 E2568.58 F2300
G1 X52.306 Y99.8959 E2569.65 F2300
G1 X52.5462 Y100.77 E2570.55 F2300
G1 X52.4128 Y101.849 E2571.64 F2300
G1 X51.8897 Y102.722 E2572.66 F2300
G1 X51.1138 Y103.3 E2573.62 F2300
G1 X50.3702 Y103.528 E2574.4 F2300
G1 X48.2715 Y102.824 F2300
G1 X44.4452 Y106.65 E2579.81 F2300
G1 X41.6167 F2300
G1 X47.5004 Y100.766 E2588.13 F2300
G1 X49.7942 Y98.4725 F2300
G1 X52.9167 Y95.35 E2592.55 F2300
G1 X50.0883 F2300
G1 X38.7883 Y106.65 E2608.53 F2300
G1 X35.9599 F2300
G1 X47.3074 Y95.3024 E2624.58 F2300
G1 X47.355 Y95.35 F2300
G1 X62.85 E2640.07 F2300
G1 Y21.65 E2713.77 F2300
G1 X56.1506 E2720.47 F2300
G1 X56.1501 Y23.65 E2722.47 F2300
G1 X39.857 E2738.77 F2300
G1 Y34.2234 E2749.34 F2300
G1 X35.6676 Y44.3374 E2760.29 F2300
G1 X35.15 Y44.855 E2761.02 F2300
G1 Y68.5 E2784.66 F2300
G1 X38.65 E2788.16 F2300
G1 Y86.645 E2806.31 F2300
G1 X47.355 Y95.35 E2818.62 F2300
G1 X45.8932 Y93.8882 F2300
G1 X33.1315 Y106.65 E2836.67 F2300
G1 X30.303 F2300
G1 X33.55 Y103.403 E2841.26 F2300
G1 X33.8516 Y103.516 F2300
G1 X34.7181 Y103.521 E2842.13 F2300
G1 X35.7257 Y103.123 E2843.21 F2300
G1 X36.4244 Y102.42 E2844.2 F2300
G1 X36.7562 Y101.701 E2844.99 F2300
G1 X36.8449 Y100.766 E2845.93 F2300
G1 X36.6073 Y99.8992 E2846.83 F2300
G1 X35.9863 Y99.0823 E2847.86 F2300
G1 X35.4851 Y98.7385 E2848.46 F2300
G1 X34.7179 Y98.4828 E2849.27 F2300
G1 X34.3128 Y98.4507 E2849.68 F2300
G1 X33.8688 Y98.4865 E2850.12 F2300
G1 X33.4711 Y98.5853 E2850.53 F2300
G1 X32.546 Y99.1434 E2851.61 F2300
G1 X32.1299 Y99.6535 E2852.27 F2300
G1 X31.7927 Y100.504 E2853.19 F2300
G1 Y101.503 E2854.19 F2300
G1 X32.236 Y102.509 E2855.29 F2300
G1 X32.985 Y103.192 E2856.3 F2300
G1 X33.8516 Y103.516 E2857.23 F2300
G1 X32.0462 Y102.078 F2300
G1 X27.4746 Y106.65 E2863.69 F2300
G1 X24.6462 F2300
G1 X41.6506 Y89.6456 E2887.74 F2300
G1 X40.2364 Y88.2313 F2300
G1 X21.8177 Y106.65 E2913.79 F2300
G1 X18.9893 F2300
G1 X38.8222 Y86.8171 E2941.83 F2300
G1 X38.65 Y84.1609 F2300
G1 X22.4277 Y100.383 E2964.78 F2300
G1 X22.4912 Y100.005 F2300
G1 X22.3598 Y99.2113 E2965.58 F2300
G1 X21.9349 Y98.4437 E2966.46 F2300
G1 X21.1648 Y97.7976 E2967.46 F2300
G1 X20.1583 Y97.4687 E2968.52 F2300
G1 X19.3715 Y97.4799 E2969.31 F2300
G1 X18.83 Y97.6171 E2969.87 F2300
G1 X18.1313 Y97.9921 E2970.66 F2300
G1 X17.6688 Y98.4339 E2971.3 F2300
G1 X17.359 Y98.9133 E2971.87 F2300
G1 X17.1777 Y99.4008 E2972.39 F2300
G1 X17.0993 Y100.056 E2973.05 F2300
G1 X17.3475 Y101.077 E2974.1 F2300
G1 X17.9551 Y101.867 E2975.1 F2300
G1 X18.584 Y102.283 E2975.85 F2300
G1 X19.7496 Y102.557 E2977.05 F2300
G1 X20.8103 Y102.37 E2978.13 F2300
G1 X21.787 Y101.727 E2979.29 F2300
G1 X22.3583 Y100.797 E2980.39 F2300
G1 X22.4912 Y100.005 E2981.19 F2300
G1 X21.7195 Y98.263 F2300
G1 X38.65 Y81.3325 E3005.13 F2300
G1 Y78.504 F2300
G1 X19.6785 Y97.4755 E3031.96 F2300
G1 X17.0995 Y100.054 F2300
G1 X10.504 Y106.65 E3041.29 F2300
G1 X10.35 F2300
G1 Y37.5 E3110.44 F2300
G1 X13.35 E3113.44 F2300
G1 Y10.35 E3140.59 F2300
G1 X71.35 E3198.59 F2300
G1 Y106.65 E3294.89 F2300
G1 X10.35 E3355.89 F2300
G1 X10.35 Y103.976 F2300
G1 X30.8896 Y83.436 E3384.94 F2300
G1 X31.1566 Y83.3893 F2300
G1 X31.8109 Y83.0512 E3385.67 F2300
G1 X32.4423 Y82.4252 E3386.56 F2300
G1 X32.8143 Y81.6404 E3387.43 F2300
G1 X32.9004 Y80.9468 E3388.13 F2300
G1 X32.6899 Y80.0024 E3389.1 F2300
G1 X32.0558 Y79.1398 E3390.17 F2300
G1 X31.1656 Y78.6104 E3391.2 F2300
G1 X29.9872 Y78.4516 E3392.39 F2300
G1 X28.8751 Y78.7744 E3393.55 F2300
G1 X28.0309 Y79.4844 E3394.65 F2300
G1 X27.5873 Y80.3885 E3395.66 F2300
G1 X27.5207 Y81.2352 E3396.51 F2300
G1 X27.7215 Y81.9978 E3397.3 F2300
G1 X28.3402 Y82.845 E3398.35 F2300
G1 X28.8752 Y83.2193 E3399 F2300
G1 X29.4212 Y83.4421 E3399.59 F2300
G1 X30.2135 Y83.5543 E3400.39 F2300
G1 X31.1566 Y83.3893 E3401.35 F2300
G1 X32.8326 Y81.493 F2300
G1 X38.65 Y75.6756 E3409.58 F2300
G1 Y72.8472 F2300
G1 X32.1836 Y79.3136 E3418.72 F2300
G1 X30.1898 Y78.4789 F2300
G1 X38.65 Y70.0187 E3430.69 F2300
G1 X37.3403 Y68.5 F2300
G1 X10.35 Y95.4903 E3468.86 F2300
G1 X10.35 Y98.3187 F2300
G1 X27.5282 Y81.1406 E3493.15 F2300
G1 X28.5238 Y82.9734 F2300
G1 X10.35 Y101.147 E3518.85 F2300
G1 X13.3325 Y106.65 F2300
G1 X18.0519 Y101.931 E3525.52 F2300
G1 X20.3623 Y102.449 F2300
G1 X16.1609 Y106.65 E3531.47 F2300
G1 X10.35 Y92.6619 F2300
G1 X35.15 Y67.8619 E3566.54 F2300
G1 Y65.0335 F2300
G1 X10.35 Y89.8335 E3601.61 F2300
G1 Y87.005 F2300
G1 X35.15 Y62.205 E3636.68 F2300
G1 Y59.3766 F2300
G1 X10.35 Y84.1766 E3671.76 F2300
G1 Y81.3482 F2300
G1 X35.15 Y56.5482 E3706.83 F2300
G1 Y53.7197 F2300
G1 X10.35 Y78.5198 E3741.9 F2300
G1 X10.35 Y75.6913 F2300
G1 X35.15 Y50.8913 E3776.97 F2300
G1 Y48.0629 F2300
G1 X27.851 Y55.3619 E3787.3 F2300
G1 X22.3442 Y55.4 E3792.78 F2300
G1 X19.65 Y50.7335 E3798.17 F2300
G1 Y50.2665 E3798.64 F2300
G1 X22.3442 Y45.6 E3804.03 F2300
G1 X27.829 E3809.51 F2300
G1 X30.658 Y50.5 E3815.17 F2300
G1 X27.829 Y55.4 E3820.83 F2300
G1 X10.35 Y72.8629 E3845.52 F2300
G1 Y70.0345 F2300
G1 X24.9845 Y55.4 E3866.22 F2300
G1 X22.2753 Y55.2807 F2300
G1 X10.35 Y67.206 E3883.08 F2300
G1 X10.35 Y64.3776 F2300
G1 X21.24 Y53.4876 E3898.48 F2300
G1 X20.2048 Y51.6944 F2300
G1 X10.35 Y61.5492 E3912.42 F2300
G1 X10.35 Y58.7208 F2300
G1 X20.8053 Y48.2655 E3927.21 F2300
G1 X23.4708 Y45.6 F2300
G1 X30.5798 Y38.491 E3937.26 F2300
G1 X30.8231 Y38.4866 F2300
G1 X31.5153 Y38.23 E3938 F2300
G1 X31.9851 Y37.9152 E3938.56 F2300
G1 X32.548 Y37.2655 E3939.42 F2300
G1 X32.8716 Y36.385 E3940.36 F2300
G1 X32.8466 Y35.4871 E3941.26 F2300
G1 X32.5203 Y34.6885 E3942.12 F2300
G1 X31.7911 Y33.9316 E3943.17 F2300
G1 X30.7117 Y33.4895 E3944.34 F2300
G1 X29.786 Y33.4754 E3945.27 F2300
G1 X28.6831 Y33.8867 E3946.44 F2300
G1 X27.886 Y34.6908 E3947.58 F2300
G1 X27.5404 Y35.6054 E3948.55 F2300
G1 X27.5394 Y36.3862 E3949.33 F2300
G1 X27.8309 Y37.2098 E3950.21 F2300
G1 X28.2815 Y37.7894 E3950.94 F2300
G1 X28.9587 Y38.2641 E3951.77 F2300
G1 X29.6884 Y38.5072 E3952.54 F2300
G1 X30.8231 Y38.4866 E3953.67 F2300
G1 X28.3823 Y37.86 F2300
G1 X10.35 Y55.8923 E3979.17 F2300
G1 X10.35 Y53.0639 F2300
G1 X27.54 Y35.8739 E4003.48 F2300
G1 X29.9362 Y33.4777 F2300
G1 X47.457 Y15.9569 E4028.26 F2300
G1 X47.448 Y15.8827 F2300
G1 X47.5504 Y16.7297 E4029.12 F2300
G1 X48.0186 Y17.613 E4030.12 F2300
G1 X48.5584 Y18.11 E4030.85 F2300
G1 X49.562 Y18.5193 E4031.93 F2300
G1 X50.4973 Y18.5071 E4032.87 F2300
G1 X51.3634 Y18.1626 E4033.8 F2300
G1 X52.0983 Y17.4621 E4034.82 F2300
G1 X52.5098 Y16.4896 E4035.87 F2300
G1 Y15.5214 E4036.84 F2300
G1 X52.2545 Y14.7982 E4037.61 F2300
G1 X51.6824 Y14.0762 E4038.53 F2300
G1 X50.9183 Y13.6142 E4039.42 F2300
G1 X49.8808 Y13.4457 E4040.47 F2300
G1 X48.9355 Y13.6763 E4041.44 F2300
G1 X48.1997 Y14.1849 E4042.34 F2300
G1 X47.6237 Y15.0583 E4043.39 F2300
G1 X47.448 Y15.8827 E4044.23 F2300
G1 X48.3366 Y17.9057 F2300
G1 X42.5923 Y23.65 E4052.35 F2300
G1 X45.4208 Y23.65 F2300
G1 X50.6075 Y18.4632 E4059.69 F2300
G1 X52.4575 Y16.6133 F2300
G1 X58.7208 Y10.35 E4068.54 F2300
G1 X61.5492 Y10.35 F2300
G1 X48.2492 Y23.65 E4087.35 F2300
G1 X51.0776 F2300
G1 X64.3776 Y10.35 E4106.16 F2300
G1 X67.206 Y10.35 F2300
G1 X53.906 Y23.65 E4124.97 F2300
G1 X58.7345 Y21.65 F2300
G1 X63.3803 Y17.0042 E4131.54 F2300
G1 X63.5131 Y17.3214 F2300
G1 X64.1926 Y18.066 E4132.55 F2300
G1 X65.1602 Y18.5005 E4133.61 F2300
G1 X66.2615 Y18.4957 E4134.71 F2300
G1 X67.2253 Y18.0528 E4135.77 F2300
G1 X67.8978 Y17.3028 E4136.78 F2300
G1 X68.1743 Y16.6333 E4137.5 F2300
G1 X68.2473 Y15.797 E4138.34 F2300
G1 X68.0075 Y14.8994 E4139.27 F2300
G1 X67.3979 Y14.0875 E4140.29 F2300
G1 X66.4763 Y13.5625 E4141.35 F2300
G1 X65.378 Y13.4619 E4142.45 F2300
G1 X64.3692 Y13.823 E4143.52 F2300
G1 X64.1715 Y13.9571 E4143.76 F2300
G1 X63.5051 Y14.6874 E4144.75 F2300
G1 X63.1623 Y15.6858 E4145.81 F2300
G1 X63.2271 Y16.6382 E4146.76 F2300
G1 X63.5131 Y17.3214 E4147.5 F2300
G1 X64.8512 Y18.3617 F2300
G1 X61.5629 Y21.65 E4152.15 F2300
G1 X62.85 Y23.1913 F2300
G1 X71.35 Y14.6913 E4164.17 F2300
G1 Y11.8629 F2300
G1 X68.072 Y15.1409 E4168.81 F2300
G1 X66.6965 Y13.688 F2300
G1 X70.0345 Y10.35 E4173.53 F2300
G1 X71.35 Y17.5197 F2300
G1 X62.85 Y26.0198 E4185.55 F2300
G1 Y28.8482 F2300
G1 X71.35 Y20.3482 E4197.57 F2300
G1 Y23.1766 F2300
G1 X62.85 Y31.6766 E4209.59 F2300
G1 Y34.505 F2300
G1 X71.35 Y26.005 E4221.61 F2300
G1 Y28.8335 F2300
G1 X62.85 Y37.3335 E4233.63 F2300
G1 Y40.1619 F2300
G1 X71.35 Y31.6619 E4245.65 F2300
G1 Y34.4903 F2300
G1 X62.85 Y42.9903 E4257.68 F2300
G1 Y45.8187 F2300
G1 X71.35 Y37.3187 E4269.7 F2300
G1 Y40.1472 F2300
G1 X62.85 Y48.6472 E4281.72 F2300
G1 X62.85 Y51.4756 F2300
G1 X71.35 Y42.9756 E4293.74 F2300
G1 Y45.804 F2300
G1 X62.85 Y54.304 E4305.76 F2300
G1 Y57.1325 F2300
G1 X71.35 Y48.6324 E4317.78 F2300
G1 Y51.4609 F2300
G1 X62.85 Y59.9609 E4329.8 F2300
G1 X62.85 Y62.7893 F2300
G1 X71.35 Y54.2893 E4341.82 F2300
G1 Y57.1177 F2300
G1 X62.85 Y65.6177 E4353.84 F2300
G1 Y68.4462 F2300
G1 X71.35 Y59.9462 E4365.86 F2300
G1 Y62.7746 F2300
G1 X62.85 Y71.2746 E4377.89 F2300
G1 Y74.103 F2300
G1 X71.35 Y65.603 E4389.91 F2300
G1 Y68.4314 F2300
G1 X62.85 Y76.9314 E4401.93 F2300
G1 X62.85 Y79.7599 F2300
G1 X71.35 Y71.2599 E4413.95 F2300
G1 Y74.0883 F2300
G1 X62.85 Y82.5883 E4425.97 F2300
G1 Y85.4167 F2300
G1 X71.35 Y76.9167 E4437.99 F2300
G1 Y79.7451 F2300
G1 X62.85 Y88.2451 E4450.01 F2300
G1 Y91.0736 F2300
G1 X71.35 Y82.5736 E4462.03 F2300
G1 X71.35 Y85.402 F2300
G1 X62.85 Y93.902 E4474.05 F2300
G1 X61.402 Y95.35 F2300
G1 X50.102 Y106.65 E4490.03 F2300
G1 X52.9304 F2300
G1 X71.35 Y88.2304 E4516.08 F2300
G1 Y91.0589 F2300
G1 X55.7589 Y106.65 E4538.13 F2300
G1 X58.5873 F2300
G1 X63.3583 Y101.879 E4544.88 F2300
G1 X63.1902 Y101.491 F2300
G1 X63.6276 Y102.5 E4545.98 F2300
G1 X64.4507 Y103.232 E4547.08 F2300
G1 X65.4179 Y103.541 E4548.1 F2300
G1 X66.3136 Y103.482 E4548.99 F2300
G1 X67.2948 Y103 E4550.09 F2300
G1 X67.9499 Y102.216 E4551.11 F2300
G1 X68.2499 Y101.2 E4552.17 F2300
G1 X68.1121 Y100.15 E4553.23 F2300
G1 X67.5872 Y99.2736 E4554.25 F2300
G1 X66.692 Y98.6432 E4555.34 F2300
G1 X65.7748 Y98.4446 E4556.28 F2300
G1 X64.7725 Y98.6163 E4557.3 F2300
G1 X63.8558 Y99.2267 E4558.4 F2300
G1 X63.2941 Y100.146 E4559.48 F2300
G1 X63.1902 Y100.535 E4559.88 F2300
G1 Y101.491 E4560.83 F2300
G1 X64.7411 Y103.325 F2300
G1 X61.4157 Y106.65 E4565.54 F2300
G1 X64.2441 F2300
G1 X71.35 Y99.5441 E4575.59 F2300
G1 Y102.373 F2300
G1 X67.0726 Y106.65 E4581.64 F2300
G1 X69.901 F2300
G1 X71.35 Y105.201 E4583.69 F2300
G1 X68.0385 Y100.027 F2300
G1 X71.35 Y96.7157 E4588.37 F2300
G1 Y93.8873 F2300
G1 X66.6115 Y98.6257 E4595.07 F2300
G1 X58.5736 Y95.35 F2300
G1 X52.4605 Y101.463 E4603.71 F2300
G1 X51.8235 Y99.2716 F2300
G1 X55.7451 Y95.35 E4609.26 F2300
G1 X44.479 Y92.474 F2300
G1 X36.7034 Y100.25 E4620.26 F2300
G1 X35.4108 Y98.7137 F2300
G1 X43.0648 Y91.0598 E4631.08 F2300
G1 X30.3749 Y50.0096 F2300
G1 X35.15 Y45.2345 E4637.83 F2300
G1 X37.3993 Y40.1567 F2300
G1 X29.3396 Y48.2164 E4649.23 F2300
G1 X28.3043 Y46.4233 F2300
G1 X39.3993 Y35.3283 E4664.92 F2300
G1 X39.857 Y32.0422 F2300
G1 X26.2992 Y45.6 E4684.1 F2300
G1 X32.8665 Y36.2042 F2300
G1 X39.857 Y29.2138 E4693.98 F2300
G1 X39.857 Y26.3853 F2300
G1 X32.0461 Y34.1963 E4705.03 F2300
G1 X34.0429 Y18.5416 F2300
G1 X33.1168 Y18.2671 E4706 F2300
G1 X32.2655 Y17.5454 E4707.11 F2300
G1 X31.9474 Y16.9902 E4707.75 F2300
G1 X31.7774 Y16.3951 E4708.37 F2300
G1 Y15.6041 E4709.16 F2300
G1 X31.9583 Y14.9814 E4709.81 F2300
G1 X32.4892 Y14.1972 E4710.76 F2300
G1 X33.1424 Y13.7221 E4711.56 F2300
G1 X34.0641 Y13.454 E4712.52 F2300
G1 X35.097 Y13.5718 E4713.56 F2300
G1 X35.9062 Y14.012 E4714.48 F2300
G1 X36.5251 Y14.7432 E4715.44 F2300
G1 X36.8124 Y15.5362 E4716.29 F2300
G1 X36.8266 Y16.3821 E4717.13 F2300
G1 X36.5271 Y17.2544 E4718.05 F2300
G1 X35.9046 Y17.9903 E4719.02 F2300
G1 X34.9577 Y18.4707 E4720.08 F2300
G1 X34.0429 Y18.5416 E4721 F2300
G1 X33.6693 Y18.4309 F2300
G1 X10.35 Y41.7502 E4753.98 F2300
G1 Y44.5786 F2300
G1 X44.5786 Y10.35 E4802.38 F2300
G1 X47.4071 Y10.35 F2300
G1 X10.35 Y47.4071 E4854.79 F2300
G1 Y50.2355 F2300
G1 X50.2355 Y10.35 E4911.2 F2300
G1 X53.0639 Y10.35 F2300
G1 X49.956 Y13.4579 E4915.59 F2300
G1 X51.8962 Y14.3461 F2300
G1 X55.8923 Y10.35 E4921.24 F2300
G1 X41.7502 F2300
G1 X36.7463 Y15.3539 E4928.32 F2300
G1 X35.4875 Y13.7843 F2300
G1 X38.9218 Y10.35 E4933.18 F2300
G1 X36.0933 Y10.35 F2300
G1 X13.35 Y33.0933 E4965.34 F2300
G1 X13.35 Y30.2649 F2300
G1 X33.2649 Y10.35 E4993.5 F2300
G1 X30.4365 Y10.35 F2300
G1 X13.35 Y27.4365 E5017.67 F2300
G1 X13.35 Y24.6081 F2300
G1 X18.6597 Y19.2984 E5025.18 F2300
G1 X18.5613 Y19.2741 F2300
G1 X19.707 Y19.5567 E5026.36 F2300
G1 X20.9274 Y19.3222 E5027.6 F2300
G1 X21.8716 Y18.634 E5028.77 F2300
G1 X22.3508 Y17.8104 E5029.72 F2300
G1 X22.4753 Y17.2728 E5030.27 F2300
G1 X22.3666 Y16.2327 E5031.32 F2300
G1 X22.0946 Y15.6702 E5031.94 F2300
G1 X21.6198 Y15.1204 E5032.67 F2300
G1 X20.9156 Y14.6756 E5033.5 F2300
G1 X19.7295 Y14.4468 E5034.71 F2300
G1 X19.0842 Y14.5396 E5035.36 F2300
G1 X18.5757 Y14.7254 E5035.91 F2300
G1 X18.0366 Y15.0696 E5036.54 F2300
G1 X17.7761 Y15.3121 E5036.9 F2300
G1 X17.2969 Y16.0383 E5037.77 F2300
G1 X17.1075 Y16.8443 E5038.6 F2300
G1 X17.1066 Y17.1423 E5038.9 F2300
G1 X17.2974 Y17.9619 E5039.74 F2300
G1 X17.7569 Y18.6726 E5040.58 F2300
G1 X18.5613 Y19.2741 E5041.59 F2300
G1 X17.2729 Y17.8568 F2300
G1 X13.35 Y21.7796 E5047.14 F2300
G1 X13.35 Y18.9512 F2300
G1 X21.9512 Y10.35 E5059.3 F2300
G1 X24.7796 Y10.35 F2300
G1 X20.5287 Y14.601 E5065.31 F2300
G1 X22.1576 Y15.8005 F2300
G1 X27.6081 Y10.35 E5073.02 F2300
G1 X32.0691 Y17.2027 F2300
G1 X13.35 Y35.9218 E5099.49 F2300
G1 X11.7718 Y37.5 F2300
G1 X10.35 Y38.9218 E5101.5 F2300
G1 X13.35 Y16.1228 F2300
G1 X19.1228 Y10.35 E5109.67 F2300
G1 X16.2944 Y10.35 F2300
G1 X13.35 Y13.2944 E5113.83 F2300
G1 X13.35 Y10.4659 F2300
G1 X13.4659 Y10.35 E5114 F2300
G1 F70
G1 Z0.8 F70

G1 X13.35 Y10.35 F2300
G1 X71.35 E5172 F2300
G1 Y106.65 E5268.3 F2300
G1 X10.35 E5329.3 F2300
G1 Y37.5 E5398.45 F2300
G1 X13.35 E5401.45 F2300
G1 Y10.35 E5428.6 F2300
G1 X14.494 F2300
G1 X18.7525 Y14.6086 E5434.62 F2300
G1 X18.9513 Y14.537 F2300
G1 X18.4415 Y14.7205 E5435.16 F2300
G1 X17.9031 Y15.0608 E5435.8 F2300
G1 X17.6387 Y15.3038 E5436.16 F2300
G1 X17.1534 Y16.0334 E5437.03 F2300
G1 X16.9623 Y16.8393 E5437.86 F2300
G1 X16.9608 Y17.1383 E5438.16 F2300
G1 X17.1545 Y17.968 E5439.01 F2300
G1 X17.6177 Y18.6791 E5439.86 F2300
G1 X18.4142 Y19.2733 E5440.85 F2300
G1 X19.5668 Y19.5567 E5442.04 F2300
G1 X20.7724 Y19.3257 E5443.27 F2300
G1 X21.724 Y18.6363 E5444.44 F2300
G1 X22.2047 Y17.8119 E5445.4 F2300
G1 X22.3298 Y17.2722 E5445.95 F2300
G1 X22.2228 Y16.2387 E5446.99 F2300
G1 X21.9534 Y15.6777 E5447.61 F2300
G1 X21.477 Y15.1227 E5448.35 F2300
G1 X20.7608 Y14.6721 E5449.19 F2300
G1 X19.593 Y14.447 E5450.38 F2300
G1 X18.9513 Y14.537 E5451.03 F2300
G1 X17.2315 Y15.916 F2300
G1 X13.35 Y12.0345 E5456.52 F2300
G1 Y14.8629 F2300
G1 X37.7638 Y39.2767 E5491.04 F2300
G1 X36.9354 Y41.2767 F2300
G1 X32.7553 Y37.0966 E5496.96 F2300
G1 X32.692 Y37.2682 F2300
G1 X33.0168 Y36.3874 E5497.9 F2300
G1 X32.9907 Y35.4809 E5498.8 F2300
G1 X32.6641 Y34.6857 E5499.66 F2300
G1 X31.927 Y33.9257 E5500.72 F2300
G1 X30.8594 Y33.4899 E5501.87 F2300
G1 X29.9288 Y33.4771 E5502.8 F2300
G1 X28.9824 Y33.7977 E5503.8 F2300
G1 X28.2726 Y34.372 E5504.72 F2300
G1 X27.8571 Y35.0284 E5505.49 F2300
G1 X27.6548 Y35.9175 E5506.4 F2300
G1 X27.7694 Y36.7381 E5507.23 F2300
G1 X28.1516 Y37.4786 E5508.07 F2300
G1 X28.7715 Y38.0699 E5508.92 F2300
G1 X29.5139 Y38.428 E5509.75 F2300
G1 X30.4055 Y38.5509 E5510.65 F2300
G1 X31.1799 Y38.4309 E5511.43 F2300
G1 X32.1097 Y37.9356 E5512.49 F2300
G1 X32.692 Y37.2682 E5513.37 F2300
G1 X31.2329 Y38.4026 F2300
G1 X36.107 Y43.2767 E5520.26 F2300
G1 X35.6676 Y44.3374 F2300
G1 X35.15 Y44.855 E5521 F2300
G1 Y68.5 E5544.64 F2300
G1 X38.65 E5548.14 F2300
G1 Y86.645 E5566.29 F2300
G1 X47.355 Y95.35 E5578.6 F2300
G1 X62.85 E5594.09 F2300
G1 Y21.65 E5667.79 F2300
G1 X56.151 E5674.49 F2300
G1 X56.1501 Y23.65 E5676.49 F2300
G1 X39.857 E5692.78 F2300
G1 Y34.2234 E5703.36 F2300
G1 X35.6676 Y44.3374 E5714.3 F2300
G1 X35.15 Y45.1482 F2300
G1 X13.35 Y23.3482 E5745.13 F2300
G1 Y26.1766 F2300
G1 X35.15 Y47.9766 E5775.96 F2300
G1 Y50.805 F2300
G1 X13.35 Y29.005 E5806.79 F2300
G1 X13.35 Y31.8335 F2300
G1 X27.1165 Y45.6 E5826.26 F2300
G1 X27.829 F2300
G1 X22.3442 E5831.75 F2300
G1 X19.65 Y50.2665 E5837.14 F2300
G1 Y50.7335 E5837.6 F2300
G1 X22.3442 Y55.4 E5842.99 F2300
G1 X27.829 E5848.48 F2300
G1 X30.658 Y50.5 E5854.14 F2300
G1 X27.829 Y45.6 E5859.79 F2300
G1 X28.8023 Y47.2857 F2300
G1 X35.15 Y53.6335 E5868.77 F2300
G1 Y56.4619 F2300
G1 X30.12 Y51.4319 E5875.88 F2300
G1 X29.0847 Y53.225 F2300
G1 X35.15 Y59.2903 E5884.46 F2300
G1 Y62.1187 F2300
G1 X28.0495 Y55.0182 E5894.5 F2300
G1 X25.6028 Y55.4 F2300
G1 X35.15 Y64.9472 E5908 F2300
G1 X35.15 Y67.7756 F2300
G1 X22.7744 Y55.4 E5925.51 F2300
G1 X21.7565 Y54.3821 F2300
G1 X10.35 Y42.9756 E5941.64 F2300
G1 X10.35 Y45.804 F2300
G1 X38.65 Y74.104 E5981.66 F2300
G1 Y76.9324 F2300
G1 X10.35 Y48.6325 E6021.68 F2300
G1 X10.35 Y51.4609 F2300
G1 X38.65 Y79.7609 E6061.71 F2300
G1 Y82.5893 F2300
G1 X10.35 Y54.2893 E6101.73 F2300
G1 X10.35 Y57.1177 F2300
G1 X38.65 Y85.4177 E6141.75 F2300
G1 X32.5818 Y82.433 F2300
G1 X32.9589 Y81.6439 E6142.62 F2300
G1 X33.046 Y80.9468 E6143.33 F2300
G1 X32.8353 Y80.0017 E6144.3 F2300
G1 X32.1951 Y79.1346 E6145.37 F2300
G1 X31.3089 Y78.6095 E6146.4 F2300
G1 X30.1201 Y78.4532 E6147.6 F2300
G1 X29.0144 Y78.7781 E6148.76 F2300
G1 X28.1723 Y79.4899 E6149.86 F2300
G1 X27.7305 Y80.4027 E6150.87 F2300
G1 X27.666 Y81.2261 E6151.7 F2300
G1 X27.8655 Y81.9943 E6152.49 F2300
G1 X28.4882 Y82.847 E6153.55 F2300
G1 X29.015 Y83.2159 E6154.19 F2300
G1 X29.5608 Y83.4402 E6154.78 F2300
G1 X30.3608 Y83.5543 E6155.59 F2300
G1 X31.2974 Y83.3909 E6156.54 F2300
G1 X31.9553 Y83.052 E6157.28 F2300
G1 X32.5818 Y82.433 E6158.16 F2300
G1 X32.6643 Y82.2605 F2300
G1 X49.0682 Y98.6644 E6181.36 F2300
G1 X48.7495 Y98.7692 F2300
G1 X47.9323 Y99.4955 E6182.45 F2300
G1 X47.53 Y100.342 E6183.39 F2300
G1 X47.4622 Y101.314 E6184.36 F2300
G1 X47.8051 Y102.313 E6185.42 F2300
G1 X48.4905 Y103.064 E6186.44 F2300
G1 X49.3734 Y103.479 E6187.41 F2300
G1 X50.3648 Y103.529 E6188.4 F2300
G1 X51.1136 Y103.3 E6189.19 F2300
G1 X51.8821 Y102.728 E6190.15 F2300
G1 X52.3133 Y102.086 E6190.92 F2300
G1 X52.5585 Y101.028 E6192.01 F2300
G1 X52.3117 Y99.9029 E6193.16 F2300
G1 X51.6418 Y99.042 E6194.25 F2300
G1 X50.774 Y98.5623 E6195.24 F2300
G1 X49.6828 Y98.4623 E6196.34 F2300
G1 X48.7495 Y98.7692 E6197.32 F2300
G1 X47.6547 Y100.079 F2300
G1 X31.0155 Y83.4401 E6220.85 F2300
G1 X27.8113 Y80.2358 F2300
G1 X10.35 Y62.7746 E6245.54 F2300
G1 Y65.603 F2300
G1 X51.397 Y106.65 E6303.59 F2300
G1 X54.2254 F2300
G1 X50.931 Y103.356 E6308.25 F2300
G1 X52.3466 Y101.943 F2300
G1 X57.0538 Y106.65 E6314.91 F2300
G1 X59.8823 F2300
G1 X48.5823 Y95.35 E6330.89 F2300
G1 X51.4107 F2300
G1 X62.7107 Y106.65 E6346.87 F2300
G1 X65.5391 F2300
G1 X54.2391 Y95.35 E6362.85 F2300
G1 X57.0676 F2300
G1 X63.1902 Y101.473 E6371.51 F2300
G1 X63.6276 Y102.5 E6372.61 F2300
G1 X64.4507 Y103.232 E6373.71 F2300
G1 X65.4179 Y103.541 E6374.72 F2300
G1 X66.3136 Y103.482 E6375.62 F2300
G1 X67.2948 Y103 E6376.72 F2300
G1 X67.9499 Y102.216 E6377.74 F2300
G1 X68.2499 Y101.2 E6378.8 F2300
G1 X68.1121 Y100.15 E6379.85 F2300
G1 X67.5872 Y99.2736 E6380.88 F2300
G1 X66.692 Y98.6432 E6381.97 F2300
G1 X65.7748 Y98.4446 E6382.91 F2300
G1 X64.7725 Y98.6163 E6383.93 F2300
G1 X63.8558 Y99.2267 E6385.03 F2300
G1 X63.2941 Y100.146 E6386.1 F2300
G1 X63.1902 Y100.535 E6386.51 F2300
G1 Y101.491 E6387.46 F2300
G1 X63.8243 Y99.2783 F2300
G1 X59.896 Y95.35 E6393.02 F2300
G1 X62.7244 F2300
G1 X65.8312 Y98.4568 E6397.41 F2300
G1 X68.2009 Y100.826 F2300
G1 X71.35 Y103.976 E6401.87 F2300
G1 X71.196 Y106.65 F2300
G1 X67.409 Y102.863 E6407.22 F2300
G1 X65.1832 Y103.466 F2300
G1 X68.3676 Y106.65 E6411.73 F2300
G1 X71.35 Y101.147 F2300
G1 X62.85 Y92.6472 E6423.75 F2300
G1 Y89.8187 F2300
G1 X71.35 Y98.3187 E6435.77 F2300
G1 Y95.4903 F2300
G1 X62.85 Y86.9903 E6447.79 F2300
G1 Y84.1619 F2300
G1 X71.35 Y92.6619 E6459.81 F2300
G1 Y89.8335 F2300
G1 X62.85 Y81.3335 E6471.83 F2300
G1 Y78.505 F2300
G1 X71.35 Y87.005 E6483.85 F2300
G1 Y84.1766 F2300
G1 X62.85 Y75.6766 E6495.87 F2300
G1 Y72.8482 F2300
G1 X71.35 Y81.3482 E6507.89 F2300
G1 Y78.5198 F2300
G1 X62.85 Y70.0198 E6519.91 F2300
G1 Y67.1913 F2300
G1 X71.35 Y75.6913 E6531.94 F2300
G1 Y72.8629 F2300
G1 X62.85 Y64.3629 E6543.96 F2300
G1 Y61.5345 F2300
G1 X71.35 Y70.0345 E6555.98 F2300
G1 Y67.206 F2300
G1 X62.85 Y58.706 E6568 F2300
G1 Y55.8776 F2300
G1 X71.35 Y64.3776 E6580.02 F2300
G1 Y61.5492 F2300
G1 X62.85 Y53.0492 E6592.04 F2300
G1 Y50.2208 F2300
G1 X71.35 Y58.7208 E6604.06 F2300
G1 Y55.8923 F2300
G1 X62.85 Y47.3923 E6616.08 F2300
G1 X62.85 Y44.5639 F2300
G1 X71.35 Y53.0639 E6628.1 F2300
G1 Y50.2355 F2300
G1 X62.85 Y41.7355 E6640.12 F2300
G1 X62.85 Y38.9071 F2300
G1 X71.35 Y47.4071 E6652.15 F2300
G1 Y44.5786 F2300
G1 X62.85 Y36.0786 E6664.17 F2300
G1 X62.85 Y33.2502 F2300
G1 X71.35 Y41.7502 E6676.19 F2300
G1 Y38.9218 F2300
G1 X62.85 Y30.4218 E6688.21 F2300
G1 Y27.5933 F2300
G1 X71.35 Y36.0933 E6700.23 F2300
G1 Y33.2649 F2300
G1 X62.85 Y24.7649 E6712.25 F2300
G1 X62.85 Y21.9365 F2300
G1 X71.35 Y30.4365 E6724.27 F2300
G1 Y27.6081 F2300
G1 X54.0919 Y10.35 E6748.68 F2300
G1 X51.2635 Y10.35 F2300
G1 X62.5635 Y21.65 E6764.66 F2300
G1 X59.7351 F2300
G1 X48.4351 Y10.35 E6780.64 F2300
G1 X45.6067 F2300
G1 X48.934 Y13.6774 E6785.34 F2300
G1 X48.1997 Y14.1849 E6786.24 F2300
G1 X47.6238 Y15.0582 E6787.29 F2300
G1 X47.4483 Y15.8786 E6788.12 F2300
G1 X47.5503 Y16.7295 E6788.98 F2300
G1 X48.0186 Y17.613 E6789.98 F2300
G1 X48.5584 Y18.11 E6790.71 F2300
G1 X49.562 Y18.5193 E6791.8 F2300
G1 X50.4973 Y18.5071 E6792.73 F2300
G1 X51.3634 Y18.1626 E6793.67 F2300
G1 X52.0983 Y17.4621 E6794.68 F2300
G1 X52.5098 Y16.4896 E6795.74 F2300
G1 Y15.5214 E6796.71 F2300
G1 X52.2545 Y14.7982 E6797.47 F2300
G1 X51.6824 Y14.0762 E6798.39 F2300
G1 X50.9183 Y13.6142 E6799.29 F2300
G1 X49.8808 Y13.4457 E6800.34 F2300
G1 X48.9355 Y13.6763 E6801.31 F2300
G1 X47.5996 Y15.1713 F2300
G1 X42.7782 Y10.35 E6808.13 F2300
G1 X39.9498 Y10.35 F2300
G1 X53.2498 Y23.65 E6826.94 F2300
G1 X56.0782 F2300
G1 X50.8107 Y18.3824 E6834.39 F2300
G1 X52.2828 Y17.0261 F2300
G1 X56.9067 Y21.65 E6840.93 F2300
G1 X50.4214 Y23.65 F2300
G1 X37.1214 Y10.35 E6859.74 F2300
G1 X34.2929 Y10.35 F2300
G1 X47.5929 Y23.65 E6878.55 F2300
G1 X44.7645 F2300
G1 X36.8151 Y15.7006 E6889.79 F2300
G1 X36.8124 Y15.5365 F2300
G1 X36.526 Y14.7449 E6890.63 F2300
G1 X35.9113 Y14.0163 E6891.58 F2300
G1 X35.095 Y13.5737 E6892.51 F2300
G1 X34.3447 Y13.4462 E6893.27 F2300
G1 X33.4721 Y13.5816 E6894.16 F2300
G1 X32.4996 Y14.1834 E6895.3 F2300
G1 X31.9621 Y14.9735 E6896.25 F2300
G1 X31.7778 Y15.6017 E6896.91 F2300
G1 Y16.397 E6897.71 F2300
G1 X31.9462 Y16.9871 E6898.32 F2300
G1 X32.2638 Y17.5431 E6898.96 F2300
G1 X33.1114 Y18.2643 E6900.07 F2300
G1 X34.0758 Y18.5459 E6901.08 F2300
G1 X34.9614 Y18.4695 E6901.97 F2300
G1 X35.9114 Y17.9843 E6903.03 F2300
G1 X36.528 Y17.2528 E6903.99 F2300
G1 X36.8263 Y16.3837 E6904.91 F2300
G1 X36.8124 Y15.5365 E6905.75 F2300
G1 X36.0756 Y17.7895 F2300
G1 X41.9361 Y23.65 E6914.04 F2300
G1 X39.857 Y24.3993 F2300
G1 X33.9738 Y18.5161 E6922.36 F2300
G1 X31.7778 Y16.3201 F2300
G1 X25.8077 Y10.35 E6930.81 F2300
G1 X22.9792 Y10.35 F2300
G1 X39.857 Y27.2278 E6954.67 F2300
G1 Y30.0562 F2300
G1 X20.1508 Y10.35 E6982.54 F2300
G1 X17.3224 F2300
G1 X39.857 Y32.8846 E7014.41 F2300
G1 X39.4207 Y35.2767 F2300
G1 X22.1131 Y17.9691 E7038.89 F2300
G1 X20.6623 Y19.3468 F2300
G1 X38.5923 Y37.2767 E7064.25 F2300
G1 X29.3364 Y33.6777 F2300
G1 X13.35 Y17.6913 E7086.85 F2300
G1 X13.35 Y20.5198 F2300
G1 X27.8577 Y35.0275 E7107.37 F2300
G1 X24.2881 Y45.6 F2300
G1 X13.35 Y34.6619 E7122.84 F2300
G1 Y37.4903 F2300
G1 X22.0204 Y46.1608 E7135.1 F2300
G1 X20.9852 Y47.9539 F2300
G1 X10.5313 Y37.5 E7149.89 F2300
G1 X10.35 Y40.1472 F2300
G1 X19.9499 Y49.7471 E7163.46 F2300
G1 X10.35 Y59.9462 F2300
G1 X29.1439 Y78.74 E7190.04 F2300
G1 X38.65 Y71.2756 F2300
G1 X35.8744 Y68.5 E7193.97 F2300
G1 X10.35 Y68.4314 F2300
G1 X48.5686 Y106.65 E7248.02 F2300
G1 X45.7401 F2300
G1 X10.35 Y71.2599 E7298.06 F2300
G1 X10.35 Y74.0883 F2300
G1 X34.7561 Y98.4944 E7332.58 F2300
G1 X34.3362 Y98.4526 E7332.97 F2300
G1 X34.0463 Y98.4631 E7333.26 F2300
G1 X33.4727 Y98.5834 E7333.85 F2300
G1 X32.5536 Y99.1369 E7334.92 F2300
G1 X32.128 Y99.6548 E7335.59 F2300
G1 X31.7613 Y100.683 E7336.68 F2300
G1 X31.8638 Y101.781 E7337.79 F2300
G1 X32.4078 Y102.718 E7338.87 F2300
G1 X33.1415 Y103.28 E7339.79 F2300
G1 X34.2039 Y103.554 E7340.89 F2300
G1 X35.0148 Y103.451 E7341.71 F2300
G1 X35.7405 Y103.11 E7342.51 F2300
G1 X36.4219 Y102.423 E7343.48 F2300
G1 X36.7586 Y101.691 E7344.28 F2300
G1 X36.8451 Y100.77 E7345.21 F2300
G1 X36.6081 Y99.9009 E7346.11 F2300
G1 X35.993 Y99.0887 E7347.13 F2300
G1 X35.49 Y98.7411 E7347.74 F2300
G1 X34.7283 Y98.485 E7348.54 F2300
G1 X32.5639 Y99.1307 F2300
G1 X10.35 Y76.9167 E7379.96 F2300
G1 Y79.7451 F2300
G1 X31.8101 Y101.205 E7410.31 F2300
G1 X34.1433 Y103.538 F2300
G1 X37.2549 Y106.65 E7414.71 F2300
G1 X34.4264 F2300
G1 X10.35 Y82.5736 E7448.76 F2300
G1 Y85.402 F2300
G1 X31.598 Y106.65 E7478.81 F2300
G1 X28.7696 F2300
G1 X22.3142 Y100.195 E7487.94 F2300
G1 X22.3455 Y100.008 F2300
G1 X22.2156 Y99.2158 E7488.74 F2300
G1 X21.7909 Y98.4457 E7489.62 F2300
G1 X21.0244 Y97.8007 E7490.62 F2300
G1 X20.0178 Y97.4694 E7491.68 F2300
G1 X19.2344 Y97.4789 E7492.46 F2300
G1 X18.6906 Y97.615 E7493.02 F2300
G1 X17.9919 Y97.9877 E7493.82 F2300
G1 X17.5295 Y98.4268 E7494.45 F2300
G1 X17.2186 Y98.9038 E7495.02 F2300
G1 X17.0354 Y99.3898 E7495.54 F2300
G1 X16.9536 Y100.055 E7496.21 F2300
G1 X17.2041 Y101.081 E7497.27 F2300
G1 X17.8089 Y101.868 E7498.26 F2300
G1 X18.6636 Y102.377 E7499.26 F2300
G1 X19.6176 Y102.555 E7500.23 F2300
G1 X20.6633 Y102.37 E7501.29 F2300
G1 X21.6419 Y101.727 E7502.46 F2300
G1 X22.214 Y100.793 E7503.56 F2300
G1 X22.3455 Y100.008 E7504.35 F2300
G1 X21.2655 Y101.974 F2300
G1 X25.9411 Y106.65 E7510.96 F2300
G1 X23.1127 F2300
G1 X18.8804 Y102.418 E7516.95 F2300
G1 X17.0943 Y100.632 F2300
G1 X10.35 Y93.8873 E7526.49 F2300
G1 X10.35 Y96.7157 F2300
G1 X20.2843 Y106.65 E7540.54 F2300
G1 X17.4559 F2300
G1 X10.35 Y99.5441 E7550.59 F2300
G1 X10.35 Y102.373 F2300
G1 X14.6274 Y106.65 E7556.64 F2300
G1 X11.799 F2300
G1 X10.35 Y105.201 E7558.68 F2300
G1 X17.6261 Y98.335 F2300
G1 X10.35 Y91.0589 E7568.97 F2300
G1 X10.35 Y88.2304 F2300
G1 X19.5941 Y97.4745 E7582.05 F2300
G1 X36.1403 Y102.707 F2300
G1 X40.0833 Y106.65 E7587.62 F2300
G1 X42.9117 F2300
G1 X36.7752 Y100.513 E7596.3 F2300
G1 X71.35 Y24.7796 F2300
G1 X64.998 Y18.4277 E7605.29 F2300
G1 X65.1602 Y18.5005 F2300
G1 X64.1926 Y18.066 E7606.35 F2300
G1 X63.5128 Y17.321 E7607.35 F2300
G1 X63.2256 Y16.6301 E7608.1 F2300
G1 X63.1624 Y15.6857 E7609.05 F2300
G1 X63.5051 Y14.6874 E7610.1 F2300
G1 X64.1715 Y13.9571 E7611.09 F2300
G1 X64.3692 Y13.823 E7611.33 F2300
G1 X65.378 Y13.4619 E7612.4 F2300
G1 X66.4763 Y13.5625 E7613.51 F2300
G1 X67.3979 Y14.0875 E7614.57 F2300
G1 X68.0075 Y14.8994 E7615.58 F2300
G1 X68.2473 Y15.797 E7616.51 F2300
G1 X68.1743 Y16.6333 E7617.35 F2300
G1 X67.8978 Y17.3028 E7618.07 F2300
G1 X67.2253 Y18.0528 E7619.08 F2300
G1 X66.2615 Y18.4957 E7620.14 F2300
G1 X65.1602 Y18.5005 E7621.24 F2300
G1 X67.3323 Y17.9335 F2300
G1 X71.35 Y21.9512 E7626.93 F2300
G1 Y19.1228 F2300
G1 X68.2294 Y16.0022 E7631.34 F2300
G1 X71.35 Y16.2944 F2300
G1 X65.4056 Y10.35 E7639.75 F2300
G1 X68.2341 Y10.35 F2300
G1 X71.35 Y13.4659 E7644.15 F2300
G1 Y10.6375 F2300
G1 X71.0625 Y10.35 E7644.56 F2300
G1 X65.7205 Y13.4933 F2300
G1 X62.5772 Y10.35 E7649 F2300
G1 X59.7488 Y10.35 F2300
G1 X63.7824 Y14.3836 E7654.71 F2300
G1 X63.2434 Y16.673 F2300
G1 X56.9204 Y10.35 E7663.65 F2300
G1 X34.6049 Y13.4904 F2300
G1 X31.4645 Y10.35 E7668.09 F2300
G1 X28.6361 Y10.35 F2300
G1 X32.4874 Y14.2013 E7673.54 F2300
G1 F70
G1 Z1.2 F70

G1 X31.9659 Y14.9656 E7674.49 F2300
G1 X31.7781 Y15.5993 E7675.15 F2300
G1 Y16.3988 E7675.95 F2300
G1 X31.945 Y16.9841 E7676.56 F2300
G1 X32.2621 Y17.5408 E7677.2 F2300
G1 X33.1054 Y18.261 E7678.31 F2300
G1 X34.0807 Y18.5463 E7679.32 F2300
G1 X34.9639 Y18.4688 E7680.21 F2300
G1 X35.9183 Y17.9783 E7681.28 F2300
G1 X36.5288 Y17.2511 E7682.23 F2300
G1 X36.8261 Y16.3853 E7683.15 F2300
G1 X36.8125 Y15.5368 E7684 F2300
G1 X36.5269 Y14.7465 E7684.84 F2300
G1 X35.9164 Y14.0206 E7685.79 F2300
G1 X35.0842 Y13.5708 E7686.73 F2300
G1 X34.3504 Y13.4465 E7687.48 F2300
G1 X33.4807 Y13.579 E7688.36 F2300
G1 X32.5027 Y14.1804 E7689.51 F2300
G1 X34.1238 Y13.481 F2300
G1 X37.2548 Y10.35 E7693.93 F2300
G1 X34.4264 F2300
G1 X13.35 Y31.4264 E7723.74 F2300
G1 X13.35 Y34.2548 F2300
G1 X31.7781 Y15.8268 E7749.8 F2300
G1 X32.6021 Y17.8312 F2300
G1 X13.35 Y37.0833 E7777.03 F2300
G1 X13.35 Y37.5 F2300
G1 Y10.35 E7804.18 F2300
G1 X71.35 E7862.18 F2300
G1 Y106.65 E7958.48 F2300
G1 X10.35 E8019.48 F2300
G1 Y37.5 E8088.63 F2300
G1 X13.35 E8091.63 F2300
G1 X12.9333 F2300
G1 X10.35 Y40.0833 E8095.28 F2300
G1 X10.35 Y42.9117 F2300
G1 X34.7764 Y18.4853 E8129.82 F2300
G1 X36.7997 Y16.4619 F2300
G1 X42.9117 Y10.35 E8138.47 F2300
G1 X40.0833 Y10.35 F2300
G1 X36.1431 Y14.2902 E8144.04 F2300
G1 X31.598 Y10.35 F2300
G1 X13.35 Y28.598 E8169.85 F2300
G1 X13.35 Y25.7696 F2300
G1 X19.595 Y19.5245 E8178.68 F2300
G1 X19.4266 Y19.5567 F2300
G1 X18.2671 Y19.2726 E8179.87 F2300
G1 X17.4786 Y18.6855 E8180.86 F2300
G1 X17.0116 Y17.9741 E8181.71 F2300
G1 X16.815 Y17.1343 E8182.57 F2300
G1 X16.8172 Y16.8343 E8182.87 F2300
G1 X17.01 Y16.0285 E8183.7 F2300
G1 X17.5075 Y15.2865 E8184.59 F2300
G1 X18.0461 Y14.8547 E8185.28 F2300
G1 X18.6114 Y14.5917 E8185.9 F2300
G1 X19.4501 Y14.446 E8186.76 F2300
G1 X20.6061 Y14.6687 E8187.93 F2300
G1 X21.3342 Y15.1251 E8188.79 F2300
G1 X21.8123 Y15.6853 E8189.53 F2300
G1 X22.079 Y16.2447 E8190.15 F2300
G1 X22.1843 Y17.2716 E8191.18 F2300
G1 X22.0586 Y17.8134 E8191.74 F2300
G1 X21.5764 Y18.6386 E8192.69 F2300
G1 X20.6174 Y19.3293 E8193.87 F2300
G1 X19.4266 Y19.5567 E8195.09 F2300
G1 X17.5514 Y18.7397 F2300
G1 X13.35 Y22.9411 E8201.03 F2300
G1 X13.35 Y20.1127 F2300
G1 X16.8765 Y16.5862 E8206.01 F2300
G1 X18.9256 Y14.5371 F2300
G1 X23.1127 Y10.35 E8211.94 F2300
G1 X20.2843 Y10.35 F2300
G1 X13.35 Y17.2843 E8221.74 F2300
G1 Y14.4559 F2300
G1 X17.4559 Y10.35 E8227.55 F2300
G1 X14.6274 Y10.35 F2300
G1 X13.35 Y11.6274 E8229.36 F2300
G1 X21.2308 Y15.0603 F2300
G1 X25.9411 Y10.35 E8236.02 F2300
G1 X28.7696 Y10.35 F2300
G1 X22.153 Y16.9666 E8245.38 F2300
G1 X29.1249 Y33.7995 F2300
G1 X28.4181 Y34.3721 E8246.28 F2300
G1 X28.0002 Y35.0345 E8247.07 F2300
G1 X27.8004 Y35.9196 E8247.97 F2300
G1 X27.9135 Y36.733 E8248.8 F2300
G1 X28.2952 Y37.4759 E8249.63 F2300
G1 X28.9118 Y38.066 E8250.48 F2300
G1 X29.6547 Y38.4265 E8251.31 F2300
G1 X30.5359 Y38.5503 E8252.2 F2300
G1 X31.3215 Y38.4321 E8252.99 F2300
G1 X32.2459 Y37.9426 E8254.04 F2300
G1 X32.836 Y37.271 E8254.93 F2300
G1 X33.162 Y36.3898 E8255.87 F2300
G1 X33.1347 Y35.4747 E8256.79 F2300
G1 X32.808 Y34.6829 E8257.65 F2300
G1 X32.0629 Y33.9197 E8258.71 F2300
G1 X31.007 Y33.4902 E8259.85 F2300
G1 X30.0658 Y33.4786 E8260.79 F2300
G1 X29.1249 Y33.7995 E8261.79 F2300
G1 X31.0626 Y33.5128 F2300
G1 X39.857 Y24.7184 E8274.22 F2300
G1 Y23.65 F2300
G1 Y34.2234 E8284.8 F2300
G1 X35.6676 Y44.3374 E8295.75 F2300
G1 X35.15 Y44.855 E8296.48 F2300
G1 Y68.5 E8320.12 F2300
G1 X38.65 E8323.62 F2300
G1 Y86.645 E8341.77 F2300
G1 X47.355 Y95.35 E8354.08 F2300
G1 X62.85 E8369.57 F2300
G1 Y21.65 E8443.27 F2300
G1 X56.1514 E8449.97 F2300
G1 X56.1502 Y23.65 E8451.97 F2300
G1 X39.857 E8468.26 F2300
G1 X40.9254 F2300
G1 X47.6527 Y16.9227 E8477.78 F2300
G1 X47.5503 Y16.7293 F2300
G1 X48.0186 Y17.613 E8478.78 F2300
G1 X48.5584 Y18.11 E8479.51 F2300
G1 X49.562 Y18.5193 E8480.59 F2300
G1 X50.4973 Y18.5071 E8481.53 F2300
G1 X51.3634 Y18.1626 E8482.46 F2300
G1 X52.0983 Y17.4621 E8483.48 F2300
G1 X52.5098 Y16.4896 E8484.53 F2300
G1 Y15.5214 E8485.5 F2300
G1 X52.2545 Y14.7982 E8486.27 F2300
G1 X51.6824 Y14.0762 E8487.19 F2300
G1 X50.9183 Y13.6142 E8488.08 F2300
G1 X49.8808 Y13.4457 E8489.13 F2300
G1 X48.9355 Y13.6763 E8490.11 F2300
G1 X48.1997 Y14.1849 E8491 F2300
G1 X47.6239 Y15.058 E8492.05 F2300
G1 X47.4486 Y15.8744 E8492.88 F2300
G1 X47.5503 Y16.7293 E8493.74 F2300
G1 X49.0808 Y18.323 F2300
G1 X43.7538 Y23.65 E8501.28 F2300
G1 X46.5823 Y23.65 F2300
G1 X59.8823 Y10.35 E8520.08 F2300
G1 X57.0538 F2300
G1 X52.3461 Y15.0577 E8526.74 F2300
G1 X50.9451 Y13.6303 F2300
G1 X54.2254 Y10.35 E8531.38 F2300
G1 X51.397 Y10.35 F2300
G1 X10.35 Y51.397 E8589.43 F2300
G1 X10.35 Y54.2254 F2300
G1 X27.9048 Y36.6706 E8614.26 F2300
G1 X29.1986 Y38.2052 F2300
G1 X10.35 Y57.0538 E8640.91 F2300
G1 X10.35 Y59.8823 F2300
G1 X19.65 Y50.5823 E8654.06 F2300
G1 Y50.7335 F2300
G1 X22.3442 Y55.4 E8659.45 F2300
G1 X27.829 E8664.94 F2300
G1 X30.658 Y50.5 E8670.6 F2300
G1 X27.829 Y45.6 E8676.25 F2300
G1 X22.3442 E8681.74 F2300
G1 X19.65 Y50.2665 E8687.13 F2300
G1 Y50.7335 E8687.59 F2300
G1 X20.6299 Y52.4308 F2300
G1 X10.35 Y62.7107 E8702.13 F2300
G1 X10.35 Y65.5391 F2300
G1 X21.6652 Y54.2239 E8718.13 F2300
G1 X23.3176 Y55.4 F2300
G1 X10.35 Y68.3675 E8736.47 F2300
G1 X10.35 Y71.196 F2300
G1 X26.146 Y55.4 E8758.81 F2300
G1 X30.1281 Y51.4179 F2300
G1 X35.15 Y46.396 E8765.91 F2300
G1 Y49.2244 F2300
G1 X10.35 Y74.0244 E8800.99 F2300
G1 X10.35 Y76.8528 F2300
G1 X35.15 Y52.0528 E8836.06 F2300
G1 Y54.8813 F2300
G1 X10.35 Y79.6813 E8871.13 F2300
G1 Y82.5097 F2300
G1 X35.15 Y57.7097 E8906.2 F2300
G1 Y60.5381 F2300
G1 X10.35 Y85.3381 E8941.28 F2300
G1 X10.35 Y88.1665 F2300
G1 X35.15 Y63.3665 E8976.35 F2300
G1 X35.15 Y66.195 F2300
G1 X10.35 Y90.995 E9011.42 F2300
G1 Y93.8234 F2300
G1 X35.6734 Y68.5 E9047.23 F2300
G1 X38.5018 F2300
G1 X10.35 Y96.6518 E9087.04 F2300
G1 X10.35 Y99.4803 F2300
G1 X27.9748 Y81.8555 E9111.97 F2300
G1 X28.0095 Y81.9909 F2300
G1 X28.6361 Y82.849 E9113.03 F2300
G1 X29.1547 Y83.2125 E9113.67 F2300
G1 X29.7003 Y83.4383 E9114.26 F2300
G1 X30.5081 Y83.5543 E9115.07 F2300
G1 X31.4381 Y83.3925 E9116.02 F2300
G1 X32.0913 Y83.0571 E9116.75 F2300
G1 X32.566 Y82.6369 E9117.39 F2300
G1 X33.1073 Y81.6478 E9118.51 F2300
G1 X33.1739 Y80.6868 E9119.48 F2300
G1 X32.8407 Y79.735 E9120.49 F2300
G1 X32.2057 Y79.0221 E9121.44 F2300
G1 X31.2269 Y78.5428 E9122.53 F2300
G1 X30.2459 Y78.4569 E9123.51 F2300
G1 X29.1537 Y78.7817 E9124.65 F2300
G1 X28.3137 Y79.4955 E9125.76 F2300
G1 X27.8737 Y80.4169 E9126.78 F2300
G1 X27.8112 Y81.2171 E9127.58 F2300
G1 X28.0095 Y81.9909 E9128.38 F2300
G1 X29.3608 Y83.2978 F2300
G1 X10.35 Y102.309 E9155.27 F2300
G1 X10.35 Y105.137 F2300
G1 X38.65 Y76.8371 E9195.29 F2300
G1 X38.65 Y79.6655 F2300
G1 X20.623 Y97.6926 E9220.78 F2300
G1 X20.5466 Y97.6425 F2300
G1 X19.4894 Y97.4465 E9221.86 F2300
G1 X18.8236 Y97.5296 E9222.53 F2300
G1 X18.0089 Y97.8755 E9223.41 F2300
G1 X17.3938 Y98.4141 E9224.23 F2300
G1 X17.0782 Y98.8944 E9224.8 F2300
G1 X16.8931 Y99.3789 E9225.32 F2300
G1 X16.8078 Y100.054 E9226 F2300
G1 X17.0606 Y101.085 E9227.07 F2300
G1 X17.6575 Y101.862 E9228.05 F2300
G1 X18.5286 Y102.381 E9229.06 F2300
G1 X19.4779 Y102.555 E9230.02 F2300
G1 X20.5163 Y102.371 E9231.08 F2300
G1 X21.4968 Y101.727 E9232.25 F2300
G1 X22.0697 Y100.789 E9233.35 F2300
G1 X22.2015 Y100 E9234.15 F2300
G1 X21.9744 Y98.9714 E9235.2 F2300
G1 X21.4561 Y98.2389 E9236.1 F2300
G1 X20.5466 Y97.6425 E9237.19 F2300
G1 X22.0102 Y99.1337 F2300
G1 X38.65 Y82.494 E9260.72 F2300
G1 Y85.3224 F2300
G1 X17.3224 Y106.65 E9290.88 F2300
G1 X20.1508 F2300
G1 X39.4029 Y87.3979 E9318.11 F2300
G1 X40.8171 Y88.8121 F2300
G1 X22.9792 Y106.65 E9343.34 F2300
G1 X25.8077 F2300
G1 X31.763 Y100.695 E9351.76 F2300
G1 X31.8629 Y101.778 E9352.86 F2300
G1 X32.4135 Y102.724 E9353.96 F2300
G1 X33.1431 Y103.28 E9354.87 F2300
G1 X34.2098 Y103.554 E9355.97 F2300
G1 X35.0241 Y103.448 E9356.8 F2300
G1 X35.7476 Y103.104 E9357.6 F2300
G1 X36.4195 Y102.427 E9358.55 F2300
G1 X36.761 Y101.681 E9359.37 F2300
G1 X36.8454 Y100.775 E9360.28 F2300
G1 X36.6089 Y99.9027 E9361.19 F2300
G1 X35.9997 Y99.095 E9362.2 F2300
G1 X35.4949 Y98.7438 E9362.81 F2300
G1 X34.7387 Y98.4872 E9363.61 F2300
G1 X34.3464 Y98.4533 E9364 F2300
G1 X33.8502 Y98.4869 E9364.5 F2300
G1 X32.9926 Y98.8028 E9365.42 F2300
G1 X32.137 Y99.6323 E9366.61 F2300
G1 X31.7617 Y100.68 E9367.72 F2300
G1 X32.4977 Y102.788 F2300
G1 X28.6361 Y106.65 E9373.18 F2300
G1 X31.4645 F2300
G1 X34.6127 Y103.502 E9377.63 F2300
G1 X36.7946 Y101.32 F2300
G1 X45.0598 Y93.0547 E9389.32 F2300
G1 X46.474 Y94.469 F2300
G1 X34.293 Y106.65 E9406.55 F2300
G1 X37.1214 F2300
G1 X48.4214 Y95.35 E9422.53 F2300
G1 X51.2498 F2300
G1 X39.9498 Y106.65 E9438.51 F2300
G1 X42.7782 F2300
G1 X47.6289 Y101.799 E9445.37 F2300
G1 X47.4622 Y101.314 F2300
G1 X47.8051 Y102.313 E9446.42 F2300
G1 X48.4905 Y103.064 E9447.44 F2300
G1 X49.3733 Y103.479 E9448.42 F2300
G1 X50.3593 Y103.529 E9449.4 F2300
G1 X51.1134 Y103.3 E9450.19 F2300
G1 X51.8821 Y102.728 E9451.15 F2300
G1 X52.3132 Y102.087 E9451.92 F2300
G1 X52.5585 Y101.03 E9453.01 F2300
G1 X52.3117 Y99.9024 E9454.16 F2300
G1 X51.6318 Y99.0347 E9455.26 F2300
G1 X50.7737 Y98.5623 E9456.24 F2300
G1 X49.6828 Y98.4623 E9457.34 F2300
G1 X48.7495 Y98.7692 E9458.32 F2300
G1 X47.9323 Y99.4955 E9459.42 F2300
G1 X47.53 Y100.342 E9460.35 F2300
G1 X47.4622 Y101.314 E9461.33 F2300
G1 X48.9683 Y103.288 F2300
G1 X45.6067 Y106.65 E9466.08 F2300
G1 X48.4351 F2300
G1 X59.7351 Y95.35 E9482.06 F2300
G1 X56.9067 F2300
G1 X52.3193 Y99.9373 E9488.55 F2300
G1 X50.8332 Y98.5951 F2300
G1 X54.0782 Y95.35 E9493.14 F2300
G1 X62.5635 F2300
G1 X51.2635 Y106.65 E9509.12 F2300
G1 X54.0919 F2300
G1 X71.35 Y89.3919 E9533.52 F2300
G1 Y86.5635 F2300
G1 X62.85 Y95.0635 E9545.54 F2300
G1 Y92.2351 F2300
G1 X71.35 Y83.7351 E9557.56 F2300
G1 Y80.9066 F2300
G1 X62.85 Y89.4066 E9569.58 F2300
G1 Y86.5782 F2300
G1 X71.35 Y78.0782 E9581.61 F2300
G1 Y75.2498 F2300
G1 X62.85 Y83.7498 E9593.63 F2300
G1 Y80.9214 F2300
G1 X71.35 Y72.4214 E9605.65 F2300
G1 Y69.5929 F2300
G1 X62.85 Y78.0929 E9617.67 F2300
G1 Y75.2645 F2300
G1 X71.35 Y66.7645 E9629.69 F2300
G1 Y63.9361 F2300
G1 X62.85 Y72.4361 E9641.71 F2300
G1 Y69.6077 F2300
G1 X71.35 Y61.1077 E9653.73 F2300
G1 Y58.2792 F2300
G1 X62.85 Y66.7792 E9665.75 F2300
G1 Y63.9508 F2300
G1 X71.35 Y55.4508 E9677.77 F2300
G1 Y52.6224 F2300
G1 X62.85 Y61.1224 E9689.79 F2300
G1 Y58.2939 F2300
G1 X71.35 Y49.7939 E9701.81 F2300
G1 Y46.9655 F2300
G1 X62.85 Y55.4655 E9713.83 F2300
G1 X62.85 Y52.6371 F2300
G1 X71.35 Y44.1371 E9725.85 F2300
G1 Y41.3087 F2300
G1 X62.85 Y49.8087 E9737.87 F2300
G1 Y46.9802 F2300
G1 X71.35 Y38.4802 E9749.89 F2300
G1 Y35.6518 F2300
G1 X62.85 Y44.1518 E9761.91 F2300
G1 Y41.3234 F2300
G1 X71.35 Y32.8234 E9773.93 F2300
G1 Y29.9949 F2300
G1 X62.85 Y38.4949 E9785.95 F2300
G1 Y35.6665 F2300
G1 X71.35 Y27.1665 E9797.97 F2300
G1 Y24.3381 F2300
G1 X62.85 Y32.8381 E9810 F2300
G1 Y30.0097 F2300
G1 X71.35 Y21.5097 E9822.02 F2300
G1 Y18.6812 F2300
G1 X62.85 Y27.1812 E9834.04 F2300
G1 Y24.3528 F2300
G1 X71.35 Y15.8528 E9846.06 F2300
G1 Y13.0244 F2300
G1 X68.2157 Y16.1586 E9850.49 F2300
G1 X68.2473 Y15.797 F2300
G1 X68.0075 Y14.8994 E9851.42 F2300
G1 X67.3979 Y14.0875 E9852.43 F2300
G1 X66.4763 Y13.5625 E9853.49 F2300
G1 X65.378 Y13.4619 E9854.6 F2300
G1 X64.3692 Y13.823 E9855.67 F2300
G1 X64.1715 Y13.9571 E9855.91 F2300
G1 X63.5051 Y14.6874 E9856.9 F2300
G1 X63.1625 Y15.6854 E9857.95 F2300
G1 X63.224 Y16.6219 E9858.89 F2300
G1 X63.5125 Y17.3207 E9859.65 F2300
G1 X64.1926 Y18.066 E9860.65 F2300
G1 X65.1602 Y18.5005 E9861.71 F2300
G1 X66.2615 Y18.4957 E9862.82 F2300
G1 X67.2253 Y18.0528 E9863.88 F2300
G1 X67.8978 Y17.3028 E9864.88 F2300
G1 X68.1743 Y16.6333 E9865.61 F2300
G1 X68.2473 Y15.797 E9866.45 F2300
G1 X67.4239 Y14.1221 F2300
G1 X71.196 Y10.35 E9871.78 F2300
G1 X68.3675 F2300
G1 X65.1874 Y13.5301 E9876.28 F2300
G1 X63.2306 Y15.4869 F2300
G1 X57.0675 Y21.65 E9885 F2300
G1 X56.1508 Y22.5667 F2300
G1 X55.0675 Y23.65 E9886.53 F2300
G1 X52.2391 F2300
G1 X65.5391 Y10.35 E9905.34 F2300
G1 X62.7107 F2300
G1 X49.4107 Y23.65 E9924.15 F2300
G1 X39.857 Y27.5468 F2300
G1 X32.765 Y34.6389 E9934.18 F2300
G1 X38.578 Y37.3111 F2300
G1 X28.7295 Y47.1596 E9948.1 F2300
G1 X27.4607 Y45.6 F2300
G1 X39.857 Y33.2037 E9965.63 F2300
G1 Y30.3753 F2300
G1 X24.6323 Y45.6 E9987.17 F2300
G1 X29.7648 Y48.9528 F2300
G1 X36.578 Y42.1395 E9996.8 F2300
G1 X10.35 Y45.7401 F2300
G1 X45.7401 Y10.35 E10046.9 F2300
G1 X48.5685 F2300
G1 X10.35 Y48.5686 E10100.9 F2300
G1 X38.65 Y71.1802 F2300
G1 X31.2676 Y78.5627 E10111.3 F2300
G1 X32.8622 Y79.7965 F2300
G1 X38.65 Y74.0087 E10119.5 F2300
G1 X42.2313 Y90.2263 F2300
G1 X33.9796 Y98.4781 E10131.2 F2300
G1 X36.082 Y99.2041 F2300
G1 X43.6456 Y91.6405 E10141.9 F2300
G1 X56.9204 Y106.65 F2300
G1 X63.2468 Y100.324 E10150.8 F2300
G1 X63.2941 Y100.146 F2300
G1 X63.1902 Y100.535 E10151.2 F2300
G1 Y101.491 E10152.2 F2300
G1 X63.6276 Y102.5 E10153.3 F2300
G1 X64.4507 Y103.232 E10154.4 F2300
G1 X65.4179 Y103.541 E10155.4 F2300
G1 X66.3136 Y103.482 E10156.3 F2300
G1 X67.2948 Y103 E10157.4 F2300
G1 X67.9499 Y102.216 E10158.4 F2300
G1 X68.2499 Y101.2 E10159.5 F2300
G1 X68.1121 Y100.15 E10160.5 F2300
G1 X67.5872 Y99.2736 E10161.6 F2300
G1 X66.692 Y98.6432 E10162.7 F2300
G1 X65.7748 Y98.4446 E10163.6 F2300
G1 X64.7725 Y98.6163 E10164.6 F2300
G1 X63.8558 Y99.2267 E10165.7 F2300
G1 X63.2941 Y100.146 E10166.8 F2300
G1 X64.9916 Y98.5788 F2300
G1 X71.35 Y92.2204 E10175.8 F2300
G1 Y95.0488 F2300
G1 X67.3161 Y99.0827 E10181.5 F2300
G1 X68.2241 Y101.003 F2300
G1 X71.35 Y97.8772 E10185.9 F2300
G1 Y100.706 F2300
G1 X65.4057 Y106.65 E10194.3 F2300
G1 X68.2341 F2300
G1 X71.35 Y103.534 E10198.7 F2300
G1 Y106.362 F2300
G1 X71.0625 Y106.65 E10199.1 F2300
G1 X65.7054 Y103.522 F2300
G1 X62.5772 Y106.65 E10203.6 F2300
G1 X59.7488 F2300
G1 X63.771 Y102.628 E10209.2 F2300
G1 X18.7268 Y102.417 F2300
G1 X14.494 Y106.65 E10215.2 F2300
G1 X11.6655 F2300
G1 X17.1343 Y101.181 E10223 F2300
G1 X59.896 Y21.65 F2300
G1 X63.8526 Y17.6934 E10228.6 F2300
G1 X65.877 Y18.4974 F2300
G1 X62.7244 Y21.65 E10233 F2300
G1 F70
G1 Z1.6 F70

G1 X62.85 F2300
G1 X56.1517 E10239.7 F2300
G1 X56.1503 Y23.65 E10241.7 F2300
G1 X39.857 E10258 F2300
G1 Y34.2234 E10268.6 F2300
G1 X35.6676 Y44.3374 E10279.5 F2300
G1 X35.15 Y44.855 E10280.3 F2300
G1 Y68.5 E10303.9 F2300
G1 X38.65 E10307.4 F2300
G1 Y86.645 E10325.6 F2300
G1 X47.355 Y95.35 E10337.9 F2300
G1 X62.85 E10353.4 F2300
G1 Y21.65 E10427.1 F2300
G1 Y23.098 F2300
G1 X71.35 Y31.598 E10439.1 F2300
G1 Y34.4264 F2300
G1 X62.85 Y25.9264 E10451.1 F2300
G1 X62.85 Y28.7548 F2300
G1 X71.35 Y37.2548 E10463.1 F2300
G1 Y40.0833 F2300
G1 X62.85 Y31.5833 E10475.1 F2300
G1 Y34.4117 F2300
G1 X71.35 Y42.9117 E10487.2 F2300
G1 Y45.7401 F2300
G1 X62.85 Y37.2401 E10499.2 F2300
G1 Y40.0686 F2300
G1 X71.35 Y48.5686 E10511.2 F2300
G1 Y51.397 F2300
G1 X62.85 Y42.897 E10523.2 F2300
G1 Y45.7254 F2300
G1 X71.35 Y54.2254 E10535.2 F2300
G1 Y57.0538 F2300
G1 X62.85 Y48.5538 E10547.3 F2300
G1 X62.85 Y51.3823 F2300
G1 X71.35 Y59.8823 E10559.3 F2300
G1 Y62.7107 F2300
G1 X62.85 Y54.2107 E10571.3 F2300
G1 Y57.0391 F2300
G1 X71.35 Y65.5391 E10583.3 F2300
G1 Y68.3675 F2300
G1 X62.85 Y59.8675 E10595.3 F2300
G1 Y62.696 F2300
G1 X71.35 Y71.196 E10607.4 F2300
G1 Y74.0244 F2300
G1 X62.85 Y65.5244 E10619.4 F2300
G1 Y68.3528 F2300
G1 X71.35 Y76.8528 E10631.4 F2300
G1 Y79.6813 F2300
G1 X62.85 Y71.1813 E10643.4 F2300
G1 Y74.0097 F2300
G1 X71.35 Y82.5097 E10655.4 F2300
G1 Y85.3381 F2300
G1 X62.85 Y76.8381 E10667.5 F2300
G1 Y79.6665 F2300
G1 X71.35 Y88.1665 E10679.5 F2300
G1 Y90.995 F2300
G1 X62.85 Y82.495 E10691.5 F2300
G1 Y85.3234 F2300
G1 X71.35 Y93.8234 E10703.5 F2300
G1 Y96.6518 F2300
G1 X62.85 Y88.1518 E10715.6 F2300
G1 Y90.9802 F2300
G1 X71.35 Y99.4802 E10727.6 F2300
G1 Y102.309 F2300
G1 X62.85 Y93.8087 E10739.6 F2300
G1 X61.5629 Y95.35 F2300
G1 X64.8209 Y98.608 E10744.2 F2300
G1 X63.8558 Y99.2267 E10745.3 F2300
G1 X63.2941 Y100.146 E10746.4 F2300
G1 X63.1902 Y100.535 E10746.8 F2300
G1 Y101.491 E10747.7 F2300
G1 X63.6276 Y102.5 E10748.8 F2300
G1 X64.4507 Y103.232 E10749.9 F2300
G1 X65.4179 Y103.541 E10751 F2300
G1 X66.3136 Y103.482 E10751.9 F2300
G1 X67.2948 Y103 E10752.9 F2300
G1 X67.9499 Y102.216 E10754 F2300
G1 X68.2499 Y101.2 E10755 F2300
G1 X68.1121 Y100.15 E10756.1 F2300
G1 X67.5872 Y99.2736 E10757.1 F2300
G1 X66.692 Y98.6432 E10758.2 F2300
G1 X65.7748 Y98.4446 E10759.1 F2300
G1 X64.7725 Y98.6163 E10760.2 F2300
G1 X63.3839 Y99.9994 F2300
G1 X58.7345 Y95.35 E10766.7 F2300
G1 X55.9061 F2300
G1 X67.206 Y106.65 E10782.7 F2300
G1 X70.0345 F2300
G1 X66.6843 Y103.3 E10787.5 F2300
G1 X68.0591 Y101.846 F2300
G1 X71.35 Y105.137 E10792.1 F2300
G1 Y106.65 F2300
G1 X10.35 E10853.1 F2300
G1 Y37.5 E10922.3 F2300
G1 X13.35 E10925.3 F2300
G1 Y10.35 E10952.4 F2300
G1 X71.35 E11010.4 F2300
G1 Y106.65 E11106.7 F2300
G1 X64.3776 F2300
G1 X53.0776 Y95.35 E11122.7 F2300
G1 X50.2492 F2300
G1 X61.5492 Y106.65 E11138.7 F2300
G1 X58.7208 F2300
G1 X52.4543 Y100.384 E11147.5 F2300
G1 X52.5151 Y100.538 F2300
G1 X52.1601 Y99.6343 E11148.5 F2300
G1 X51.6119 Y99.022 E11149.3 F2300
G1 X50.7733 Y98.5622 E11150.3 F2300
G1 X49.6828 Y98.4623 E11151.4 F2300
G1 X48.7495 Y98.7692 E11152.4 F2300
G1 X47.9323 Y99.4955 E11153.5 F2300
G1 X47.53 Y100.342 E11154.4 F2300
G1 X47.4622 Y101.314 E11155.4 F2300
G1 X47.8051 Y102.313 E11156.4 F2300
G1 X48.4905 Y103.064 E11157.4 F2300
G1 X49.3738 Y103.479 E11158.4 F2300
G1 X50.3879 Y103.528 E11159.4 F2300
G1 X51.3408 Y103.177 E11160.4 F2300
G1 X52.0589 Y102.516 E11161.4 F2300
G1 X52.4875 Y101.594 E11162.4 F2300
G1 X52.5151 Y100.538 E11163.5 F2300
G1 X51.9024 Y102.66 F2300
G1 X55.8923 Y106.65 E11169.1 F2300
G1 X53.0639 F2300
G1 X49.919 Y103.505 E11173.6 F2300
G1 X50.2355 Y106.65 F2300
G1 X10.35 Y66.7645 E11230 F2300
G1 X10.35 Y63.9361 F2300
G1 X28.0696 Y81.6557 E11255 F2300
G1 X28.1535 Y81.9875 F2300
G1 X28.784 Y82.851 E11256.1 F2300
G1 X29.301 Y83.2137 E11256.7 F2300
G1 X30.0829 Y83.4992 E11257.6 F2300
G1 X31.1522 Y83.5109 E11258.6 F2300
G1 X32.2252 Y83.0673 E11259.8 F2300
G1 X32.713 Y82.6352 E11260.5 F2300
G1 X33.2521 Y81.6506 E11261.6 F2300
G1 X33.3189 Y80.6828 E11262.6 F2300
G1 X32.9857 Y79.7342 E11263.6 F2300
G1 X32.35 Y79.021 E11264.5 F2300
G1 X31.3573 Y78.5394 E11265.6 F2300
G1 X30.3785 Y78.4586 E11266.6 F2300
G1 X29.293 Y78.7853 E11267.7 F2300
G1 X28.4551 Y79.501 E11268.8 F2300
G1 X28.0168 Y80.4311 E11269.9 F2300
G1 X27.9564 Y81.208 E11270.6 F2300
G1 X28.1535 Y81.9875 E11271.4 F2300
G1 X29.8154 Y83.4015 F2300
G1 X47.4795 Y101.066 E11296.4 F2300
G1 X48.3588 Y99.1164 F2300
G1 X32.27 Y83.0277 E11319.2 F2300
G1 X33.2824 Y81.2116 F2300
G1 X38.65 Y86.5792 E11326.8 F2300
G1 Y83.7508 F2300
G1 X10.35 Y55.4508 E11366.8 F2300
G1 X10.35 Y58.2792 F2300
G1 X30.543 Y78.4722 E11395.4 F2300
G1 X28.6105 Y79.3682 F2300
G1 X10.35 Y61.1077 E11421.2 F2300
G1 X10.35 Y69.5929 F2300
G1 X47.4071 Y106.65 E11473.6 F2300
G1 X44.5786 F2300
G1 X10.35 Y72.4214 E11522 F2300
G1 Y75.2498 F2300
G1 X33.6604 Y98.5602 E11555 F2300
G1 X33.8526 Y98.486 F2300
G1 X32.9316 Y98.8416 E11555.9 F2300
G1 X32.1382 Y99.6316 E11557.1 F2300
G1 X31.762 Y100.678 E11558.2 F2300
G1 X31.862 Y101.776 E11559.3 F2300
G1 X32.4193 Y102.73 E11560.4 F2300
G1 X33.1446 Y103.281 E11561.3 F2300
G1 X34.2157 Y103.554 E11562.4 F2300
G1 X35.0334 Y103.445 E11563.2 F2300
G1 X35.7547 Y103.099 E11564 F2300
G1 X36.4171 Y102.431 E11565 F2300
G1 X36.7635 Y101.67 E11565.8 F2300
G1 X36.8457 Y100.779 E11566.7 F2300
G1 X36.6097 Y99.9044 E11567.6 F2300
G1 X36.0018 Y99.0953 E11568.6 F2300
G1 X35.3148 Y98.6559 E11569.4 F2300
G1 X34.3852 Y98.4532 E11570.4 F2300
G1 X33.8526 Y98.486 E11570.9 F2300
G1 X32.0761 Y99.8043 F2300
G1 X10.35 Y78.0782 E11601.6 F2300
G1 X10.35 Y80.9067 F2300
G1 X36.0933 Y106.65 E11638 F2300
G1 X33.2649 F2300
G1 X10.35 Y83.7351 E11670.5 F2300
G1 Y86.5635 F2300
G1 X30.4365 Y106.65 E11698.9 F2300
G1 X27.6081 F2300
G1 X21.8562 Y100.898 E11707 F2300
G1 X21.9254 Y100.784 F2300
G1 X22.0541 Y100.014 E11707.8 F2300
G1 X21.9273 Y99.2248 E11708.6 F2300
G1 X21.5029 Y98.4496 E11709.5 F2300
G1 X20.7436 Y97.8069 E11710.5 F2300
G1 X19.7367 Y97.4709 E11711.5 F2300
G1 X18.9513 Y97.4769 E11712.3 F2300
G1 X18.1599 Y97.7135 E11713.1 F2300
G1 X17.4734 Y98.1775 E11714 F2300
G1 X17.1 Y98.6141 E11714.5 F2300
G1 X16.845 Y99.0865 E11715.1 F2300
G1 X16.684 Y99.6908 E11715.7 F2300
G1 X16.6936 Y100.381 E11716.4 F2300
G1 X16.925 Y101.1 E11717.1 F2300
G1 X17.5062 Y101.857 E11718.1 F2300
G1 X18.3935 Y102.384 E11719.1 F2300
G1 X19.3381 Y102.555 E11720.1 F2300
G1 X20.3693 Y102.371 E11721.1 F2300
G1 X21.3517 Y101.726 E11722.3 F2300
G1 X21.9254 Y100.784 E11723.4 F2300
G1 X20.4486 Y102.319 F2300
G1 X24.7796 Y106.65 E11729.5 F2300
G1 X21.9512 F2300
G1 X10.35 Y95.0488 E11745.9 F2300
G1 Y92.2204 F2300
G1 X16.9751 Y98.8455 E11755.3 F2300
G1 X18.5538 Y97.5957 F2300
G1 X10.35 Y89.3919 E11766.9 F2300
G1 Y97.8772 F2300
G1 X19.1228 Y106.65 E11779.3 F2300
G1 X16.2944 F2300
G1 X10.35 Y100.706 E11787.7 F2300
G1 X10.35 Y103.534 F2300
G1 X13.4659 Y106.65 E11792.1 F2300
G1 X10.6375 F2300
G1 X10.35 Y106.362 E11792.5 F2300
G1 X35.4953 Y103.224 F2300
G1 X38.9218 Y106.65 E11797.4 F2300
G1 X41.7502 F2300
G1 X36.7641 Y101.664 E11804.4 F2300
G1 X47.4208 Y95.35 F2300
G1 X50.6189 Y98.5481 E11809 F2300
G1 X38.65 Y80.9224 F2300
G1 X10.35 Y52.6224 E11849 F2300
G1 X10.35 Y49.7939 F2300
G1 X38.65 Y78.0939 E11889 F2300
G1 Y75.2655 F2300
G1 X10.35 Y46.9655 E11929 F2300
G1 Y44.1371 F2300
G1 X38.65 Y72.4371 E11969 F2300
G1 Y69.6087 F2300
G1 X37.5413 Y68.5 E11970.6 F2300
G1 X35.15 Y66.1087 F2300
G1 X24.4413 Y55.4 E11985.8 F2300
G1 X22.3442 Y55.4 F2300
G1 X27.829 E11991.2 F2300
G1 X30.658 Y50.5 E11996.9 F2300
G1 X27.829 Y45.6 E12002.6 F2300
G1 X22.3442 E12008 F2300
G1 X19.65 Y50.2665 E12013.4 F2300
G1 Y50.7335 E12013.9 F2300
G1 X22.3442 Y55.4 E12019.3 F2300
G1 X27.2698 Y55.4 F2300
G1 X35.15 Y63.2802 E12030.4 F2300
G1 Y60.4518 F2300
G1 X28.6596 Y53.9614 E12039.6 F2300
G1 X29.6949 Y52.1682 F2300
G1 X35.15 Y57.6234 E12047.3 F2300
G1 Y54.795 F2300
G1 X30.3889 Y50.0339 E12054.1 F2300
G1 X35.15 Y49.1381 F2300
G1 X13.35 Y27.3381 E12084.9 F2300
G1 X13.35 Y30.1665 F2300
G1 X35.15 Y51.9665 E12115.7 F2300
G1 Y46.3097 F2300
G1 X13.35 Y24.5097 E12146.5 F2300
G1 X13.35 Y21.6812 F2300
G1 X27.977 Y36.3083 E12167.2 F2300
G1 X27.9767 Y36.3894 F2300
G1 X28.2571 Y37.1892 E12168.1 F2300
G1 X28.7142 Y37.7855 E12168.8 F2300
G1 X29.3781 Y38.255 E12169.6 F2300
G1 X30.1548 Y38.5128 E12170.5 F2300
G1 X31.4488 Y38.441 E12171.8 F2300
G1 X32.3821 Y37.9496 E12172.8 F2300
G1 X32.98 Y37.2737 E12173.7 F2300
G1 X33.3073 Y36.3923 E12174.7 F2300
G1 X33.2788 Y35.4685 E12175.6 F2300
G1 X32.9518 Y34.6801 E12176.4 F2300
G1 X32.1988 Y33.9138 E12177.5 F2300
G1 X31.1546 Y33.4906 E12178.6 F2300
G1 X30.1977 Y33.4801 E12179.6 F2300
G1 X29.1277 Y33.8821 E12180.7 F2300
G1 X28.3257 Y34.6862 E12181.9 F2300
G1 X27.9796 Y35.5921 E12182.8 F2300
G1 X27.9767 Y36.3894 E12183.6 F2300
G1 X28.754 Y34.2568 F2300
G1 X13.35 Y18.8528 E12205.4 F2300
G1 X13.35 Y16.0244 F2300
G1 X30.8125 Y33.4869 E12230.1 F2300
G1 X33.2942 Y35.9686 F2300
G1 X37.4236 Y40.098 E12236 F2300
G1 X36.5952 Y42.098 F2300
G1 X32.4124 Y37.9153 E12241.9 F2300
G1 X30.1802 Y38.5114 F2300
G1 X35.7668 Y44.098 E12249.8 F2300
G1 X38.2521 Y38.098 F2300
G1 X19.6429 Y19.4888 E12276.1 F2300
G1 X19.2864 Y19.5567 F2300
G1 X18.12 Y19.2718 E12277.3 F2300
G1 X17.3394 Y18.692 E12278.3 F2300
G1 X16.8687 Y17.9802 E12279.1 F2300
G1 X16.6692 Y17.1304 E12280 F2300
G1 X16.672 Y16.8293 E12280.3 F2300
G1 X16.8666 Y16.0236 E12281.1 F2300
G1 X17.3699 Y15.2787 E12282 F2300
G1 X17.9084 Y14.8502 E12282.7 F2300
G1 X18.472 Y14.5897 E12283.3 F2300
G1 X19.3135 Y14.4462 E12284.2 F2300
G1 X20.4514 Y14.6652 E12285.3 F2300
G1 X21.1914 Y15.1275 E12286.2 F2300
G1 X21.6712 Y15.6928 E12287 F2300
G1 X21.9351 Y16.2507 E12287.6 F2300
G1 X22.0388 Y17.2709 E12288.6 F2300
G1 X21.9125 Y17.8149 E12289.2 F2300
G1 X21.4288 Y18.641 E12290.1 F2300
G1 X20.4624 Y19.3328 E12291.3 F2300
G1 X19.2864 Y19.5567 E12292.5 F2300
G1 X21.5007 Y18.5182 F2300
G1 X39.0805 Y36.098 E12317.4 F2300
G1 X39.857 Y34.0461 F2300
G1 X21.8216 Y16.0107 E12342.9 F2300
G1 X20.5172 Y14.7063 F2300
G1 X16.1609 Y10.35 E12349 F2300
G1 X13.35 Y10.3675 F2300
G1 X17.8662 Y14.8838 E12355.4 F2300
G1 X16.7326 Y16.5785 F2300
G1 X13.35 Y13.196 E12360.2 F2300
G1 X18.9893 Y10.35 F2300
G1 X39.857 Y31.2177 E12389.7 F2300
G1 X39.857 Y28.3893 F2300
G1 X21.8177 Y10.35 E12415.2 F2300
G1 X24.6462 Y10.35 F2300
G1 X39.857 Y25.5608 E12436.7 F2300
G1 X40.7746 Y23.65 F2300
G1 X35.3793 Y18.2547 E12444.4 F2300
G1 X34.9664 Y18.4682 F2300
G1 X35.9251 Y17.9724 E12445.4 F2300
G1 X36.5297 Y17.2494 E12446.4 F2300
G1 X36.8258 Y16.3869 E12447.3 F2300
G1 X36.8126 Y15.5372 E12448.1 F2300
G1 X36.5274 Y14.7472 E12449 F2300
G1 X35.8976 Y14.0042 E12450 F2300
G1 X35.0721 Y13.5676 E12450.9 F2300
G1 X34.353 Y13.4463 E12451.6 F2300
G1 X33.4112 Y13.6043 E12452.6 F2300
G1 X32.504 Y14.18 E12453.6 F2300
G1 X31.9697 Y14.9578 E12454.6 F2300
G1 X31.7784 Y15.5969 E12455.3 F2300
G1 Y16.4007 E12456.1 F2300
G1 X31.9438 Y16.981 E12456.7 F2300
G1 X32.2604 Y17.5385 E12457.3 F2300
G1 X33.0995 Y18.2577 E12458.4 F2300
G1 X34.0855 Y18.5467 E12459.4 F2300
G1 X34.9664 Y18.4682 E12460.3 F2300
G1 X36.7016 Y16.7486 F2300
G1 X43.603 Y23.65 E12470.1 F2300
G1 X46.4314 Y23.65 F2300
G1 X33.1315 Y10.35 E12488.9 F2300
G1 X35.9599 Y10.35 F2300
G1 X49.2599 Y23.65 E12507.7 F2300
G1 X52.0883 Y23.65 F2300
G1 X38.7883 Y10.35 E12526.5 F2300
G1 X41.6167 Y10.35 F2300
G1 X47.4906 Y16.2238 E12534.8 F2300
G1 X47.4489 Y15.8703 F2300
G1 X47.5502 Y16.7292 E12535.7 F2300
G1 X48.0186 Y17.613 E12536.7 F2300
G1 X48.5584 Y18.11 E12537.4 F2300
G1 X49.562 Y18.5193 E12538.5 F2300
G1 X50.4973 Y18.5071 E12539.4 F2300
G1 X51.3634 Y18.1626 E12540.4 F2300
G1 X52.0983 Y17.4621 E12541.4 F2300
G1 X52.5098 Y16.4896 E12542.4 F2300
G1 Y15.5214 E12543.4 F2300
G1 X52.2545 Y14.7982 E12544.2 F2300
G1 X51.6824 Y14.0762 E12545.1 F2300
G1 X50.9183 Y13.6142 E12546 F2300
G1 X49.8808 Y13.4457 E12547 F2300
G1 X48.9355 Y13.6763 E12548 F2300
G1 X48.1997 Y14.1849 E12548.9 F2300
G1 X47.6239 Y15.0579 E12550 F2300
G1 X47.4489 Y15.8703 E12550.8 F2300
G1 X48.2472 Y14.1521 F2300
G1 X44.4452 Y10.35 E12556.2 F2300
G1 X47.2736 Y10.35 F2300
G1 X50.464 Y13.5404 E12560.7 F2300
G1 X52.5098 Y15.5862 F2300
G1 X58.5736 Y21.65 E12569.2 F2300
G1 X56.1514 Y22.0563 F2300
G1 X51.8213 Y17.7261 E12575.4 F2300
G1 X49.7831 Y18.5164 F2300
G1 X54.9167 Y23.65 E12582.6 F2300
G1 X61.402 Y21.65 F2300
G1 X50.102 Y10.35 E12598.6 F2300
G1 X52.9304 Y10.35 F2300
G1 X71.35 Y28.7696 E12624.7 F2300
G1 Y25.9411 F2300
G1 X55.7589 Y10.35 E12646.7 F2300
G1 X58.5873 Y10.35 F2300
G1 X63.3568 Y15.1195 E12653.5 F2300
G1 X63.5051 Y14.6874 F2300
G1 X63.1625 Y15.6852 E12654.5 F2300
G1 X63.2224 Y16.6138 E12655.4 F2300
G1 X63.5122 Y17.3204 E12656.2 F2300
G1 X64.1926 Y18.066 E12657.2 F2300
G1 X65.1602 Y18.5005 E12658.3 F2300
G1 X66.2615 Y18.4957 E12659.4 F2300
G1 X67.2253 Y18.0528 E12660.4 F2300
G1 X67.8978 Y17.3028 E12661.4 F2300
G1 X68.1743 Y16.6333 E12662.2 F2300
G1 X68.2473 Y15.797 E12663 F2300
G1 X68.0075 Y14.8994 E12663.9 F2300
G1 X67.3979 Y14.0875 E12665 F2300
G1 X66.4763 Y13.5625 E12666 F2300
G1 X65.378 Y13.4619 E12667.1 F2300
G1 X64.3692 Y13.823 E12668.2 F2300
G1 X64.1715 Y13.9571 E12668.4 F2300
G1 X63.5051 Y14.6874 E12669.4 F2300
G1 X64.7518 Y13.6861 F2300
G1 X61.4157 Y10.35 E12674.1 F2300
G1 X64.2441 Y10.35 F2300
G1 X71.35 Y17.4559 E12684.2 F2300
G1 Y20.2843 F2300
G1 X68.0354 Y16.9697 E12688.9 F2300
G1 X66.5846 Y18.3473 F2300
G1 X71.35 Y23.1127 E12695.6 F2300
G1 Y14.6274 F2300
G1 X67.0726 Y10.35 E12701.7 F2300
G1 X69.901 F2300
G1 X71.35 Y11.799 E12703.7 F2300
G1 X33.5363 Y13.5833 F2300
G1 X30.303 Y10.35 E12708.3 F2300
G1 X27.4746 F2300
G1 X32.0156 Y14.891 E12714.7 F2300
G1 X13.35 Y32.995 F2300
G1 X25.955 Y45.6 E12732.5 F2300
G1 X23.1266 F2300
G1 X13.35 Y35.8234 E12746.4 F2300
G1 X12.1982 Y37.5 F2300
G1 X21.5953 Y46.8971 E12759.6 F2300
G1 X20.56 Y48.6903 F2300
G1 X10.35 Y38.4802 E12774.1 F2300
G1 Y41.3087 F2300
G1 X19.65 Y50.6087 E12787.2 F2300
G1 F70
G1 Z2 F70

G1 Y50.7335 F2300
G1 X22.3442 Y55.4 E12792.6 F2300
G1 X27.829 E12798.1 F2300
G1 X30.658 Y50.5 E12803.8 F2300
G1 X27.829 Y45.6 E12809.4 F2300
G1 X22.3442 E12814.9 F2300
G1 X19.65 Y50.2665 E12820.3 F2300
G1 Y50.7335 E12820.8 F2300
G1 X20.2048 Y51.6944 F2300
G1 X10.35 Y61.5492 E12834.7 F2300
G1 Y58.7208 F2300
G1 X20.8053 Y48.2655 E12849.5 F2300
G1 X23.4708 Y45.6 F2300
G1 X30.5641 Y38.5067 E12859.5 F2300
G1 X30.3021 Y38.512 F2300
G1 X29.5178 Y38.2519 E12860.3 F2300
G1 X28.8585 Y37.7842 E12861.1 F2300
G1 X28.3992 Y37.1823 E12861.9 F2300
G1 X28.1225 Y36.3905 E12862.7 F2300
G1 X28.126 Y35.5876 E12863.5 F2300
G1 X28.4723 Y34.6847 E12864.5 F2300
G1 X29.2758 Y33.8806 E12865.7 F2300
G1 X30.3349 Y33.4817 E12866.8 F2300
G1 X31.3023 Y33.491 E12867.8 F2300
G1 X32.3348 Y33.9078 E12868.9 F2300
G1 X33.0956 Y34.6773 E12869.9 F2300
G1 X33.4149 Y35.443 E12870.8 F2300
G1 X33.4751 Y35.8461 E12871.2 F2300
G1 X33.3777 Y36.7076 E12872.1 F2300
G1 X32.975 Y37.4942 E12872.9 F2300
G1 X32.108 Y38.2277 E12874.1 F2300
G1 X31.3886 Y38.4899 E12874.8 F2300
G1 X30.3021 Y38.512 E12875.9 F2300
G1 X28.6852 Y37.5571 F2300
G1 X10.35 Y55.8923 E12901.9 F2300
G1 X10.35 Y53.0639 F2300
G1 X28.3124 Y35.1015 E12927.3 F2300
G1 X29.6889 Y33.725 F2300
G1 X47.4595 Y15.9544 E12952.4 F2300
G1 X47.4492 Y15.8662 F2300
G1 X47.5501 Y16.729 E12953.3 F2300
G1 X48.0186 Y17.613 E12954.3 F2300
G1 X48.5584 Y18.11 E12955 F2300
G1 X49.562 Y18.5193 E12956.1 F2300
G1 X50.4973 Y18.5071 E12957 F2300
G1 X51.3634 Y18.1626 E12957.9 F2300
G1 X52.0983 Y17.4621 E12959 F2300
G1 X52.5098 Y16.4896 E12960 F2300
G1 Y15.5214 E12961 F2300
G1 X52.2545 Y14.7982 E12961.7 F2300
G1 X51.6824 Y14.0762 E12962.7 F2300
G1 X50.9183 Y13.6142 E12963.6 F2300
G1 X49.8808 Y13.4457 E12964.6 F2300
G1 X48.9355 Y13.6763 E12965.6 F2300
G1 X48.1997 Y14.1849 E12966.5 F2300
G1 X47.624 Y15.0578 E12967.5 F2300
G1 X47.4492 Y15.8662 E12968.4 F2300
G1 X48.3366 Y17.9057 F2300
G1 X42.5923 Y23.65 E12976.5 F2300
G1 X39.857 F2300
G1 Y34.2234 E12987 F2300
G1 X35.6676 Y44.3374 E12998 F2300
G1 X35.15 Y44.855 E12998.7 F2300
G1 Y68.5 E13022.4 F2300
G1 X38.65 E13025.9 F2300
G1 Y86.645 E13044 F2300
G1 X47.355 Y95.35 E13056.3 F2300
G1 X62.85 E13071.8 F2300
G1 Y21.65 E13145.5 F2300
G1 X56.1521 E13152.2 F2300
G1 X56.1503 Y23.65 E13154.2 F2300
G1 X39.857 E13170.5 F2300
G1 Y26.3853 F2300
G1 X32.3346 Y33.9078 E13181.2 F2300
G1 X33.4426 Y35.6282 F2300
G1 X39.857 Y29.2138 E13190.2 F2300
G1 Y32.0422 F2300
G1 X26.2992 Y45.6 E13209.4 F2300
G1 X28.3043 Y46.4233 F2300
G1 X39.3993 Y35.3283 E13225.1 F2300
G1 X37.3993 Y40.1567 F2300
G1 X29.3396 Y48.2164 E13236.5 F2300
G1 X30.3749 Y50.0096 F2300
G1 X35.15 Y45.2345 E13243.2 F2300
G1 Y48.0629 F2300
G1 X27.851 Y55.3619 E13253.6 F2300
G1 X27.8129 Y55.4 F2300
G1 X10.35 Y72.8629 E13278.3 F2300
G1 Y75.6913 F2300
G1 X35.15 Y50.8913 E13313.3 F2300
G1 Y53.7197 F2300
G1 X10.35 Y78.5198 E13348.4 F2300
G1 Y81.3482 F2300
G1 X35.15 Y56.5482 E13383.5 F2300
G1 Y59.3766 F2300
G1 X10.35 Y84.1766 E13418.5 F2300
G1 Y87.0051 F2300
G1 X35.15 Y62.205 E13453.6 F2300
G1 Y65.0335 F2300
G1 X10.35 Y89.8335 E13488.7 F2300
G1 Y92.6619 F2300
G1 X35.15 Y67.8619 E13523.8 F2300
G1 X37.3403 Y68.5 F2300
G1 X10.35 Y95.4903 E13561.9 F2300
G1 X10.35 Y98.3188 F2300
G1 X28.1547 Y80.514 E13587.1 F2300
G1 X28.16 Y80.4453 F2300
G1 X28.1017 Y81.199 E13587.9 F2300
G1 X28.2975 Y81.9841 E13588.7 F2300
G1 X28.9319 Y82.853 E13589.8 F2300
G1 X29.4408 Y83.2103 E13590.4 F2300
G1 X30.2234 Y83.4981 E13591.2 F2300
G1 X31.3003 Y83.5104 E13592.3 F2300
G1 X32.3702 Y83.0678 E13593.4 F2300
G1 X32.86 Y82.6336 E13594.1 F2300
G1 X33.3969 Y81.6534 E13595.2 F2300
G1 X33.464 Y80.6788 E13596.2 F2300
G1 X33.1308 Y79.7333 E13597.2 F2300
G1 X32.4943 Y79.0199 E13598.2 F2300
G1 X31.4878 Y78.5361 E13599.3 F2300
G1 X30.5111 Y78.4604 E13600.3 F2300
G1 X29.4322 Y78.789 E13601.4 F2300
G1 X28.5965 Y79.5065 E13602.5 F2300
G1 X28.16 Y80.4453 E13603.5 F2300
G1 X28.8105 Y82.6867 F2300
G1 X10.35 Y101.147 E13629.6 F2300
G1 Y103.976 F2300
G1 X30.8207 Y83.505 E13658.6 F2300
G1 X33.4504 Y80.8752 F2300
G1 X38.65 Y75.6756 E13665.9 F2300
G1 Y78.504 F2300
G1 X19.6607 Y97.4934 E13692.8 F2300
G1 X19.5961 Y97.4717 F2300
G1 X18.8143 Y97.4759 E13693.6 F2300
G1 X18.0224 Y97.7099 E13694.4 F2300
G1 X17.3351 Y98.1711 E13695.2 F2300
G1 X16.9621 Y98.6037 E13695.8 F2300
G1 X16.7036 Y99.0769 E13696.3 F2300
G1 X16.5389 Y99.6871 E13697 F2300
G1 X16.5479 Y100.381 E13697.7 F2300
G1 X16.7838 Y101.111 E13698.4 F2300
G1 X17.5148 Y101.989 E13699.6 F2300
G1 X18.5108 Y102.464 E13700.7 F2300
G1 X19.5842 Y102.531 E13701.7 F2300
G1 X20.549 Y102.22 E13702.8 F2300
G1 X21.3578 Y101.55 E13703.8 F2300
G1 X21.7826 Y100.772 E13704.7 F2300
G1 X21.9084 Y100.017 E13705.5 F2300
G1 X21.7832 Y99.2293 E13706.3 F2300
G1 X21.3588 Y98.4515 E13707.1 F2300
G1 X20.6032 Y97.81 E13708.1 F2300
G1 X19.5961 Y97.4717 E13709.2 F2300
G1 X21.4196 Y98.5629 F2300
G1 X38.65 Y81.3325 E13733.6 F2300
G1 Y84.1609 F2300
G1 X21.4746 Y101.336 E13757.9 F2300
G1 X20.7917 Y102.019 F2300
G1 X16.1609 Y106.65 E13764.4 F2300
G1 X13.3325 F2300
G1 X17.839 Y102.143 E13770.8 F2300
G1 X16.6029 Y100.551 F2300
G1 X10.5041 Y106.65 E13779.4 F2300
G1 X10.35 F2300
G1 Y37.5 E13848.5 F2300
G1 X13.35 E13851.5 F2300
G1 Y10.35 E13878.7 F2300
G1 X71.35 E13936.7 F2300
G1 Y106.65 E14033 F2300
G1 X10.35 E14094 F2300
G1 X18.9893 F2300
G1 X38.8222 Y86.8171 E14122 F2300
G1 X40.2364 Y88.2314 F2300
G1 X21.8178 Y106.65 E14148.1 F2300
G1 X24.6462 F2300
G1 X41.6506 Y89.6456 E14172.1 F2300
G1 X43.0648 Y91.0598 F2300
G1 X35.4117 Y98.7129 E14183 F2300
G1 X35.4683 Y98.7275 F2300
G1 X34.4079 Y98.4543 E14184.1 F2300
G1 X33.8574 Y98.485 E14184.6 F2300
G1 X32.9234 Y98.8472 E14185.6 F2300
G1 X32.1518 Y99.6172 E14186.7 F2300
G1 X31.8596 Y100.244 E14187.4 F2300
G1 X31.7626 Y101.322 E14188.5 F2300
G1 X32.0905 Y102.275 E14189.5 F2300
G1 X32.5369 Y102.849 E14190.2 F2300
G1 X33.372 Y103.382 E14191.2 F2300
G1 X34.2307 Y103.553 E14192.1 F2300
G1 X35.0428 Y103.442 E14192.9 F2300
G1 X35.7618 Y103.094 E14193.7 F2300
G1 X36.4147 Y102.434 E14194.6 F2300
G1 X36.7659 Y101.66 E14195.5 F2300
G1 X36.8459 Y100.783 E14196.4 F2300
G1 X36.6105 Y99.9061 E14197.3 F2300
G1 X36.0125 Y99.1069 E14198.3 F2300
G1 X35.4683 Y98.7275 E14198.9 F2300
G1 X36.7028 Y100.25 F2300
G1 X44.479 Y92.474 E14209.9 F2300
G1 X45.8932 Y93.8882 F2300
G1 X33.1315 Y106.65 E14228 F2300
G1 X35.9599 F2300
G1 X47.3075 Y95.3024 E14244 F2300
G1 X50.0883 Y95.35 F2300
G1 X38.7883 Y106.65 E14260 F2300
G1 X41.6167 F2300
G1 X47.5004 Y100.766 E14268.3 F2300
G1 X47.53 Y100.342 F2300
G1 X47.4622 Y101.314 E14269.3 F2300
G1 X47.8051 Y102.313 E14270.3 F2300
G1 X48.4905 Y103.064 E14271.4 F2300
G1 X49.3738 Y103.479 E14272.3 F2300
G1 X50.3879 Y103.528 E14273.4 F2300
G1 X51.3408 Y103.177 E14274.4 F2300
G1 X52.0589 Y102.516 E14275.3 F2300
G1 X52.4875 Y101.594 E14276.4 F2300
G1 X52.5151 Y100.538 E14277.4 F2300
G1 X52.1599 Y99.6337 E14278.4 F2300
G1 X51.6019 Y99.0147 E14279.2 F2300
G1 X50.773 Y98.5622 E14280.2 F2300
G1 X49.6828 Y98.4623 E14281.3 F2300
G1 X48.7495 Y98.7692 E14282.2 F2300
G1 X47.9323 Y99.4955 E14283.3 F2300
G1 X47.53 Y100.342 E14284.3 F2300
G1 X48.2715 Y102.824 F2300
G1 X44.4452 Y106.65 E14289.7 F2300
G1 X47.2736 F2300
G1 X50.4008 Y103.523 E14294.1 F2300
G1 X52.4918 Y101.432 F2300
G1 X58.5736 Y95.35 E14302.7 F2300
G1 X55.7452 F2300
G1 X51.8288 Y99.2664 E14308.3 F2300
G1 X49.7942 Y98.4725 F2300
G1 X52.9167 Y95.35 E14312.7 F2300
G1 X61.402 F2300
G1 X50.102 Y106.65 E14328.6 F2300
G1 X52.9305 F2300
G1 X71.35 Y88.2304 E14354.7 F2300
G1 Y91.0589 F2300
G1 X55.7589 Y106.65 E14376.7 F2300
G1 X58.5873 F2300
G1 X63.3583 Y101.879 E14383.5 F2300
G1 X63.1902 Y101.491 F2300
G1 X63.6276 Y102.5 E14384.6 F2300
G1 X64.4507 Y103.232 E14385.7 F2300
G1 X65.4179 Y103.541 E14386.7 F2300
G1 X66.3136 Y103.482 E14387.6 F2300
G1 X67.2948 Y103 E14388.7 F2300
G1 X67.9499 Y102.216 E14389.7 F2300
G1 X68.2499 Y101.2 E14390.8 F2300
G1 X68.1121 Y100.15 E14391.8 F2300
G1 X67.5872 Y99.2736 E14392.9 F2300
G1 X66.692 Y98.6432 E14394 F2300
G1 X65.7748 Y98.4446 E14394.9 F2300
G1 X64.7725 Y98.6163 E14395.9 F2300
G1 X63.8558 Y99.2267 E14397 F2300
G1 X63.2941 Y100.146 E14398.1 F2300
G1 X63.1902 Y100.535 E14398.5 F2300
G1 Y101.491 E14399.5 F2300
G1 X64.7411 Y103.325 F2300
G1 X61.4157 Y106.65 E14404.2 F2300
G1 X64.2442 F2300
G1 X71.35 Y99.5441 E14414.2 F2300
G1 Y96.7157 F2300
G1 X68.0385 Y100.027 E14418.9 F2300
G1 X66.6115 Y98.6257 F2300
G1 X71.35 Y93.8873 E14425.6 F2300
G1 Y102.373 F2300
G1 X67.0726 Y106.65 E14431.6 F2300
G1 X69.901 F2300
G1 X71.35 Y105.201 E14433.7 F2300
G1 X62.85 Y93.902 F2300
G1 X71.35 Y85.402 E14445.7 F2300
G1 Y82.5736 F2300
G1 X62.85 Y91.0736 E14457.7 F2300
G1 X62.85 Y88.2451 F2300
G1 X71.35 Y79.7451 E14469.7 F2300
G1 Y76.9167 F2300
G1 X62.85 Y85.4167 E14481.8 F2300
G1 Y82.5883 F2300
G1 X71.35 Y74.0883 E14493.8 F2300
G1 Y71.2599 F2300
G1 X62.85 Y79.7599 E14505.8 F2300
G1 Y76.9314 F2300
G1 X71.35 Y68.4314 E14517.8 F2300
G1 Y65.603 F2300
G1 X62.85 Y74.103 E14529.8 F2300
G1 Y71.2746 F2300
G1 X71.35 Y62.7746 E14541.9 F2300
G1 X71.35 Y59.9461 F2300
G1 X62.85 Y68.4462 E14553.9 F2300
G1 Y65.6177 F2300
G1 X71.35 Y57.1177 E14565.9 F2300
G1 Y54.2893 F2300
G1 X62.85 Y62.7893 E14577.9 F2300
G1 Y59.9609 F2300
G1 X71.35 Y51.4609 E14590 F2300
G1 Y48.6324 F2300
G1 X62.85 Y57.1324 E14602 F2300
G1 Y54.304 F2300
G1 X71.35 Y45.804 E14614 F2300
G1 Y42.9756 F2300
G1 X62.85 Y51.4756 E14626 F2300
G1 X62.85 Y48.6472 F2300
G1 X71.35 Y40.1471 E14638 F2300
G1 Y37.3187 F2300
G1 X62.85 Y45.8187 E14650.1 F2300
G1 Y42.9903 F2300
G1 X71.35 Y34.4903 E14662.1 F2300
G1 X71.35 Y31.6619 F2300
G1 X62.85 Y40.1619 E14674.1 F2300
G1 Y37.3335 F2300
G1 X71.35 Y28.8334 E14686.1 F2300
G1 Y26.005 F2300
G1 X62.85 Y34.505 E14698.1 F2300
G1 Y31.6766 F2300
G1 X71.35 Y23.1766 E14710.2 F2300
G1 Y20.3482 F2300
G1 X62.85 Y28.8482 E14722.2 F2300
G1 Y26.0197 F2300
G1 X71.35 Y17.5197 E14734.2 F2300
G1 Y14.6913 F2300
G1 X62.85 Y23.1913 E14746.2 F2300
G1 X61.5629 Y21.65 F2300
G1 X64.8512 Y18.3617 E14750.9 F2300
G1 X65.1602 Y18.5005 F2300
G1 X64.1926 Y18.066 E14751.9 F2300
G1 X63.512 Y17.3201 E14752.9 F2300
G1 X63.2209 Y16.6057 E14753.7 F2300
G1 X63.1626 Y15.685 E14754.6 F2300
G1 X63.5051 Y14.6874 E14755.7 F2300
G1 X64.1715 Y13.9571 E14756.7 F2300
G1 X64.3692 Y13.823 E14756.9 F2300
G1 X65.378 Y13.4619 E14758 F2300
G1 X66.4763 Y13.5625 E14759.1 F2300
G1 X67.3979 Y14.0875 E14760.1 F2300
G1 X68.0075 Y14.8994 E14761.2 F2300
G1 X68.2473 Y15.797 E14762.1 F2300
G1 X68.1743 Y16.6333 E14762.9 F2300
G1 X67.8978 Y17.3028 E14763.7 F2300
G1 X67.2253 Y18.0528 E14764.7 F2300
G1 X66.2615 Y18.4957 E14765.7 F2300
G1 X65.1602 Y18.5005 E14766.8 F2300
G1 X63.3824 Y17.0021 F2300
G1 X58.7345 Y21.65 E14773.4 F2300
G1 X53.906 Y23.65 F2300
G1 X67.206 Y10.35 E14792.2 F2300
G1 X70.0344 Y10.35 F2300
G1 X66.6965 Y13.688 E14796.9 F2300
G1 X68.072 Y15.1409 F2300
G1 X71.35 Y11.8629 E14801.6 F2300
G1 X64.3776 Y10.35 F2300
G1 X51.0776 Y23.65 E14820.4 F2300
G1 X48.2492 Y23.65 F2300
G1 X61.5492 Y10.35 E14839.2 F2300
G1 X58.7207 Y10.35 F2300
G1 X52.4575 Y16.6132 E14848 F2300
G1 X51.8962 Y14.3461 F2300
G1 X55.8923 Y10.35 E14853.7 F2300
G1 X53.0639 Y10.35 F2300
G1 X49.956 Y13.4579 E14858.1 F2300
G1 X50.2355 Y10.35 F2300
G1 X10.35 Y50.2355 E14914.5 F2300
G1 Y47.4071 F2300
G1 X47.407 Y10.35 E14966.9 F2300
G1 X44.5786 Y10.35 F2300
G1 X10.35 Y44.5786 E15015.3 F2300
G1 X10.35 Y41.7502 F2300
G1 X33.675 Y18.4251 E15048.3 F2300
G1 X34.0904 Y18.5471 F2300
G1 X33.0935 Y18.2544 E15049.3 F2300
G1 X32.2588 Y17.5363 E15050.4 F2300
G1 X31.9425 Y16.9779 E15051.1 F2300
G1 X31.7787 Y16.4026 E15051.7 F2300
G1 Y15.5945 E15052.5 F2300
G1 X31.9736 Y14.9499 E15053.2 F2300
G1 X32.5067 Y14.1775 E15054.1 F2300
G1 X33.4025 Y13.6079 E15055.2 F2300
G1 X34.358 Y13.4465 E15056.1 F2300
G1 X35.061 Y13.5646 E15056.8 F2300
G1 X35.8974 Y14.004 E15057.8 F2300
G1 X36.5283 Y14.7487 E15058.8 F2300
G1 X36.8126 Y15.5375 E15059.6 F2300
G1 X36.8255 Y16.3885 E15060.4 F2300
G1 X36.5305 Y17.2478 E15061.4 F2300
G1 X35.9319 Y17.9664 E15062.3 F2300
G1 X34.9689 Y18.4675 E15063.4 F2300
G1 X34.0904 Y18.5471 E15064.3 F2300
G1 X32.0696 Y17.2022 F2300
G1 X13.35 Y35.9218 E15090.7 F2300
G1 X11.7718 Y37.5 F2300
G1 X10.35 Y38.9218 E15092.7 F2300
G1 X13.35 Y33.0933 F2300
G1 X36.0933 Y10.35 E15124.9 F2300
G1 X38.9218 Y10.35 F2300
G1 X35.4846 Y13.7871 E15129.8 F2300
G1 X36.7464 Y15.3538 F2300
G1 X41.7502 Y10.35 E15136.8 F2300
G1 X33.2649 Y10.35 F2300
G1 X13.35 Y30.2649 E15165 F2300
G1 X13.35 Y27.4365 F2300
G1 X30.4365 Y10.35 E15189.2 F2300
G1 X27.6081 Y10.35 F2300
G1 X21.7625 Y16.1955 E15197.4 F2300
G1 X21.7913 Y16.2567 F2300
G1 X21.53 Y15.7004 E15198.1 F2300
G1 X21.0487 Y15.1298 E15198.8 F2300
G1 X20.2967 Y14.6618 E15199.7 F2300
G1 X19.1835 Y14.4476 E15200.8 F2300
G1 X18.5432 Y14.5303 E15201.5 F2300
G1 X17.7771 Y14.8407 E15202.3 F2300
G1 X17.2405 Y15.2644 E15203 F2300
G1 X16.8432 Y15.7806 E15203.6 F2300
G1 X16.5269 Y16.814 E15204.7 F2300
G1 X16.5235 Y17.1264 E15205 F2300
G1 X16.7258 Y17.9863 E15205.9 F2300
G1 X17.2003 Y18.6984 E15206.8 F2300
G1 X17.9729 Y19.271 E15207.7 F2300
G1 X19.1461 Y19.5567 E15208.9 F2300
G1 X20.3074 Y19.3364 E15210.1 F2300
G1 X21.2813 Y18.6433 E15211.3 F2300
G1 X21.7664 Y17.8164 E15212.3 F2300
G1 X21.8932 Y17.2703 E15212.8 F2300
G1 X21.7913 Y16.2567 E15213.8 F2300
G1 X20.4022 Y14.7274 F2300
G1 X24.7796 Y10.35 E15220 F2300
G1 X21.9512 Y10.35 F2300
G1 X13.35 Y18.9512 E15232.2 F2300
G1 X13.35 Y16.1228 F2300
G1 X19.1228 Y10.35 E15240.4 F2300
G1 X16.2943 Y10.35 F2300
G1 X13.35 Y13.2943 E15244.5 F2300
G1 X13.35 Y10.4659 F2300
G1 X13.4659 Y10.35 E15244.7 F2300
G1 X16.8928 Y18.2369 F2300
G1 X13.35 Y21.7796 E15249.7 F2300
G1 Y24.6081 F2300
G1 X18.5472 Y19.4109 E15257 F2300
G1 X45.4207 Y23.65 F2300
G1 X50.6075 Y18.4632 E15264.4 F2300
G1 X24.9845 Y55.4 F2300
G1 X10.35 Y70.0345 E15285.1 F2300
G1 X10.35 Y67.2061 F2300
G1 X22.2753 Y55.2807 E15301.9 F2300
G1 X21.24 Y53.4876 F2300
G1 X10.35 Y64.3776 E15317.3 F2300
G1 X30.0758 Y78.593 F2300
G1 X38.65 Y70.0187 E15329.5 F2300
G1 Y72.8472 F2300
G1 X32.4828 Y79.0144 E15338.2 F2300
G1 X32.0288 Y102.096 F2300
G1 X27.4746 Y106.65 E15344.6 F2300
G1 X30.303 F2300
G1 X33.5382 Y103.415 E15349.2 F2300
G1 F70
G1 Z2.4 F70

G1 X33.3723 Y103.382 F2300
G1 X34.2365 Y103.553 E15350.1 F2300
G1 X35.0521 Y103.439 E15350.9 F2300
G1 X35.769 Y103.088 E15351.7 F2300
G1 X36.4122 Y102.438 E15352.6 F2300
G1 X36.7683 Y101.65 E15353.5 F2300
G1 X36.8462 Y100.788 E15354.4 F2300
G1 X36.6113 Y99.9079 E15355.3 F2300
G1 X36.019 Y99.1131 E15356.3 F2300
G1 X35.4687 Y98.7277 E15356.9 F2300
G1 X34.4244 Y98.4557 E15358 F2300
G1 X33.8622 Y98.484 E15358.6 F2300
G1 X32.9152 Y98.8529 E15359.6 F2300
G1 X32.1422 Y99.6259 E15360.7 F2300
G1 X31.7626 Y100.673 E15361.8 F2300
G1 X31.8607 Y101.775 E15362.9 F2300
G1 X32.5222 Y102.84 E15364.2 F2300
G1 X33.3723 Y103.382 E15365.2 F2300
G1 X34.1389 Y103.534 F2300
G1 X37.2548 Y106.65 E15369.6 F2300
G1 X34.4264 F2300
G1 X10.35 Y82.5736 E15403.6 F2300
G1 Y79.7451 F2300
G1 X31.81 Y101.205 E15434 F2300
G1 X32.6007 Y99.1674 F2300
G1 X10.35 Y76.9167 E15465.4 F2300
G1 X10.35 Y74.0883 F2300
G1 X34.8206 Y98.5589 E15500 F2300
G1 X36.7721 Y100.51 F2300
G1 X42.9117 Y106.65 E15508.7 F2300
G1 X40.0833 F2300
G1 X36.1431 Y102.71 E15514.3 F2300
G1 X31.598 Y106.65 F2300
G1 X10.35 Y85.402 E15544.3 F2300
G1 X10.35 Y88.2304 F2300
G1 X19.67 Y97.5505 E15557.5 F2300
G1 X19.4613 Y97.4724 F2300
G1 X18.6773 Y97.4749 E15558.3 F2300
G1 X17.8848 Y97.7064 E15559.1 F2300
G1 X17.1967 Y98.1647 E15560 F2300
G1 X16.8242 Y98.5934 E15560.5 F2300
G1 X16.5622 Y99.0673 E15561.1 F2300
G1 X16.3937 Y99.6833 E15561.7 F2300
G1 X16.4023 Y100.381 E15562.4 F2300
G1 X16.6405 Y101.115 E15563.2 F2300
G1 X17.3671 Y101.987 E15564.3 F2300
G1 X18.379 Y102.467 E15565.4 F2300
G1 X19.4434 Y102.531 E15566.5 F2300
G1 X20.3988 Y102.223 E15567.5 F2300
G1 X21.2135 Y101.549 E15568.6 F2300
G1 X21.6383 Y100.768 E15569.4 F2300
G1 X21.7627 Y100.02 E15570.2 F2300
G1 X21.6404 Y99.2426 E15571 F2300
G1 X21.3529 Y98.6449 E15571.7 F2300
G1 X20.6143 Y97.9036 E15572.7 F2300
G1 X19.4613 Y97.4724 E15573.9 F2300
G1 X17.3523 Y98.0611 F2300
G1 X10.35 Y91.0589 E15583.8 F2300
G1 X10.35 Y93.8873 F2300
G1 X16.3968 Y99.9341 E15592.4 F2300
G1 X18.965 Y102.502 F2300
G1 X23.1127 Y106.65 E15598.3 F2300
G1 X25.9411 F2300
G1 X21.009 Y101.718 E15605.2 F2300
G1 X21.6924 Y99.5728 F2300
G1 X28.7696 Y106.65 E15615.2 F2300
G1 X20.2843 F2300
G1 X10.35 Y96.7157 E15629.3 F2300
G1 X10.35 Y99.5441 F2300
G1 X17.4558 Y106.65 E15639.3 F2300
G1 X14.6274 F2300
G1 X10.35 Y102.373 E15645.4 F2300
G1 X10.35 Y105.201 F2300
G1 X11.799 Y106.65 E15647.4 F2300
G1 X10.35 F2300
G1 Y37.5 E15716.6 F2300
G1 X13.35 E15719.6 F2300
G1 Y10.35 E15746.7 F2300
G1 X71.35 E15804.7 F2300
G1 Y106.65 E15901 F2300
G1 X10.35 E15962 F2300
G1 X29.0798 Y82.855 F2300
G1 X29.5806 Y83.2069 E15962.6 F2300
G1 X30.3639 Y83.4971 E15963.5 F2300
G1 X31.4484 Y83.51 E15964.6 F2300
G1 X32.5151 Y83.0682 E15965.7 F2300
G1 X33.007 Y82.6319 E15966.4 F2300
G1 X33.5417 Y81.6562 E15967.5 F2300
G1 X33.609 Y80.6747 E15968.5 F2300
G1 X33.273 Y79.7244 E15969.5 F2300
G1 X32.4461 Y78.8814 E15970.7 F2300
G1 X31.3251 Y78.4689 E15971.9 F2300
G1 X30.13 Y78.5626 E15973.1 F2300
G1 X29.5577 Y78.8046 E15973.7 F2300
G1 X28.7379 Y79.512 E15974.8 F2300
G1 X28.3032 Y80.4595 E15975.8 F2300
G1 X28.2469 Y81.19 E15976.5 F2300
G1 X28.4415 Y81.9807 E15977.3 F2300
G1 X29.0798 Y82.855 E15978.4 F2300
G1 X31.081 Y83.5056 F2300
G1 X47.6547 Y100.079 E16001.9 F2300
G1 X47.53 Y100.342 F2300
G1 X47.4622 Y101.314 E16002.8 F2300
G1 X47.8051 Y102.313 E16003.9 F2300
G1 X48.4905 Y103.064 E16004.9 F2300
G1 X49.3738 Y103.479 E16005.9 F2300
G1 X50.3879 Y103.528 E16006.9 F2300
G1 X51.3408 Y103.177 E16007.9 F2300
G1 X52.0589 Y102.516 E16008.9 F2300
G1 X52.4875 Y101.594 E16009.9 F2300
G1 X52.5151 Y100.538 E16011 F2300
G1 X52.1596 Y99.6332 E16011.9 F2300
G1 X51.5919 Y99.0074 E16012.8 F2300
G1 X50.7727 Y98.5622 E16013.7 F2300
G1 X49.6828 Y98.4623 E16014.8 F2300
G1 X48.7495 Y98.7692 E16015.8 F2300
G1 X47.9323 Y99.4955 E16016.9 F2300
G1 X47.53 Y100.342 E16017.8 F2300
G1 X49.0682 Y98.6644 F2300
G1 X33.0172 Y82.6134 E16040.5 F2300
G1 X33.446 Y80.2137 F2300
G1 X38.65 Y85.4177 E16047.9 F2300
G1 X38.65 Y86.645 F2300
G1 X47.355 Y95.35 E16060.2 F2300
G1 X62.85 E16075.7 F2300
G1 Y21.65 E16149.4 F2300
G1 X56.1525 E16156.1 F2300
G1 X56.1504 Y23.65 E16158.1 F2300
G1 X39.857 E16174.4 F2300
G1 Y34.2234 E16185 F2300
G1 X35.6676 Y44.3374 E16195.9 F2300
G1 X35.15 Y44.855 E16196.6 F2300
G1 Y68.5 E16220.3 F2300
G1 X38.65 E16223.8 F2300
G1 Y86.645 E16241.9 F2300
G1 X38.65 Y82.5893 F2300
G1 X10.35 Y54.2893 E16281.9 F2300
G1 Y57.1177 F2300
G1 X31.9201 Y78.6878 E16312.5 F2300
G1 X29.3702 Y78.9664 F2300
G1 X10.35 Y59.9461 E16339.4 F2300
G1 X10.35 Y62.7746 F2300
G1 X28.284 Y80.7086 E16364.7 F2300
G1 X38.65 Y79.7609 F2300
G1 X10.35 Y51.4609 E16404.7 F2300
G1 X10.35 Y48.6324 F2300
G1 X38.65 Y76.9324 E16444.8 F2300
G1 X38.65 Y74.104 F2300
G1 X10.35 Y45.804 E16484.8 F2300
G1 X10.35 Y42.9756 F2300
G1 X21.7565 Y54.3821 E16500.9 F2300
G1 X22.3442 Y55.4 F2300
G1 X27.829 E16506.4 F2300
G1 X30.658 Y50.5 E16512.1 F2300
G1 X27.829 Y45.6 E16517.7 F2300
G1 X22.3442 E16523.2 F2300
G1 X19.65 Y50.2665 E16528.6 F2300
G1 Y50.7335 E16529.1 F2300
G1 X22.3442 Y55.4 E16534.4 F2300
G1 X22.7744 F2300
G1 X35.15 Y67.7756 E16551.9 F2300
G1 X35.8744 Y68.5 F2300
G1 X38.65 Y71.2756 E16555.9 F2300
G1 X35.15 Y64.9472 F2300
G1 X25.6028 Y55.4 E16569.4 F2300
G1 X28.0495 Y55.0182 F2300
G1 X35.15 Y62.1187 E16579.4 F2300
G1 Y59.2903 F2300
G1 X29.0847 Y53.225 E16588 F2300
G1 X30.12 Y51.4319 F2300
G1 X35.15 Y56.4619 E16595.1 F2300
G1 Y53.6335 F2300
G1 X28.8023 Y47.2857 E16604.1 F2300
G1 X27.1166 Y45.6 F2300
G1 X13.35 Y31.8334 E16623.5 F2300
G1 Y29.005 F2300
G1 X35.15 Y50.805 E16654.4 F2300
G1 Y47.9766 F2300
G1 X13.35 Y26.1766 E16685.2 F2300
G1 Y23.3482 F2300
G1 X35.15 Y45.1482 E16716 F2300
G1 X36.107 Y43.2767 F2300
G1 X31.3252 Y38.495 E16722.8 F2300
G1 X31.53 Y38.4907 F2300
G1 X32.2511 Y38.2289 E16723.6 F2300
G1 X33.1154 Y37.5007 E16724.7 F2300
G1 X33.521 Y36.7146 E16725.6 F2300
G1 X33.6211 Y35.8526 E16726.4 F2300
G1 X33.559 Y35.437 E16726.9 F2300
G1 X33.2394 Y34.6745 E16727.7 F2300
G1 X32.4707 Y33.9019 E16728.8 F2300
G1 X31.4499 Y33.4914 E16729.9 F2300
G1 X30.4722 Y33.4832 E16730.9 F2300
G1 X29.424 Y33.879 E16732 F2300
G1 X28.6188 Y34.6832 E16733.1 F2300
G1 X28.2724 Y35.5832 E16734.1 F2300
G1 X28.2683 Y36.3915 E16734.9 F2300
G1 X28.5412 Y37.1755 E16735.7 F2300
G1 X29.0027 Y37.7829 E16736.5 F2300
G1 X29.6576 Y38.2489 E16737.3 F2300
G1 X30.4555 Y38.5132 E16738.1 F2300
G1 X31.53 Y38.4907 E16739.2 F2300
G1 X33.1304 Y37.4717 F2300
G1 X36.9354 Y41.2767 E16744.6 F2300
G1 X37.7638 Y39.2767 F2300
G1 X33.2956 Y34.8085 E16750.9 F2300
G1 X32.3341 Y33.847 F2300
G1 X17.5632 Y19.0761 E16771.8 F2300
G1 X17.8259 Y19.2703 F2300
G1 X19.0059 Y19.5567 E16773 F2300
G1 X20.1524 Y19.3399 E16774.2 F2300
G1 X21.1337 Y18.6456 E16775.4 F2300
G1 X21.6203 Y17.8179 E16776.3 F2300
G1 X21.7477 Y17.2697 E16776.9 F2300
G1 X21.6475 Y16.2628 E16777.9 F2300
G1 X21.3889 Y15.7079 E16778.5 F2300
G1 X20.9059 Y15.1322 E16779.3 F2300
G1 X20.142 Y14.6583 E16780.2 F2300
G1 X19.047 Y14.4478 E16781.3 F2300
G1 X18.4103 Y14.5276 E16781.9 F2300
G1 X17.6397 Y14.836 E16782.8 F2300
G1 X17.1029 Y15.2566 E16783.4 F2300
G1 X16.6987 Y15.7785 E16784.1 F2300
G1 X16.3818 Y16.8092 E16785.2 F2300
G1 X16.3777 Y17.1224 E16785.5 F2300
G1 X16.5829 Y17.9923 E16786.4 F2300
G1 X17.0611 Y18.7049 E16787.2 F2300
G1 X17.8259 Y19.2703 E16788.2 F2300
G1 X16.7941 Y18.3069 F2300
G1 X13.35 Y14.8629 E16793.1 F2300
G1 Y17.6913 F2300
G1 X29.5065 Y33.8479 E16815.9 F2300
G1 X28.3116 Y35.4813 F2300
G1 X13.35 Y20.5197 E16837.1 F2300
G1 X16.8713 Y15.5557 F2300
G1 X13.35 Y12.0344 E16842.1 F2300
G1 X14.494 Y10.35 F2300
G1 X18.6425 Y14.4985 E16847.9 F2300
G1 X21.6847 Y17.5407 F2300
G1 X39.4207 Y35.2767 E16873 F2300
G1 X38.5923 Y37.2767 F2300
G1 X20.447 Y19.1315 E16898.7 F2300
G1 X20.1508 Y10.35 F2300
G1 X39.857 Y30.0562 E16926.5 F2300
G1 Y27.2277 F2300
G1 X22.9793 Y10.35 E16950.4 F2300
G1 X25.8077 F2300
G1 X31.7791 Y16.3214 E16958.9 F2300
G1 Y16.4045 F2300
G1 X31.9452 Y16.9883 E16959.5 F2300
G1 X32.5017 Y17.8153 E16960.5 F2300
G1 X33.1573 Y18.2854 E16961.3 F2300
G1 X34.0979 Y18.5472 E16962.2 F2300
G1 X34.9713 Y18.4669 E16963.1 F2300
G1 X35.9387 Y17.9605 E16964.2 F2300
G1 X36.5314 Y17.2461 E16965.1 F2300
G1 X36.8253 Y16.39 E16966 F2300
G1 X36.8127 Y15.5378 E16966.9 F2300
G1 X36.5291 Y14.7502 E16967.7 F2300
G1 X35.8973 Y14.0037 E16968.7 F2300
G1 X35.05 Y13.5616 E16969.7 F2300
G1 X34.3631 Y13.4468 E16970.4 F2300
G1 X33.3938 Y13.6114 E16971.3 F2300
G1 X32.5094 Y14.1751 E16972.4 F2300
G1 X31.9774 Y14.942 E16973.3 F2300
G1 X31.7791 Y15.5922 E16974 F2300
G1 Y16.4045 E16974.8 F2300
G1 X32.4897 Y14.2036 F2300
G1 X28.6361 Y10.35 E16980.3 F2300
G1 X31.4645 Y10.35 F2300
G1 X34.6011 Y13.4866 E16984.7 F2300
G1 X36.8151 Y15.7006 F2300
G1 X44.7645 Y23.65 E16995.9 F2300
G1 X47.593 F2300
G1 X34.293 Y10.35 E17014.8 F2300
G1 X37.1214 Y10.35 F2300
G1 X50.4214 Y23.65 E17033.6 F2300
G1 X53.2498 Y23.65 F2300
G1 X39.9498 Y10.35 E17052.4 F2300
G1 X42.7782 Y10.35 F2300
G1 X47.5994 Y15.1712 E17059.2 F2300
G1 X47.6241 Y15.0577 F2300
G1 X47.4494 Y15.862 E17060 F2300
G1 X47.55 Y16.7289 E17060.9 F2300
G1 X48.0186 Y17.613 E17061.9 F2300
G1 X48.5584 Y18.11 E17062.6 F2300
G1 X49.562 Y18.5193 E17063.7 F2300
G1 X50.4973 Y18.5071 E17064.6 F2300
G1 X51.3634 Y18.1626 E17065.6 F2300
G1 X52.0983 Y17.4621 E17066.6 F2300
G1 X52.5098 Y16.4896 E17067.6 F2300
G1 Y15.5214 E17068.6 F2300
G1 X52.2545 Y14.7982 E17069.4 F2300
G1 X51.6824 Y14.0762 E17070.3 F2300
G1 X50.9183 Y13.6142 E17071.2 F2300
G1 X49.8808 Y13.4457 E17072.2 F2300
G1 X48.9355 Y13.6763 E17073.2 F2300
G1 X48.1997 Y14.1849 E17074.1 F2300
G1 X47.6241 Y15.0577 E17075.2 F2300
G1 X48.934 Y13.6773 F2300
G1 X45.6067 Y10.35 E17079.9 F2300
G1 X48.4351 Y10.35 F2300
G1 X59.7351 Y21.65 E17095.8 F2300
G1 X56.9067 F2300
G1 X52.2828 Y17.0261 E17102.4 F2300
G1 X50.8107 Y18.3824 F2300
G1 X56.0782 Y23.65 E17109.8 F2300
G1 X62.5635 Y21.65 F2300
G1 X51.2635 Y10.35 E17125.8 F2300
G1 X54.0919 Y10.35 F2300
G1 X71.35 Y27.6081 E17150.2 F2300
G1 Y24.7796 F2300
G1 X64.9981 Y18.4277 E17159.2 F2300
G1 X65.1602 Y18.5005 F2300
G1 X64.1926 Y18.066 E17160.3 F2300
G1 X63.5117 Y17.3198 E17161.3 F2300
G1 X63.2193 Y16.5976 E17162.1 F2300
G1 X63.1627 Y15.6848 E17163 F2300
G1 X63.5051 Y14.6874 E17164 F2300
G1 X64.1715 Y13.9571 E17165 F2300
G1 X64.3692 Y13.823 E17165.2 F2300
G1 X65.378 Y13.4619 E17166.3 F2300
G1 X66.4763 Y13.5625 E17167.4 F2300
G1 X67.3979 Y14.0875 E17168.5 F2300
G1 X68.0075 Y14.8994 E17169.5 F2300
G1 X68.2473 Y15.797 E17170.4 F2300
G1 X68.1743 Y16.6333 E17171.3 F2300
G1 X67.8978 Y17.3028 E17172 F2300
G1 X67.2253 Y18.0528 E17173 F2300
G1 X66.2615 Y18.4957 E17174.1 F2300
G1 X65.1602 Y18.5005 E17175.2 F2300
G1 X67.3323 Y17.9335 F2300
G1 X71.35 Y21.9512 E17180.8 F2300
G1 Y19.1228 F2300
G1 X68.2294 Y16.0022 E17185.3 F2300
G1 X71.35 Y16.2944 F2300
G1 X65.4057 Y10.35 E17193.7 F2300
G1 X68.2341 Y10.35 F2300
G1 X71.35 Y13.4659 E17198.1 F2300
G1 Y10.6375 F2300
G1 X71.0625 Y10.35 E17198.5 F2300
G1 X65.7205 Y13.4933 F2300
G1 X62.5772 Y10.35 E17202.9 F2300
G1 X59.7488 Y10.35 F2300
G1 X63.7824 Y14.3836 E17208.6 F2300
G1 X63.2542 Y16.6838 F2300
G1 X56.9204 Y10.35 E17217.6 F2300
G1 X62.85 Y21.9365 F2300
G1 X71.35 Y30.4365 E17229.6 F2300
G1 Y33.2649 F2300
G1 X62.85 Y24.7649 E17241.6 F2300
G1 X62.85 Y27.5933 F2300
G1 X71.35 Y36.0933 E17253.6 F2300
G1 Y38.9218 F2300
G1 X62.85 Y30.4218 E17265.7 F2300
G1 Y33.2502 F2300
G1 X71.35 Y41.7502 E17277.7 F2300
G1 Y44.5786 F2300
G1 X62.85 Y36.0786 E17289.7 F2300
G1 Y38.9071 F2300
G1 X71.35 Y47.4071 E17301.7 F2300
G1 Y50.2355 F2300
G1 X62.85 Y41.7355 E17313.8 F2300
G1 Y44.5639 F2300
G1 X71.35 Y53.0639 E17325.8 F2300
G1 Y55.8923 F2300
G1 X62.85 Y47.3923 E17337.8 F2300
G1 X62.85 Y50.2208 F2300
G1 X71.35 Y58.7208 E17349.8 F2300
G1 Y61.5492 F2300
G1 X62.85 Y53.0492 E17361.8 F2300
G1 Y55.8776 F2300
G1 X71.35 Y64.3776 E17373.9 F2300
G1 X71.35 Y67.2061 F2300
G1 X62.85 Y58.706 E17385.9 F2300
G1 X62.85 Y61.5345 F2300
G1 X71.35 Y70.0345 E17397.9 F2300
G1 Y72.8629 F2300
G1 X62.85 Y64.3629 E17409.9 F2300
G1 Y67.1913 F2300
G1 X71.35 Y75.6913 E17421.9 F2300
G1 Y78.5198 F2300
G1 X62.85 Y70.0198 E17434 F2300
G1 Y72.8482 F2300
G1 X71.35 Y81.3482 E17446 F2300
G1 Y84.1766 F2300
G1 X62.85 Y75.6766 E17458 F2300
G1 Y78.5051 F2300
G1 X71.35 Y87.0051 E17470 F2300
G1 Y89.8335 F2300
G1 X62.85 Y81.3335 E17482.1 F2300
G1 Y84.1619 F2300
G1 X71.35 Y92.6619 E17494.1 F2300
G1 Y95.4903 F2300
G1 X62.85 Y86.9903 E17506.1 F2300
G1 X62.85 Y89.8188 F2300
G1 X71.35 Y98.3188 E17518.1 F2300
G1 Y101.147 F2300
G1 X62.85 Y92.6472 E17530.1 F2300
G1 X62.7244 Y95.35 F2300
G1 X65.8312 Y98.4568 E17534.5 F2300
G1 X65.7748 Y98.4446 F2300
G1 X64.7725 Y98.6163 E17535.6 F2300
G1 X63.8558 Y99.2267 E17536.7 F2300
G1 X63.2941 Y100.146 E17537.7 F2300
G1 X63.1902 Y100.535 E17538.1 F2300
G1 Y101.491 E17539.1 F2300
G1 X63.6276 Y102.5 E17540.2 F2300
G1 X64.4507 Y103.232 E17541.3 F2300
G1 X65.4179 Y103.541 E17542.3 F2300
G1 X66.3136 Y103.482 E17543.2 F2300
G1 X67.2948 Y103 E17544.3 F2300
G1 X67.9499 Y102.216 E17545.3 F2300
G1 X68.2499 Y101.2 E17546.4 F2300
G1 X68.1121 Y100.15 E17547.4 F2300
G1 X67.5872 Y99.2736 E17548.5 F2300
G1 X66.692 Y98.6432 E17549.6 F2300
G1 X65.7748 Y98.4446 E17550.5 F2300
G1 X63.8243 Y99.2783 F2300
G1 X59.896 Y95.35 E17556.1 F2300
G1 X57.0675 F2300
G1 X63.1902 Y101.473 E17564.7 F2300
G1 X65.1832 Y103.466 F2300
G1 X68.3675 Y106.65 E17569.2 F2300
G1 X71.1959 F2300
G1 X67.409 Y102.863 E17574.6 F2300
G1 X68.2009 Y100.827 F2300
G1 X71.35 Y103.976 E17579 F2300
G1 X65.5391 Y106.65 F2300
G1 X54.2391 Y95.35 E17595 F2300
G1 X51.4107 F2300
G1 X62.7107 Y106.65 E17611 F2300
G1 X59.8822 F2300
G1 X48.5823 Y95.35 E17627 F2300
G1 X52.3321 Y101.928 F2300
G1 X57.0538 Y106.65 E17633.6 F2300
G1 X54.2254 F2300
G1 X50.9107 Y103.335 E17638.3 F2300
G1 X51.397 Y106.65 F2300
G1 X10.35 Y65.603 E17696.4 F2300
G1 X10.35 Y68.4314 F2300
G1 X48.5685 Y106.65 E17750.4 F2300
G1 X45.7401 F2300
G1 X10.35 Y71.2599 E17800.5 F2300
G1 X19.9499 Y49.747 F2300
G1 X10.35 Y40.1471 E17814.1 F2300
G1 X10.5313 Y37.5 F2300
G1 X20.9852 Y47.9539 E17828.8 F2300
G1 X22.0204 Y46.1607 F2300
G1 X13.35 Y37.4903 E17841.1 F2300
G1 Y34.6619 F2300
G1 X24.2881 Y45.6 E17856.6 F2300
G1 X39.857 Y32.8846 F2300
G1 X17.3224 Y10.35 E17888.4 F2300
G1 X33.969 Y18.5113 F2300
G1 X39.857 Y24.3993 E17896.8 F2300
G1 X41.9361 Y23.65 F2300
G1 X36.0783 Y17.7922 E17905 F2300
G1 F70
G1 Z2.8 F70

G1 X35.9455 Y17.9545 F2300
G1 X36.5322 Y17.2444 E17906 F2300
G1 X36.825 Y16.3916 E17906.9 F2300
G1 X36.8128 Y15.5382 E17907.7 F2300
G1 X36.5299 Y14.7516 E17908.6 F2300
G1 X35.8971 Y14.0034 E17909.5 F2300
G1 X35.028 Y13.553 E17910.5 F2300
G1 X34.0412 Y13.457 E17911.5 F2300
G1 X33.1444 Y13.7186 E17912.4 F2300
G1 X32.2409 Y14.4793 E17913.6 F2300
G1 X31.7794 Y15.5715 E17914.8 F2300
G1 Y16.4063 E17915.6 F2300
G1 X31.944 Y16.9855 E17916.2 F2300
G1 X32.5043 Y17.8178 E17917.2 F2300
G1 X33.1602 Y18.2869 E17918.1 F2300
G1 X34.1031 Y18.5475 E17919 F2300
G1 X34.9738 Y18.4662 E17919.9 F2300
G1 X35.9455 Y17.9545 E17921 F2300
G1 X34.7771 Y18.4846 F2300
G1 X10.35 Y42.9117 E17955.6 F2300
G1 X10.35 Y40.0833 F2300
G1 X12.9333 Y37.5 E17959.2 F2300
G1 X13.35 F2300
G1 Y10.35 E17986.4 F2300
G1 X71.35 E18044.4 F2300
G1 Y106.65 E18140.7 F2300
G1 X10.35 E18201.7 F2300
G1 Y37.5 E18270.8 F2300
G1 X13.35 E18273.8 F2300
G1 X13.35 Y37.0833 F2300
G1 X32.5691 Y17.8642 E18301 F2300
G1 X31.7794 Y15.8255 F2300
G1 X13.35 Y34.2548 E18327 F2300
G1 X13.35 Y31.4264 F2300
G1 X34.4264 Y10.35 E18356.9 F2300
G1 X31.598 F2300
G1 X13.35 Y28.598 E18382.7 F2300
