; GCode generated by RepSnapper by Kulitorum
G21                              ;metric is good!
G90                              ;absolute positioning
T0                                 ;select new extruder
G28                               ;go home
G92 E0                          ;set extruder home
M104 S73.0                   ;set temperature
G1 X20 Y20 F500            ;Move away from 0.0, so we use the same reset (in the layer code) for each layer


G1 F70
G1 Z0 E0 F70

G1 F2300
G1 F2300
G1 X10.35 Y10.35 F2300
G1 X49.65 E39.3 F2300
G1 X49.65 Y49.65 E78.6 F2300
G1 X10.35 E117.9 F2300
G1 X10.35 Y10.35 E157.2 F2300
G1 X11.102 Y10.7 F2300
G1 X49.3 Y48.898 E211.22 F2300
G1 X46.8736 Y49.3 F2300
G1 X10.7 Y13.1264 E262.377 F2300
G1 Y15.9548 F2300
G1 X44.0452 Y49.3 E309.534 F2300
G1 X41.2167 F2300
G1 X10.7 Y18.7833 E352.692 F2300
G1 Y21.6117 F2300
G1 X38.3883 Y49.3 E391.849 F2300
G1 X35.5599 F2300
G1 X10.7 Y24.4401 E427.006 F2300
G1 Y27.2685 F2300
G1 X32.7315 Y49.3 E458.163 F2300
G1 X29.903 F2300
G1 X10.7 Y30.097 E485.32 F2300
G1 Y32.9254 F2300
G1 X27.0746 Y49.3 E508.478 F2300
G1 X24.2462 F2300
G1 X10.7 Y35.7538 E527.635 F2300
G1 X10.7 Y38.5823 F2300
G1 X21.4178 Y49.3 E542.792 F2300
G1 X18.5893 F2300
G1 X10.7 Y41.4107 E553.949 F2300
G1 Y44.2391 F2300
G1 X15.7609 Y49.3 E561.106 F2300
G1 X12.9325 F2300
G1 X10.7 Y47.0675 E564.263 F2300
G1 X13.9304 Y10.7 F2300
G1 X49.3 Y46.0695 E614.284 F2300
G1 X49.3 Y43.2411 F2300
G1 X16.7589 Y10.7 E660.304 F2300
G1 X19.5873 F2300
G1 X49.3 Y40.4127 E702.324 F2300
G1 Y37.5843 F2300
G1 X22.4157 Y10.7 E740.344 F2300
G1 X25.2442 F2300
G1 X49.3 Y34.7558 E774.364 F2300
G1 Y31.9274 F2300
G1 X28.0726 Y10.7 E804.384 F2300
G1 X30.901 F2300
G1 X49.3 Y29.099 E830.404 F2300
G1 X49.3 Y26.2705 F2300
G1 X33.7294 Y10.7 E852.424 F2300
G1 X36.5579 F2300
G1 X49.3 Y23.4421 E870.444 F2300
G1 Y20.6137 F2300
G1 X39.3863 Y10.7 E884.464 F2300
G1 X42.2147 Y10.7 F2300
G1 X49.3 Y17.7853 E894.484 F2300
G1 Y14.9568 F2300
G1 X45.0431 Y10.7 E900.504 F2300
G1 X47.8716 Y10.7 F2300
G1 X49.3 Y12.1284 E902.524 F2300
G1 F70
G1 Z0.4 F70

G1 F2300
G1 Y11.102 F2300
G1 X11.102 Y49.3 E956.545 F2300
G1 X10.35 Y49.65 F2300
G1 X10.35 Y10.35 E995.845 F2300
G1 X49.65 E1035.14 F2300
G1 X49.65 Y49.65 E1074.44 F2300
G1 X10.35 E1113.74 F2300
G1 X10.7 Y46.8736 F2300
G1 X46.8736 Y10.7 E1164.9 F2300
G1 X44.0452 Y10.7 F2300
G1 X10.7 Y44.0452 E1212.06 F2300
G1 X10.7 Y41.2167 F2300
G1 X41.2167 Y10.7 E1255.22 F2300
G1 X38.3883 F2300
G1 X10.7 Y38.3883 E1294.37 F2300
G1 Y35.5599 F2300
G1 X35.5599 Y10.7 E1329.53 F2300
G1 X32.7315 F2300
G1 X10.7 Y32.7315 E1360.69 F2300
G1 Y29.903 F2300
G1 X29.903 Y10.7 E1387.85 F2300
G1 X27.0746 Y10.7 F2300
G1 X10.7 Y27.0746 E1411 F2300
G1 Y24.2462 F2300
G1 X24.2462 Y10.7 E1430.16 F2300
G1 X21.4178 Y10.7 F2300
G1 X10.7 Y21.4177 E1445.32 F2300
G1 X10.7 Y18.5893 F2300
G1 X18.5893 Y10.7 E1456.47 F2300
G1 X15.7609 Y10.7 F2300
G1 X10.7 Y15.7609 E1463.63 F2300
G1 Y12.9325 F2300
G1 X12.9325 Y10.7 E1466.79 F2300
G1 X49.3 Y13.9305 F2300
G1 X13.9304 Y49.3 E1516.81 F2300
G1 X16.7589 F2300
G1 X49.3 Y16.7589 E1562.83 F2300
G1 X49.3 Y19.5873 F2300
G1 X19.5873 Y49.3 E1604.85 F2300
G1 X22.4157 F2300
G1 X49.3 Y22.4157 E1642.87 F2300
G1 X49.3 Y25.2442 F2300
G1 X25.2442 Y49.3 E1676.89 F2300
G1 X28.0726 F2300
G1 X49.3 Y28.0726 E1706.91 F2300
G1 Y30.901 F2300
G1 X30.901 Y49.3 E1732.93 F2300
G1 X33.7294 F2300
G1 X49.3 Y33.7294 E1754.95 F2300
G1 Y36.5579 F2300
G1 X36.5579 Y49.3 E1772.97 F2300
G1 X39.3863 F2300
G1 X49.3 Y39.3863 E1786.99 F2300
G1 Y42.2147 F2300
G1 X42.2147 Y49.3 E1797.01 F2300
G1 X45.0431 F2300
G1 X49.3 Y45.0432 E1803.03 F2300
G1 Y47.8716 F2300
G1 X47.8716 Y49.3 E1805.05 F2300
G1 F70
G1 Z0.8 F70

G1 F2300
G1 X48.898 Y49.3 F2300
G1 X10.7 Y11.102 E1859.07 F2300
G1 X10.35 Y10.35 F2300
G1 X49.65 E1898.37 F2300
G1 X49.65 Y49.65 E1937.67 F2300
G1 X10.35 E1976.97 F2300
G1 X10.35 Y10.35 E2016.27 F2300
G1 X13.1264 Y10.7 F2300
G1 X49.3 Y46.8736 E2067.43 F2300
G1 X49.3 Y44.0452 F2300
G1 X15.9548 Y10.7 E2114.58 F2300
G1 X18.7833 F2300
G1 X49.3 Y41.2167 E2157.74 F2300
G1 Y38.3883 F2300
G1 X21.6117 Y10.7 E2196.9 F2300
G1 X24.4401 F2300
G1 X49.3 Y35.5599 E2232.06 F2300
G1 Y32.7314 F2300
G1 X27.2685 Y10.7 E2263.21 F2300
G1 X30.097 F2300
G1 X49.3 Y29.903 E2290.37 F2300
G1 Y27.0746 F2300
G1 X32.9254 Y10.7 E2313.53 F2300
G1 X35.7538 Y10.7 F2300
G1 X49.3 Y24.2462 E2332.69 F2300
G1 X49.3 Y21.4177 F2300
G1 X38.5822 Y10.7 E2347.84 F2300
G1 X41.4107 F2300
G1 X49.3 Y18.5893 E2359 F2300
G1 Y15.7609 F2300
G1 X44.2391 Y10.7 E2366.16 F2300
G1 X47.0675 F2300
G1 X49.3 Y12.9325 E2369.31 F2300
G1 X46.0696 Y49.3 F2300
G1 X10.7 Y13.9305 E2419.33 F2300
G1 X10.7 Y16.7589 F2300
G1 X43.2411 Y49.3 E2465.35 F2300
G1 X40.4127 Y49.3 F2300
G1 X10.7 Y19.5873 E2507.37 F2300
G1 Y22.4157 F2300
G1 X37.5843 Y49.3 E2545.39 F2300
G1 X34.7559 F2300
G1 X10.7 Y25.2442 E2579.41 F2300
G1 X10.7 Y28.0726 F2300
G1 X31.9274 Y49.3 E2609.43 F2300
G1 X29.099 F2300
G1 X10.7 Y30.901 E2635.45 F2300
G1 Y33.7294 F2300
G1 X26.2706 Y49.3 E2657.47 F2300
G1 X23.4421 F2300
G1 X10.7 Y36.5579 E2675.49 F2300
G1 X10.7 Y39.3863 F2300
G1 X20.6137 Y49.3 E2689.51 F2300
G1 X17.7853 F2300
G1 X10.7 Y42.2147 E2699.53 F2300
G1 X10.7 Y45.0432 F2300
G1 X14.9569 Y49.3 E2705.55 F2300
G1 X12.1284 F2300
G1 X10.7 Y47.8716 E2707.57 F2300
G1 F70
G1 Z1.2 F70

G1 F2300
G1 X10.7 Y48.898 F2300
G1 X48.898 Y10.7 E2761.59 F2300
G1 X49.65 Y10.35 F2300
G1 X10.35 E2800.89 F2300
G1 X10.35 Y49.65 E2840.19 F2300
G1 X49.65 E2879.49 F2300
G1 X49.65 Y10.35 E2918.79 F2300
G1 X49.3 Y13.1264 F2300
G1 X13.1264 Y49.3 E2969.95 F2300
G1 X15.9548 F2300
G1 X49.3 Y15.9548 E3017.11 F2300
G1 X49.3 Y18.7833 F2300
G1 X18.7833 Y49.3 E3060.27 F2300
G1 X21.6117 F2300
G1 X49.3 Y21.6117 E3099.42 F2300
G1 Y24.4401 F2300
G1 X24.4401 Y49.3 E3134.58 F2300
G1 X27.2685 F2300
G1 X49.3 Y27.2686 E3165.74 F2300
G1 X49.3 Y30.097 F2300
G1 X30.097 Y49.3 E3192.9 F2300
G1 X32.9254 F2300
G1 X49.3 Y32.9254 E3216.05 F2300
G1 Y35.7538 F2300
G1 X35.7538 Y49.3 E3235.21 F2300
G1 X38.5823 F2300
G1 X49.3 Y38.5823 E3250.37 F2300
G1 Y41.4107 F2300
G1 X41.4107 Y49.3 E3261.52 F2300
G1 X44.2391 F2300
G1 X49.3 Y44.2391 E3268.68 F2300
G1 X49.3 Y47.0675 F2300
G1 X47.0675 Y49.3 E3271.84 F2300
G1 X10.7 Y46.0696 F2300
G1 X46.0695 Y10.7 E3321.86 F2300
G1 X43.2411 F2300
G1 X10.7 Y43.2411 E3367.88 F2300
G1 Y40.4127 F2300
G1 X40.4127 Y10.7 E3409.9 F2300
G1 X37.5843 F2300
G1 X10.7 Y37.5843 E3447.92 F2300
G1 Y34.7558 F2300
G1 X34.7558 Y10.7 E3481.94 F2300
G1 X31.9274 F2300
G1 X10.7 Y31.9274 E3511.96 F2300
G1 Y29.099 F2300
G1 X29.099 Y10.7 E3537.98 F2300
G1 X26.2706 F2300
G1 X10.7 Y26.2706 E3560 F2300
G1 X10.7 Y23.4421 F2300
G1 X23.4421 Y10.7 E3578.02 F2300
G1 X20.6137 F2300
G1 X10.7 Y20.6137 E3592.04 F2300
G1 X10.7 Y17.7853 F2300
G1 X17.7853 Y10.7 E3602.06 F2300
G1 X14.9569 F2300
G1 X10.7 Y14.9569 E3608.08 F2300
G1 X10.7 Y12.1284 F2300
G1 X12.1284 Y10.7 E3610.1 F2300
G1 F70
G1 Z1.6 F70

G1 F2300
G1 X11.102 F2300
G1 X49.3 Y48.898 E3664.12 F2300
G1 X49.65 Y49.65 F2300
G1 X10.35 E3703.42 F2300
G1 X10.35 Y10.35 E3742.72 F2300
G1 X49.65 E3782.02 F2300
G1 X49.65 Y49.65 E3821.32 F2300
G1 X46.8736 Y49.3 F2300
G1 X10.7 Y13.1264 E3872.48 F2300
G1 Y15.9548 F2300
G1 X44.0452 Y49.3 E3919.63 F2300
G1 X41.2167 F2300
G1 X10.7 Y18.7833 E3962.79 F2300
G1 Y21.6117 F2300
G1 X38.3883 Y49.3 E4001.95 F2300
G1 X35.5599 F2300
G1 X10.7 Y24.4401 E4037.1 F2300
G1 Y27.2685 F2300
G1 X32.7315 Y49.3 E4068.26 F2300
G1 X29.903 F2300
G1 X10.7 Y30.097 E4095.42 F2300
G1 Y32.9254 F2300
G1 X27.0746 Y49.3 E4118.58 F2300
G1 X24.2462 F2300
G1 X10.7 Y35.7538 E4137.73 F2300
G1 X10.7 Y38.5823 F2300
G1 X21.4178 Y49.3 E4152.89 F2300
G1 X18.5893 F2300
G1 X10.7 Y41.4107 E4164.05 F2300
G1 Y44.2391 F2300
G1 X15.7609 Y49.3 E4171.21 F2300
G1 X12.9325 F2300
G1 X10.7 Y47.0675 E4174.36 F2300
G1 X13.9304 Y10.7 F2300
G1 X49.3 Y46.0695 E4224.38 F2300
G1 X49.3 Y43.2411 F2300
G1 X16.7589 Y10.7 E4270.4 F2300
G1 X19.5873 F2300
G1 X49.3 Y40.4127 E4312.42 F2300
G1 Y37.5843 F2300
G1 X22.4157 Y10.7 E4350.44 F2300
G1 X25.2442 F2300
G1 X49.3 Y34.7558 E4384.46 F2300
G1 Y31.9274 F2300
G1 X28.0726 Y10.7 E4414.48 F2300
G1 X30.901 F2300
G1 X49.3 Y29.099 E4440.5 F2300
G1 X49.3 Y26.2705 F2300
G1 X33.7294 Y10.7 E4462.52 F2300
G1 X36.5579 F2300
G1 X49.3 Y23.4421 E4480.54 F2300
G1 Y20.6137 F2300
G1 X39.3863 Y10.7 E4494.56 F2300
G1 X42.2147 Y10.7 F2300
G1 X49.3 Y17.7853 E4504.58 F2300
G1 Y14.9568 F2300
G1 X45.0431 Y10.7 E4510.6 F2300
G1 X47.8716 Y10.7 F2300
G1 X49.3 Y12.1284 E4512.62 F2300
G1 F70
G1 Z2 F70

G1 F2300
G1 Y11.102 F2300
G1 X11.102 Y49.3 E4566.64 F2300
G1 X10.35 Y49.65 F2300
G1 X10.35 Y10.35 E4605.94 F2300
G1 X49.65 E4645.24 F2300
G1 X49.65 Y49.65 E4684.54 F2300
G1 X10.35 E4723.84 F2300
G1 X10.7 Y46.8736 F2300
G1 X46.8736 Y10.7 E4775 F2300
G1 X44.0452 F2300
G1 X10.7 Y44.0452 E4822.16 F2300
G1 Y41.2167 F2300
G1 X41.2167 Y10.7 E4865.31 F2300
G1 X38.3883 F2300
G1 X10.7 Y38.3883 E4904.47 F2300
G1 Y35.5599 F2300
G1 X35.5599 Y10.7 E4939.63 F2300
G1 X32.7315 F2300
G1 X10.7 Y32.7315 E4970.79 F2300
G1 Y29.903 F2300
G1 X29.903 Y10.7 E4997.94 F2300
G1 X27.0746 F2300
G1 X10.7 Y27.0746 E5021.1 F2300
G1 X10.7 Y24.2462 F2300
G1 X24.2462 Y10.7 E5040.26 F2300
G1 X21.4177 F2300
G1 X10.7 Y21.4177 E5055.41 F2300
G1 Y18.5893 F2300
G1 X18.5893 Y10.7 E5066.57 F2300
G1 X15.7609 Y10.7 F2300
G1 X10.7 Y15.7609 E5073.73 F2300
G1 Y12.9325 F2300
G1 X12.9325 Y10.7 E5076.89 F2300
G1 X49.3 Y13.9305 F2300
G1 X13.9305 Y49.3 E5126.91 F2300
G1 X16.7589 F2300
G1 X49.3 Y16.7589 E5172.93 F2300
G1 X49.3 Y19.5873 F2300
G1 X19.5873 Y49.3 E5214.95 F2300
G1 X22.4157 F2300
G1 X49.3 Y22.4157 E5252.97 F2300
G1 Y25.2442 F2300
G1 X25.2442 Y49.3 E5286.99 F2300
G1 X28.0726 F2300
G1 X49.3 Y28.0726 E5317.01 F2300
G1 Y30.901 F2300
G1 X30.901 Y49.3 E5343.03 F2300
G1 X33.7294 F2300
G1 X49.3 Y33.7294 E5365.05 F2300
G1 Y36.5579 F2300
G1 X36.5579 Y49.3 E5383.07 F2300
G1 X39.3863 F2300
G1 X49.3 Y39.3863 E5397.09 F2300
G1 Y42.2147 F2300
G1 X42.2147 Y49.3 E5407.11 F2300
G1 X45.0431 F2300
G1 X49.3 Y45.0432 E5413.13 F2300
G1 Y47.8716 F2300
G1 X47.8716 Y49.3 E5415.15 F2300
G1 F70
G1 Z2.4 F70

G1 F2300
G1 X48.898 F2300
G1 X10.7 Y11.102 E5469.17 F2300
G1 X10.35 Y10.35 F2300
G1 X49.65 E5508.47 F2300
G1 X49.65 Y49.65 E5547.77 F2300
G1 X10.35 E5587.07 F2300
G1 X10.35 Y10.35 E5626.37 F2300
G1 X13.1264 Y10.7 F2300
G1 X49.3 Y46.8736 E5677.52 F2300
G1 Y44.0452 F2300
G1 X15.9548 Y10.7 E5724.68 F2300
G1 X18.7833 F2300
G1 X49.3 Y41.2167 E5767.84 F2300
G1 Y38.3883 F2300
G1 X21.6117 Y10.7 E5806.99 F2300
G1 X24.4401 F2300
G1 X49.3 Y35.5599 E5842.15 F2300
G1 Y32.7314 F2300
G1 X27.2686 Y10.7 E5873.31 F2300
G1 X30.097 F2300
G1 X49.3 Y29.903 E5900.47 F2300
G1 Y27.0746 F2300
G1 X32.9254 Y10.7 E5923.62 F2300
G1 X35.7538 F2300
G1 X49.3 Y24.2462 E5942.78 F2300
G1 X49.3 Y21.4177 F2300
G1 X38.5823 Y10.7 E5957.94 F2300
G1 X41.4107 F2300
G1 X49.3 Y18.5893 E5969.1 F2300
G1 Y15.7609 F2300
G1 X44.2391 Y10.7 E5976.25 F2300
G1 X47.0675 F2300
G1 X49.3 Y12.9325 E5979.41 F2300
G1 X46.0695 Y49.3 F2300
G1 X10.7 Y13.9304 E6029.43 F2300
G1 Y16.7589 F2300
G1 X43.2411 Y49.3 E6075.45 F2300
G1 X40.4127 F2300
G1 X10.7 Y19.5873 E6117.47 F2300
G1 X10.7 Y22.4157 F2300
G1 X37.5843 Y49.3 E6155.49 F2300
G1 X34.7558 F2300
G1 X10.7 Y25.2442 E6189.51 F2300
G1 Y28.0726 F2300
G1 X31.9274 Y49.3 E6219.53 F2300
G1 X29.099 F2300
G1 X10.7 Y30.901 E6245.55 F2300
G1 Y33.7294 F2300
G1 X26.2706 Y49.3 E6267.57 F2300
G1 X23.4421 F2300
G1 X10.7 Y36.5579 E6285.59 F2300
G1 Y39.3863 F2300
G1 X20.6137 Y49.3 E6299.61 F2300
G1 X17.7853 F2300
G1 X10.7 Y42.2147 E6309.63 F2300
G1 Y45.0431 F2300
G1 X14.9569 Y49.3 E6315.65 F2300
G1 X12.1284 F2300
G1 X10.7 Y47.8716 E6317.67 F2300
G1 F70
G1 Z2.8 F70

G1 F2300
G1 X10.7 Y48.898 F2300
G1 X48.898 Y10.7 E6371.69 F2300
G1 X49.65 Y10.35 F2300
G1 X10.35 E6410.99 F2300
G1 X10.35 Y49.65 E6450.29 F2300
G1 X49.65 E6489.59 F2300
G1 X49.65 Y10.35 E6528.89 F2300
G1 X49.3 Y13.1264 F2300
G1 X13.1264 Y49.3 E6580.05 F2300
G1 X15.9548 F2300
G1 X49.3 Y15.9549 E6627.2 F2300
G1 X49.3 Y18.7833 F2300
G1 X18.7833 Y49.3 E6670.36 F2300
G1 X21.6117 F2300
G1 X49.3 Y21.6117 E6709.52 F2300
G1 Y24.4401 F2300
G1 X24.4401 Y49.3 E6744.68 F2300
G1 X27.2685 F2300
G1 X49.3 Y27.2686 E6775.83 F2300
G1 X49.3 Y30.097 F2300
G1 X30.097 Y49.3 E6802.99 F2300
G1 X32.9254 F2300
G1 X49.3 Y32.9254 E6826.15 F2300
G1 Y35.7538 F2300
G1 X35.7538 Y49.3 E6845.3 F2300
G1 X38.5822 F2300
G1 X49.3 Y38.5823 E6860.46 F2300
G1 Y41.4107 F2300
G1 X41.4107 Y49.3 E6871.62 F2300
G1 X44.2391 F2300
G1 X49.3 Y44.2391 E6878.78 F2300
G1 X49.3 Y47.0675 F2300
G1 X47.0675 Y49.3 E6881.93 F2300
G1 X10.7 Y46.0695 F2300
G1 X46.0696 Y10.7 E6931.95 F2300
G1 X43.2411 F2300
G1 X10.7 Y43.2411 E6977.97 F2300
G1 X10.7 Y40.4127 F2300
G1 X40.4127 Y10.7 E7019.99 F2300
G1 X37.5843 F2300
G1 X10.7 Y37.5843 E7058.01 F2300
G1 Y34.7558 F2300
G1 X34.7558 Y10.7 E7092.03 F2300
G1 X31.9274 F2300
G1 X10.7 Y31.9274 E7122.05 F2300
G1 Y29.099 F2300
G1 X29.099 Y10.7 E7148.07 F2300
G1 X26.2706 F2300
G1 X10.7 Y26.2706 E7170.09 F2300
G1 X10.7 Y23.4421 F2300
G1 X23.4421 Y10.7 E7188.11 F2300
G1 X20.6137 F2300
G1 X10.7 Y20.6137 E7202.13 F2300
G1 X10.7 Y17.7853 F2300
G1 X17.7853 Y10.7 E7212.15 F2300
G1 X14.9569 F2300
G1 X10.7 Y14.9569 E7218.17 F2300
G1 Y12.1284 F2300
G1 X12.1284 Y10.7 E7220.19 F2300
G1 F70
G1 Z3.2 F70

G1 F2300
G1 X11.102 F2300
G1 X49.3 Y48.898 E7274.21 F2300
G1 X49.65 Y49.65 F2300
G1 X10.35 E7313.51 F2300
G1 X10.35 Y10.35 E7352.81 F2300
G1 X49.65 E7392.11 F2300
G1 X49.65 Y49.65 E7431.41 F2300
G1 X46.8736 Y49.3 F2300
G1 X10.7 Y13.1264 E7482.57 F2300
G1 Y15.9548 F2300
G1 X44.0452 Y49.3 E7529.73 F2300
G1 X41.2167 F2300
G1 X10.7 Y18.7833 E7572.88 F2300
G1 Y21.6117 F2300
G1 X38.3883 Y49.3 E7612.04 F2300
G1 X35.5599 F2300
G1 X10.7 Y24.4401 E7647.2 F2300
G1 X10.7 Y27.2686 F2300
G1 X32.7315 Y49.3 E7678.36 F2300
G1 X29.903 F2300
G1 X10.7 Y30.097 E7705.51 F2300
G1 X10.7 Y32.9254 F2300
G1 X27.0746 Y49.3 E7728.67 F2300
G1 X24.2462 F2300
G1 X10.7 Y35.7538 E7747.83 F2300
G1 Y38.5823 F2300
G1 X21.4178 Y49.3 E7762.98 F2300
G1 X18.5893 F2300
G1 X10.7 Y41.4107 E7774.14 F2300
G1 Y44.2391 F2300
G1 X15.7609 Y49.3 E7781.3 F2300
G1 X12.9325 F2300
G1 X10.7 Y47.0675 E7784.46 F2300
G1 X13.9304 Y10.7 F2300
G1 X49.3 Y46.0695 E7834.48 F2300
G1 Y43.2411 F2300
G1 X16.7589 Y10.7 E7880.5 F2300
G1 X19.5873 F2300
G1 X49.3 Y40.4127 E7922.52 F2300
G1 Y37.5843 F2300
G1 X22.4157 Y10.7 E7960.54 F2300
G1 X25.2442 F2300
G1 X49.3 Y34.7558 E7994.56 F2300
G1 Y31.9274 F2300
G1 X28.0726 Y10.7 E8024.58 F2300
G1 X30.901 Y10.7 F2300
G1 X49.3 Y29.099 E8050.6 F2300
G1 Y26.2705 F2300
G1 X33.7294 Y10.7 E8072.62 F2300
G1 X36.5579 Y10.7 F2300
G1 X49.3 Y23.4421 E8090.64 F2300
G1 Y20.6137 F2300
G1 X39.3863 Y10.7 E8104.66 F2300
G1 X42.2147 F2300
G1 X49.3 Y17.7853 E8114.68 F2300
G1 Y14.9568 F2300
G1 X45.0431 Y10.7 E8120.7 F2300
G1 X47.8716 F2300
G1 X49.3 Y12.1284 E8122.72 F2300
G1 F70
G1 Z3.6 F70

G1 F2300
G1 Y11.1021 F2300
G1 X11.102 Y49.3 E8176.74 F2300
G1 X10.35 Y49.65 F2300
G1 X10.35 Y10.35 E8216.04 F2300
G1 X49.65 E8255.34 F2300
G1 X49.65 Y49.65 E8294.64 F2300
G1 X10.35 E8333.94 F2300
G1 X10.7 Y46.8736 F2300
G1 X46.8736 Y10.7 E8385.09 F2300
G1 X44.0452 F2300
G1 X10.7 Y44.0451 E8432.25 F2300
G1 Y41.2167 F2300
G1 X41.2167 Y10.7 E8475.41 F2300
G1 X38.3883 Y10.7 F2300
G1 X10.7 Y38.3883 E8514.57 F2300
G1 Y35.5599 F2300
G1 X35.5599 Y10.7 E8549.72 F2300
G1 X32.7315 F2300
G1 X10.7 Y32.7314 E8580.88 F2300
G1 X10.7 Y29.903 F2300
G1 X29.903 Y10.7 E8608.04 F2300
G1 X27.0746 F2300
G1 X10.7 Y27.0746 E8631.19 F2300
G1 Y24.2462 F2300
G1 X24.2462 Y10.7 E8650.35 F2300
G1 X21.4178 F2300
G1 X10.7 Y21.4177 E8665.51 F2300
G1 Y18.5893 F2300
G1 X18.5893 Y10.7 E8676.67 F2300
G1 X15.7609 F2300
G1 X10.7 Y15.7609 E8683.82 F2300
G1 Y12.9325 F2300
G1 X12.9325 Y10.7 E8686.98 F2300
G1 X49.3 Y13.9305 F2300
G1 X13.9304 Y49.3 E8737 F2300
G1 X16.7589 F2300
G1 X49.3 Y16.7589 E8783.02 F2300
G1 X49.3 Y19.5873 F2300
G1 X19.5873 Y49.3 E8825.04 F2300
G1 X22.4157 F2300
G1 X49.3 Y22.4157 E8863.06 F2300
G1 Y25.2442 F2300
G1 X25.2441 Y49.3 E8897.08 F2300
G1 X28.0726 F2300
G1 X49.3 Y28.0726 E8927.1 F2300
G1 Y30.901 F2300
G1 X30.901 Y49.3 E8953.12 F2300
G1 X33.7294 F2300
G1 X49.3 Y33.7295 E8975.14 F2300
G1 Y36.5579 F2300
G1 X36.5579 Y49.3 E8993.17 F2300
G1 X39.3863 F2300
G1 X49.3 Y39.3863 E9007.19 F2300
G1 Y42.2147 F2300
G1 X42.2147 Y49.3 E9017.21 F2300
G1 X45.0431 F2300
G1 X49.3 Y45.0432 E9023.23 F2300
G1 X49.3 Y47.8716 F2300
G1 X47.8716 Y49.3 E9025.25 F2300
G1 F70
G1 Z4 F70

G1 F2300
G1 X48.898 F2300
G1 X10.7 Y11.1021 E9079.27 F2300
G1 X10.35 Y10.35 F2300
G1 X49.65 E9118.57 F2300
G1 X49.65 Y49.65 E9157.87 F2300
G1 X10.35 E9197.17 F2300
G1 X10.35 Y10.35 E9236.47 F2300
G1 X13.1264 Y10.7 F2300
G1 X49.3 Y46.8736 E9287.62 F2300
G1 X49.3 Y44.0451 F2300
G1 X15.9548 Y10.7 E9334.78 F2300
G1 X18.7832 F2300
G1 X49.3 Y41.2167 E9377.94 F2300
G1 X49.3 Y38.3883 F2300
G1 X21.6117 Y10.7 E9417.1 F2300
G1 X24.4401 F2300
G1 X49.3 Y35.5599 E9452.25 F2300
G1 X49.3 Y32.7314 F2300
G1 X27.2685 Y10.7 E9483.41 F2300
G1 X30.097 F2300
G1 X49.3 Y29.903 E9510.57 F2300
G1 Y27.0746 F2300
G1 X32.9254 Y10.7 E9533.72 F2300
G1 X35.7538 Y10.7 F2300
G1 X49.3 Y24.2461 E9552.88 F2300
G1 Y21.4177 F2300
G1 X38.5822 Y10.7 E9568.04 F2300
G1 X41.4107 Y10.7 F2300
G1 X49.3 Y18.5893 E9579.2 F2300
G1 X49.3 Y15.7609 F2300
G1 X44.2391 Y10.7 E9586.35 F2300
G1 X47.0675 Y10.7 F2300
G1 X49.3 Y12.9325 E9589.51 F2300
G1 X46.0696 Y49.3 F2300
G1 X10.7 Y13.9305 E9639.53 F2300
G1 Y16.7589 F2300
G1 X43.2412 Y49.3 E9685.55 F2300
G1 X40.4127 Y49.3 F2300
G1 X10.7 Y19.5873 E9727.57 F2300
G1 Y22.4158 F2300
G1 X37.5843 Y49.3 E9765.59 F2300
G1 X34.7559 F2300
G1 X10.7 Y25.2442 E9799.61 F2300
G1 Y28.0726 F2300
G1 X31.9274 Y49.3 E9829.63 F2300
G1 X29.099 F2300
G1 X10.7 Y30.901 E9855.65 F2300
G1 Y33.7295 F2300
G1 X26.2706 Y49.3 E9877.67 F2300
G1 X23.4422 F2300
G1 X10.7 Y36.5579 E9895.7 F2300
G1 X10.7 Y39.3863 F2300
G1 X20.6137 Y49.3 E9909.72 F2300
G1 X17.7853 F2300
G1 X10.7 Y42.2147 E9919.74 F2300
G1 Y45.0432 F2300
G1 X14.9569 Y49.3 E9925.76 F2300
G1 X12.1284 F2300
G1 X10.7 Y47.8716 E9927.78 F2300
G1 F70
G1 Z4.4 F70

G1 F2300
G1 X10.7 Y48.898 F2300
G1 X48.898 Y10.7 E9981.8 F2300
G1 X49.65 Y10.35 F2300
G1 X10.35 E10021.1 F2300
G1 X10.35 Y49.65 E10060.4 F2300
G1 X49.65 E10099.7 F2300
G1 X49.65 Y10.35 E10139 F2300
G1 X49.3 Y13.1264 F2300
G1 X13.1264 Y49.3 E10190.2 F2300
G1 X15.9548 F2300
G1 X49.3 Y15.9548 E10237.3 F2300
G1 X49.3 Y18.7833 F2300
G1 X18.7833 Y49.3 E10280.5 F2300
G1 X21.6117 F2300
G1 X49.3 Y21.6117 E10319.6 F2300
G1 Y24.4401 F2300
G1 X24.4401 Y49.3 E10354.8 F2300
G1 X27.2685 F2300
G1 X49.3 Y27.2686 E10385.9 F2300
G1 Y30.097 F2300
G1 X30.097 Y49.3 E10413.1 F2300
G1 X32.9254 F2300
G1 X49.3 Y32.9254 E10436.3 F2300
G1 Y35.7538 F2300
G1 X35.7538 Y49.3 E10455.4 F2300
G1 X38.5823 F2300
G1 X49.3 Y38.5823 E10470.6 F2300
G1 Y41.4107 F2300
G1 X41.4107 Y49.3 E10481.7 F2300
G1 X44.2391 F2300
G1 X49.3 Y44.2391 E10488.9 F2300
G1 X49.3 Y47.0675 F2300
G1 X47.0675 Y49.3 E10492 F2300
G1 X10.7 Y46.0696 F2300
G1 X46.0695 Y10.7 E10542.1 F2300
G1 X43.2411 F2300
G1 X10.7 Y43.2411 E10588.1 F2300
G1 Y40.4127 F2300
G1 X40.4127 Y10.7 E10630.1 F2300
G1 X37.5843 F2300
G1 X10.7 Y37.5843 E10668.1 F2300
G1 Y34.7558 F2300
G1 X34.7558 Y10.7 E10702.1 F2300
G1 X31.9274 F2300
G1 X10.7 Y31.9274 E10732.2 F2300
G1 Y29.099 F2300
G1 X29.099 Y10.7 E10758.2 F2300
G1 X26.2706 F2300
G1 X10.7 Y26.2706 E10780.2 F2300
G1 Y23.4421 F2300
G1 X23.4421 Y10.7 E10798.2 F2300
G1 X20.6137 Y10.7 F2300
G1 X10.7 Y20.6137 E10812.2 F2300
G1 Y17.7853 F2300
G1 X17.7853 Y10.7 E10822.3 F2300
G1 X14.9569 F2300
G1 X10.7 Y14.9569 E10828.3 F2300
G1 Y12.1284 F2300
G1 X12.1284 Y10.7 E10830.3 F2300
G1 F70
G1 Z4.8 F70

G1 F2300
G1 X11.102 F2300
G1 X49.3 Y48.898 E10884.3 F2300
G1 X49.65 Y49.65 F2300
G1 X10.35 E10923.6 F2300
G1 X10.35 Y10.35 E10962.9 F2300
G1 X49.65 E11002.2 F2300
G1 X49.65 Y49.65 E11041.5 F2300
G1 X46.8736 Y49.3 F2300
G1 X10.7 Y13.1264 E11092.7 F2300
G1 Y15.9548 F2300
G1 X44.0452 Y49.3 E11139.8 F2300
G1 X41.2167 F2300
G1 X10.7 Y18.7833 E11183 F2300
G1 Y21.6117 F2300
G1 X38.3883 Y49.3 E11222.2 F2300
G1 X35.5599 F2300
G1 X10.7 Y24.4401 E11257.3 F2300
G1 X10.7 Y27.2685 F2300
G1 X32.7315 Y49.3 E11288.5 F2300
G1 X29.903 F2300
G1 X10.7 Y30.097 E11315.6 F2300
G1 X10.7 Y32.9254 F2300
G1 X27.0746 Y49.3 E11338.8 F2300
G1 X24.2462 F2300
G1 X10.7 Y35.7538 E11357.9 F2300
G1 Y38.5823 F2300
G1 X21.4177 Y49.3 E11373.1 F2300
G1 X18.5893 F2300
G1 X10.7 Y41.4107 E11384.3 F2300
G1 Y44.2391 F2300
G1 X15.7609 Y49.3 E11391.4 F2300
G1 X12.9325 F2300
G1 X10.7 Y47.0675 E11394.6 F2300
G1 X13.9305 Y10.7 F2300
G1 X49.3 Y46.0696 E11444.6 F2300
G1 Y43.2411 F2300
G1 X16.7589 Y10.7 E11490.6 F2300
G1 X19.5873 F2300
G1 X49.3 Y40.4127 E11532.6 F2300
G1 Y37.5843 F2300
G1 X22.4157 Y10.7 E11570.7 F2300
G1 X25.2442 F2300
G1 X49.3 Y34.7558 E11604.7 F2300
G1 Y31.9274 F2300
G1 X28.0726 Y10.7 E11634.7 F2300
G1 X30.901 Y10.7 F2300
G1 X49.3 Y29.099 E11660.7 F2300
G1 Y26.2706 F2300
G1 X33.7294 Y10.7 E11682.7 F2300
G1 X36.5579 Y10.7 F2300
G1 X49.3 Y23.4421 E11700.8 F2300
G1 Y20.6137 F2300
G1 X39.3863 Y10.7 E11714.8 F2300
G1 X42.2147 F2300
G1 X49.3 Y17.7853 E11724.8 F2300
G1 Y14.9568 F2300
G1 X45.0431 Y10.7 E11730.8 F2300
G1 X47.8716 Y10.7 F2300
G1 X49.3 Y12.1284 E11732.8 F2300
G1 F70
G1 Z5.2 F70

G1 F2300
G1 Y11.102 F2300
G1 X11.102 Y49.3 E11786.9 F2300
G1 X10.35 Y49.65 F2300
G1 X10.35 Y10.35 E11826.2 F2300
G1 X49.65 E11865.5 F2300
G1 X49.65 Y49.65 E11904.8 F2300
G1 X10.35 E11944.1 F2300
G1 X10.7 Y46.8736 F2300
G1 X46.8736 Y10.7 E11995.2 F2300
G1 X44.0451 F2300
G1 X10.7 Y44.0452 E12042.4 F2300
G1 Y41.2168 F2300
G1 X41.2167 Y10.7 E12085.5 F2300
G1 X38.3883 Y10.7 F2300
G1 X10.7 Y38.3883 E12124.7 F2300
G1 X10.7 Y35.5599 F2300
G1 X35.5599 Y10.7 E12159.8 F2300
G1 X32.7314 F2300
G1 X10.7 Y32.7315 E12191 F2300
G1 X10.7 Y29.903 F2300
G1 X29.903 Y10.7 E12218.2 F2300
G1 X27.0746 F2300
G1 X10.7 Y27.0746 E12241.3 F2300
G1 Y24.2462 F2300
G1 X24.2462 Y10.7 E12260.5 F2300
G1 X21.4177 F2300
G1 X10.7 Y21.4178 E12275.6 F2300
G1 X10.7 Y18.5893 F2300
G1 X18.5893 Y10.7 E12286.8 F2300
G1 X15.7609 Y10.7 F2300
G1 X10.7 Y15.7609 E12293.9 F2300
G1 X10.7 Y12.9325 F2300
G1 X12.9325 Y10.7 E12297.1 F2300
G1 X49.3 Y13.9304 F2300
G1 X13.9305 Y49.3 E12347.1 F2300
G1 X16.7589 F2300
G1 X49.3 Y16.7589 E12393.1 F2300
G1 Y19.5873 F2300
G1 X19.5873 Y49.3 E12435.2 F2300
G1 X22.4158 F2300
G1 X49.3 Y22.4157 E12473.2 F2300
G1 Y25.2441 F2300
G1 X25.2442 Y49.3 E12507.2 F2300
G1 X28.0726 F2300
G1 X49.3 Y28.0726 E12537.2 F2300
G1 Y30.901 F2300
G1 X30.901 Y49.3 E12563.2 F2300
G1 X33.7295 F2300
G1 X49.3 Y33.7294 E12585.3 F2300
G1 Y36.5579 F2300
G1 X36.5579 Y49.3 E12603.3 F2300
G1 X39.3863 F2300
G1 X49.3 Y39.3863 E12617.3 F2300
G1 X49.3 Y42.2147 F2300
G1 X42.2147 Y49.3 E12627.3 F2300
G1 X45.0431 F2300
G1 X49.3 Y45.0432 E12633.3 F2300
G1 X49.3 Y47.8716 F2300
G1 X47.8716 Y49.3 E12635.4 F2300
G1 F70
G1 Z5.6 F70

G1 F2300
G1 X48.898 F2300
G1 X10.7 Y11.102 E12689.4 F2300
G1 X10.35 Y10.35 F2300
G1 X49.65 E12728.7 F2300
G1 X49.65 Y49.65 E12768 F2300
G1 X10.35 E12807.3 F2300
G1 X10.35 Y10.35 E12846.6 F2300
G1 X13.1264 Y10.7 F2300
G1 X49.3 Y46.8736 E12897.7 F2300
G1 X49.3 Y44.0451 F2300
G1 X15.9548 Y10.7 E12944.9 F2300
G1 X18.7833 F2300
G1 X49.3 Y41.2167 E12988.1 F2300
G1 X49.3 Y38.3883 F2300
G1 X21.6117 Y10.7 E13027.2 F2300
G1 X24.4401 F2300
G1 X49.3 Y35.5599 E13062.4 F2300
G1 Y32.7314 F2300
G1 X27.2685 Y10.7 E13093.5 F2300
G1 X30.097 Y10.7 F2300
G1 X49.3 Y29.903 E13120.7 F2300
G1 Y27.0746 F2300
G1 X32.9254 Y10.7 E13143.8 F2300
G1 X35.7538 F2300
G1 X49.3 Y24.2462 E13163 F2300
G1 Y21.4177 F2300
G1 X38.5822 Y10.7 E13178.2 F2300
G1 X41.4107 F2300
G1 X49.3 Y18.5893 E13189.3 F2300
G1 Y15.7609 F2300
G1 X44.2391 Y10.7 E13196.5 F2300
G1 X47.0675 F2300
G1 X49.3 Y12.9325 E13199.6 F2300
G1 X46.0696 Y49.3 F2300
G1 X10.7 Y13.9305 E13249.7 F2300
G1 Y16.7589 F2300
G1 X43.2411 Y49.3 E13295.7 F2300
G1 X40.4127 F2300
G1 X10.7 Y19.5873 E13337.7 F2300
G1 Y22.4157 F2300
G1 X37.5843 Y49.3 E13375.7 F2300
G1 X34.7559 F2300
G1 X10.7 Y25.2442 E13409.7 F2300
G1 Y28.0726 F2300
G1 X31.9274 Y49.3 E13439.8 F2300
G1 X29.099 F2300
G1 X10.7 Y30.901 E13465.8 F2300
G1 X10.7 Y33.7294 F2300
G1 X26.2706 Y49.3 E13487.8 F2300
G1 X23.4421 F2300
G1 X10.7 Y36.5579 E13505.8 F2300
G1 X10.7 Y39.3863 F2300
G1 X20.6137 Y49.3 E13519.8 F2300
G1 X17.7853 F2300
G1 X10.7 Y42.2147 E13529.9 F2300
G1 Y45.0432 F2300
G1 X14.9569 Y49.3 E13535.9 F2300
G1 X12.1284 F2300
G1 X10.7 Y47.8716 E13537.9 F2300
G1 F70
G1 Z6 F70

G1 F2300
G1 X10.7 Y48.898 F2300
G1 X48.898 Y10.7 E13591.9 F2300
G1 X49.65 Y10.35 F2300
G1 X10.35 E13631.2 F2300
G1 X10.35 Y49.65 E13670.5 F2300
G1 X49.65 E13709.8 F2300
G1 X49.65 Y10.35 E13749.1 F2300
G1 X49.3 Y13.1264 F2300
G1 X13.1264 Y49.3 E13800.3 F2300
G1 X15.9548 F2300
G1 X49.3 Y15.9549 E13847.4 F2300
G1 X49.3 Y18.7833 F2300
G1 X18.7832 Y49.3 E13890.6 F2300
G1 X21.6117 F2300
G1 X49.3 Y21.6117 E13929.7 F2300
G1 Y24.4401 F2300
G1 X24.4401 Y49.3 E13964.9 F2300
G1 X27.2685 F2300
G1 X49.3 Y27.2686 E13996.1 F2300
G1 Y30.097 F2300
G1 X30.097 Y49.3 E14023.2 F2300
G1 X32.9254 F2300
G1 X49.3 Y32.9254 E14046.4 F2300
G1 Y35.7538 F2300
G1 X35.7538 Y49.3 E14065.5 F2300
G1 X38.5822 F2300
G1 X49.3 Y38.5823 E14080.7 F2300
G1 Y41.4107 F2300
G1 X41.4107 Y49.3 E14091.8 F2300
G1 X44.2391 F2300
G1 X49.3 Y44.2391 E14099 F2300
G1 X49.3 Y47.0675 F2300
G1 X47.0675 Y49.3 E14102.2 F2300
G1 X10.7 Y46.0695 F2300
G1 X46.0696 Y10.7 E14152.2 F2300
G1 X43.2411 F2300
G1 X10.7 Y43.2411 E14198.2 F2300
G1 Y40.4127 F2300
G1 X40.4127 Y10.7 E14240.2 F2300
G1 X37.5843 F2300
G1 X10.7 Y37.5843 E14278.2 F2300
G1 X10.7 Y34.7558 F2300
G1 X34.7559 Y10.7 E14312.3 F2300
G1 X31.9274 F2300
G1 X10.7 Y31.9274 E14342.3 F2300
G1 Y29.099 F2300
G1 X29.099 Y10.7 E14368.3 F2300
G1 X26.2706 F2300
G1 X10.7 Y26.2706 E14390.3 F2300
G1 X10.7 Y23.4421 F2300
G1 X23.4421 Y10.7 E14408.3 F2300
G1 X20.6137 F2300
G1 X10.7 Y20.6137 E14422.4 F2300
G1 X10.7 Y17.7853 F2300
G1 X17.7853 Y10.7 E14432.4 F2300
G1 X14.9569 F2300
G1 X10.7 Y14.9569 E14438.4 F2300
G1 X10.7 Y12.1284 F2300
G1 X12.1284 Y10.7 E14440.4 F2300
G1 F70
G1 Z6.4 F70

G1 F2300
G1 X11.102 F2300
G1 X49.3 Y48.8979 E14494.4 F2300
G1 X49.65 Y49.65 F2300
G1 X10.35 E14533.7 F2300
G1 X10.35 Y10.35 E14573 F2300
G1 X49.65 E14612.3 F2300
G1 X49.65 Y49.65 E14651.6 F2300
G1 X46.8736 Y49.3 F2300
G1 X10.7 Y13.1264 E14702.8 F2300
G1 Y15.9549 F2300
G1 X44.0452 Y49.3 E14750 F2300
G1 X41.2168 F2300
G1 X10.7 Y18.7833 E14793.1 F2300
G1 X10.7 Y21.6117 F2300
G1 X38.3883 Y49.3 E14832.3 F2300
G1 X35.5599 F2300
G1 X10.7 Y24.4401 E14867.4 F2300
G1 X10.7 Y27.2686 F2300
G1 X32.7315 Y49.3 E14898.6 F2300
G1 X29.9031 F2300
G1 X10.7 Y30.097 E14925.7 F2300
G1 Y32.9254 F2300
G1 X27.0746 Y49.3 E14948.9 F2300
G1 X24.2462 F2300
G1 X10.7 Y35.7538 E14968.1 F2300
G1 X10.7 Y38.5823 F2300
G1 X21.4178 Y49.3 E14983.2 F2300
G1 X18.5893 F2300
G1 X10.7 Y41.4107 E14994.4 F2300
G1 X10.7 Y44.2391 F2300
G1 X15.7609 Y49.3 E15001.5 F2300
G1 X12.9325 F2300
G1 X10.7 Y47.0675 E15004.7 F2300
G1 X13.9304 Y10.7 F2300
G1 X49.3 Y46.0695 E15054.7 F2300
G1 Y43.2411 F2300
G1 X16.7588 Y10.7 E15100.7 F2300
G1 X19.5873 F2300
G1 X49.3 Y40.4127 E15142.8 F2300
G1 Y37.5842 F2300
G1 X22.4157 Y10.7 E15180.8 F2300
G1 X25.2441 F2300
G1 X49.3 Y34.7558 E15214.8 F2300
G1 Y31.9274 F2300
G1 X28.0726 Y10.7 E15244.8 F2300
G1 X30.901 F2300
G1 X49.3 Y29.099 E15270.8 F2300
G1 Y26.2705 F2300
G1 X33.7294 Y10.7 E15292.9 F2300
G1 X36.5579 F2300
G1 X49.3 Y23.4421 E15310.9 F2300
G1 Y20.6137 F2300
G1 X39.3863 Y10.7 E15324.9 F2300
G1 X42.2147 F2300
G1 X49.3 Y17.7853 E15334.9 F2300
G1 X49.3 Y14.9568 F2300
G1 X45.0431 Y10.7 E15340.9 F2300
G1 X47.8716 Y10.7 F2300
G1 X49.3 Y12.1284 E15343 F2300
G1 F70
G1 Z6.8 F70

G1 F2300
G1 Y11.102 F2300
G1 X11.102 Y49.3 E15397 F2300
G1 X10.35 Y49.65 F2300
G1 X10.35 Y10.35 E15436.3 F2300
G1 X49.65 E15475.6 F2300
G1 X49.65 Y49.65 E15514.9 F2300
G1 X10.35 E15554.2 F2300
G1 X10.7 Y46.8736 F2300
G1 X46.8736 Y10.7 E15605.3 F2300
G1 X44.0452 F2300
G1 X10.7 Y44.0452 E15652.5 F2300
G1 X10.7 Y41.2167 F2300
G1 X41.2167 Y10.7 E15695.7 F2300
G1 X38.3883 F2300
G1 X10.7 Y38.3883 E15734.8 F2300
G1 Y35.5599 F2300
G1 X35.5599 Y10.7 E15770 F2300
G1 X32.7315 F2300
G1 X10.7 Y32.7315 E15801.1 F2300
G1 X10.7 Y29.903 F2300
G1 X29.903 Y10.7 E15828.3 F2300
G1 X27.0746 Y10.7 F2300
G1 X10.7 Y27.0746 E15851.4 F2300
G1 Y24.2462 F2300
G1 X24.2462 Y10.7 E15870.6 F2300
G1 X21.4177 Y10.7 F2300
G1 X10.7 Y21.4177 E15885.8 F2300
G1 Y18.5893 F2300
G1 X18.5893 Y10.7 E15896.9 F2300
G1 X15.7609 F2300
G1 X10.7 Y15.7609 E15904.1 F2300
G1 Y12.9325 F2300
G1 X12.9325 Y10.7 E15907.2 F2300
G1 X49.3 Y13.9305 F2300
G1 X13.9305 Y49.3 E15957.2 F2300
G1 X16.7589 F2300
G1 X49.3 Y16.7589 E16003.3 F2300
G1 X49.3 Y19.5873 F2300
G1 X19.5873 Y49.3 E16045.3 F2300
G1 X22.4157 F2300
G1 X49.3 Y22.4157 E16083.3 F2300
G1 X49.3 Y25.2442 F2300
G1 X25.2442 Y49.3 E16117.3 F2300
G1 X28.0726 F2300
G1 X49.3 Y28.0726 E16147.3 F2300
G1 Y30.901 F2300
G1 X30.901 Y49.3 E16173.4 F2300
G1 X33.7294 F2300
G1 X49.3 Y33.7294 E16195.4 F2300
G1 Y36.5579 F2300
G1 X36.5579 Y49.3 E16213.4 F2300
G1 X39.3863 F2300
G1 X49.3 Y39.3863 E16227.4 F2300
G1 Y42.2147 F2300
G1 X42.2147 Y49.3 E16237.4 F2300
G1 X45.0431 F2300
G1 X49.3 Y45.0431 E16243.5 F2300
G1 X49.3 Y47.8716 F2300
G1 X47.8716 Y49.3 E16245.5 F2300
G1 F70
G1 Z7.2 F70

G1 F2300
G1 X48.898 F2300
G1 X10.7 Y11.102 E16299.5 F2300
G1 X10.35 Y10.35 F2300
G1 X49.65 E16338.8 F2300
G1 X49.65 Y49.65 E16378.1 F2300
G1 X10.35 E16417.4 F2300
G1 X10.35 Y10.35 E16456.7 F2300
G1 X13.1264 Y10.7 F2300
G1 X49.3 Y46.8736 E16507.9 F2300
G1 Y44.0452 F2300
G1 X15.9548 Y10.7 E16555 F2300
G1 X18.7833 F2300
G1 X49.3 Y41.2167 E16598.2 F2300
G1 Y38.3883 F2300
G1 X21.6117 Y10.7 E16637.3 F2300
G1 X24.4401 F2300
G1 X49.3 Y35.5599 E16672.5 F2300
G1 X49.3 Y32.7315 F2300
G1 X27.2686 Y10.7 E16703.6 F2300
G1 X30.097 F2300
G1 X49.3 Y29.903 E16730.8 F2300
G1 Y27.0746 F2300
G1 X32.9254 Y10.7 E16754 F2300
G1 X35.7538 F2300
G1 X49.3 Y24.2462 E16773.1 F2300
G1 Y21.4177 F2300
G1 X38.5823 Y10.7 E16788.3 F2300
G1 X41.4107 F2300
G1 X49.3 Y18.5893 E16799.4 F2300
G1 Y15.7609 F2300
G1 X44.2391 Y10.7 E16806.6 F2300
G1 X47.0675 F2300
G1 X49.3 Y12.9325 E16809.7 F2300
G1 X46.0695 Y49.3 F2300
G1 X10.7 Y13.9304 E16859.8 F2300
G1 X10.7 Y16.7589 F2300
G1 X43.2411 Y49.3 E16905.8 F2300
G1 X40.4127 F2300
G1 X10.7 Y19.5873 E16947.8 F2300
G1 Y22.4157 F2300
G1 X37.5843 Y49.3 E16985.8 F2300
G1 X34.7558 F2300
G1 X10.7 Y25.2442 E17019.8 F2300
G1 X10.7 Y28.0726 F2300
G1 X31.9274 Y49.3 E17049.9 F2300
G1 X29.099 F2300
G1 X10.7 Y30.901 E17075.9 F2300
G1 X10.7 Y33.7294 F2300
G1 X26.2706 Y49.3 E17097.9 F2300
G1 X23.4421 F2300
G1 X10.7 Y36.5579 E17115.9 F2300
G1 X10.7 Y39.3863 F2300
G1 X20.6137 Y49.3 E17129.9 F2300
G1 X17.7853 F2300
G1 X10.7 Y42.2147 E17140 F2300
G1 X10.7 Y45.0431 F2300
G1 X14.9569 Y49.3 E17146 F2300
G1 X12.1284 F2300
G1 X10.7 Y47.8716 E17148 F2300
G1 F70
G1 Z7.6 F70

G1 F2300
G1 X10.7 Y48.898 F2300
G1 X48.8979 Y10.7 E17202 F2300
G1 X49.65 Y10.35 F2300
G1 X10.35 E17241.3 F2300
G1 X10.35 Y49.65 E17280.6 F2300
G1 X49.65 E17319.9 F2300
G1 X49.65 Y10.35 E17359.2 F2300
G1 X49.3 Y13.1264 F2300
G1 X13.1264 Y49.3 E17410.4 F2300
G1 X15.9549 F2300
G1 X49.3 Y15.9548 E17457.5 F2300
G1 X49.3 Y18.7832 F2300
G1 X18.7833 Y49.3 E17500.7 F2300
G1 X21.6117 F2300
G1 X49.3 Y21.6117 E17539.8 F2300
G1 Y24.4401 F2300
G1 X24.4401 Y49.3 E17575 F2300
G1 X27.2686 F2300
G1 X49.3 Y27.2685 E17606.2 F2300
G1 Y30.097 F2300
G1 X30.097 Y49.3 E17633.3 F2300
G1 X32.9254 F2300
G1 X49.3 Y32.9254 E17656.5 F2300
G1 Y35.7538 F2300
G1 X35.7538 Y49.3 E17675.6 F2300
G1 X38.5823 F2300
G1 X49.3 Y38.5823 E17690.8 F2300
G1 Y41.4107 F2300
G1 X41.4107 Y49.3 E17701.9 F2300
G1 X44.2391 F2300
G1 X49.3 Y44.2391 E17709.1 F2300
G1 X49.3 Y47.0675 F2300
G1 X47.0675 Y49.3 E17712.2 F2300
G1 X10.7 Y46.0696 F2300
G1 X46.0695 Y10.7 E17762.3 F2300
G1 X43.2411 F2300
G1 X10.7 Y43.2411 E17808.3 F2300
G1 X10.7 Y40.4127 F2300
G1 X40.4127 Y10.7 E17850.3 F2300
G1 X37.5842 F2300
G1 X10.7 Y37.5843 E17888.3 F2300
G1 Y34.7559 F2300
G1 X34.7558 Y10.7 E17922.3 F2300
G1 X31.9274 F2300
G1 X10.7 Y31.9274 E17952.4 F2300
G1 X10.7 Y29.099 F2300
G1 X29.099 Y10.7 E17978.4 F2300
G1 X26.2705 Y10.7 F2300
G1 X10.7 Y26.2706 E18000.4 F2300
G1 X10.7 Y23.4421 F2300
G1 X23.4421 Y10.7 E18018.4 F2300
G1 X20.6137 F2300
G1 X10.7 Y20.6137 E18032.4 F2300
G1 Y17.7853 F2300
G1 X17.7853 Y10.7 E18042.5 F2300
G1 X14.9568 Y10.7 F2300
G1 X10.7 Y14.9569 E18048.5 F2300
G1 Y12.1284 F2300
G1 X12.1284 Y10.7 E18050.5 F2300
G1 F70
G1 Z8 F70

G1 F2300
G1 X11.102 F2300
G1 X49.3 Y48.898 E18104.5 F2300
G1 X49.65 Y49.65 F2300
G1 X10.35 E18143.8 F2300
G1 X10.35 Y10.35 E18183.1 F2300
G1 X49.65 E18222.4 F2300
G1 X49.65 Y49.65 E18261.7 F2300
G1 X46.8736 Y49.3 F2300
G1 X10.7 Y13.1264 E18312.9 F2300
G1 X10.7 Y15.9548 F2300
G1 X44.0452 Y49.3 E18360 F2300
G1 X41.2167 F2300
G1 X10.7 Y18.7833 E18403.2 F2300
G1 Y21.6117 F2300
G1 X38.3883 Y49.3 E18442.4 F2300
G1 X35.5599 F2300
G1 X10.7 Y24.4401 E18477.5 F2300
G1 Y27.2686 F2300
G1 X32.7315 Y49.3 E18508.7 F2300
G1 X29.903 F2300
G1 X10.7 Y30.097 E18535.8 F2300
G1 Y32.9254 F2300
G1 X27.0746 Y49.3 E18559 F2300
G1 X24.2462 F2300
G1 X10.7 Y35.7538 E18578.1 F2300
G1 Y38.5823 F2300
G1 X21.4178 Y49.3 E18593.3 F2300
G1 X18.5893 F2300
G1 X10.7 Y41.4107 E18604.4 F2300
G1 X10.7 Y44.2391 F2300
G1 X15.7609 Y49.3 E18611.6 F2300
G1 X12.9325 F2300
G1 X10.7 Y47.0675 E18614.8 F2300
G1 X13.9304 Y10.7 F2300
G1 X49.3 Y46.0695 E18664.8 F2300
G1 Y43.2411 F2300
G1 X16.7589 Y10.7 E18710.8 F2300
G1 X19.5873 F2300
G1 X49.3 Y40.4127 E18752.8 F2300
G1 X49.3 Y37.5843 F2300
G1 X22.4157 Y10.7 E18790.8 F2300
G1 X25.2441 F2300
G1 X49.3 Y34.7558 E18824.9 F2300
G1 Y31.9274 F2300
G1 X28.0726 Y10.7 E18854.9 F2300
G1 X30.901 F2300
G1 X49.3 Y29.099 E18880.9 F2300
G1 Y26.2705 F2300
G1 X33.7294 Y10.7 E18902.9 F2300
G1 X36.5579 F2300
G1 X49.3 Y23.4421 E18920.9 F2300
G1 Y20.6137 F2300
G1 X39.3863 Y10.7 E18935 F2300
G1 X42.2147 F2300
G1 X49.3 Y17.7853 E18945 F2300
G1 Y14.9568 F2300
G1 X45.0431 Y10.7 E18951 F2300
G1 X47.8716 F2300
G1 X49.3 Y12.1284 E18953 F2300
G1 F70
G1 Z8.4 F70

G1 F2300
G1 X49.3 Y11.1021 F2300
G1 X11.102 Y49.3 E19007 F2300
G1 X10.35 Y49.65 F2300
G1 X10.35 Y10.35 E19046.3 F2300
G1 X49.65 E19085.6 F2300
G1 X49.65 Y49.65 E19124.9 F2300
G1 X10.35 E19164.2 F2300
G1 X10.7 Y46.8736 F2300
G1 X46.8736 Y10.7 E19215.4 F2300
G1 X44.0452 F2300
G1 X10.7 Y44.0451 E19262.5 F2300
G1 X10.7 Y41.2167 F2300
G1 X41.2168 Y10.7 E19305.7 F2300
G1 X38.3883 Y10.7 F2300
G1 X10.7 Y38.3883 E19344.9 F2300
G1 Y35.5599 F2300
G1 X35.5599 Y10.7 E19380 F2300
G1 X32.7315 Y10.7 F2300
G1 X10.7 Y32.7314 E19411.2 F2300
G1 Y29.903 F2300
G1 X29.903 Y10.7 E19438.3 F2300
G1 X27.0746 F2300
G1 X10.7 Y27.0746 E19461.5 F2300
G1 Y24.2462 F2300
G1 X24.2462 Y10.7 E19480.6 F2300
G1 X21.4178 Y10.7 F2300
G1 X10.7 Y21.4177 E19495.8 F2300
G1 Y18.5893 F2300
G1 X18.5893 Y10.7 E19507 F2300
G1 X15.7609 F2300
G1 X10.7 Y15.7609 E19514.1 F2300
G1 Y12.9325 F2300
G1 X12.9325 Y10.7 E19517.3 F2300
G1 X49.3 Y13.9305 F2300
G1 X13.9304 Y49.3 E19567.3 F2300
G1 X16.7589 F2300
G1 X49.3 Y16.7589 E19613.3 F2300
G1 Y19.5873 F2300
G1 X19.5873 Y49.3 E19655.3 F2300
G1 X22.4157 F2300
G1 X49.3 Y22.4158 E19693.3 F2300
G1 Y25.2442 F2300
G1 X25.2441 Y49.3 E19727.4 F2300
G1 X28.0726 F2300
G1 X49.3 Y28.0726 E19757.4 F2300
G1 Y30.901 F2300
G1 X30.901 Y49.3 E19783.4 F2300
G1 X33.7294 F2300
G1 X49.3 Y33.7295 E19805.4 F2300
G1 Y36.5579 F2300
G1 X36.5579 Y49.3 E19823.4 F2300
G1 X39.3863 F2300
G1 X49.3 Y39.3863 E19837.5 F2300
G1 Y42.2147 F2300
G1 X42.2147 Y49.3 E19847.5 F2300
G1 X45.0431 F2300
G1 X49.3 Y45.0432 E19853.5 F2300
G1 X49.3 Y47.8716 F2300
G1 X47.8716 Y49.3 E19855.5 F2300
G1 F70
G1 Z8.8 F70

G1 F2300
G1 X48.8979 F2300
G1 X10.7 Y11.102 E19909.5 F2300
G1 X10.35 Y10.35 F2300
G1 X49.65 E19948.8 F2300
G1 X49.65 Y49.65 E19988.1 F2300
G1 X10.35 E20027.4 F2300
G1 X10.35 Y10.35 E20066.7 F2300
G1 X13.1264 Y10.7 F2300
G1 X49.3 Y46.8736 E20117.9 F2300
G1 Y44.0452 F2300
G1 X15.9549 Y10.7 E20165.1 F2300
G1 X18.7833 F2300
G1 X49.3 Y41.2168 E20208.2 F2300
G1 X49.3 Y38.3883 F2300
G1 X21.6117 Y10.7 E20247.4 F2300
G1 X24.4401 F2300
G1 X49.3 Y35.5599 E20282.5 F2300
G1 Y32.7315 F2300
G1 X27.2686 Y10.7 E20313.7 F2300
G1 X30.097 F2300
G1 X49.3 Y29.903 E20340.8 F2300
G1 Y27.0746 F2300
G1 X32.9254 Y10.7 E20364 F2300
G1 X35.7538 F2300
G1 X49.3 Y24.2462 E20383.1 F2300
G1 Y21.4177 F2300
G1 X38.5823 Y10.7 E20398.3 F2300
G1 X41.4107 F2300
G1 X49.3 Y18.5893 E20409.5 F2300
G1 X49.3 Y15.7609 F2300
G1 X44.2391 Y10.7 E20416.6 F2300
G1 X47.0675 Y10.7 F2300
G1 X49.3 Y12.9325 E20419.8 F2300
G1 X46.0695 Y49.3 F2300
G1 X10.7 Y13.9304 E20469.8 F2300
G1 X10.7 Y16.7588 F2300
G1 X43.2411 Y49.3 E20515.8 F2300
G1 X40.4127 F2300
G1 X10.7 Y19.5873 E20557.8 F2300
G1 X10.7 Y22.4157 F2300
G1 X37.5842 Y49.3 E20595.9 F2300
G1 X34.7558 F2300
G1 X10.7 Y25.2441 E20629.9 F2300
G1 Y28.0726 F2300
G1 X31.9274 Y49.3 E20659.9 F2300
G1 X29.099 F2300
G1 X10.7 Y30.901 E20685.9 F2300
G1 X10.7 Y33.7294 F2300
G1 X26.2705 Y49.3 E20707.9 F2300
G1 X23.4421 F2300
G1 X10.7 Y36.5579 E20725.9 F2300
G1 Y39.3863 F2300
G1 X20.6137 Y49.3 E20740 F2300
G1 X17.7853 F2300
G1 X10.7 Y42.2147 E20750 F2300
G1 Y45.0432 F2300
G1 X14.9569 Y49.3 E20756 F2300
G1 X12.1284 F2300
G1 X10.7 Y47.8716 E20758 F2300
G1 F70
G1 Z9.2 F70

G1 F2300
G1 X10.7 Y48.8979 F2300
G1 X48.898 Y10.7 E20812 F2300
G1 X49.65 Y10.35 F2300
G1 X10.35 E20851.3 F2300
G1 X10.35 Y49.65 E20890.6 F2300
G1 X49.65 E20929.9 F2300
G1 X49.65 Y10.35 E20969.2 F2300
G1 X49.3 Y13.1265 F2300
G1 X13.1263 Y49.3 E21020.4 F2300
G1 X15.9548 F2300
G1 X49.3 Y15.9549 E21067.6 F2300
G1 X49.3 Y18.7833 F2300
G1 X18.7832 Y49.3 E21110.7 F2300
G1 X21.6116 F2300
G1 X49.3 Y21.6117 E21149.9 F2300
G1 Y24.4402 F2300
G1 X24.4401 Y49.3 E21185 F2300
G1 X27.2685 F2300
G1 X49.3 Y27.2686 E21216.2 F2300
G1 Y30.097 F2300
G1 X30.0969 Y49.3 E21243.3 F2300
G1 X32.9254 F2300
G1 X49.3 Y32.9254 E21266.5 F2300
G1 Y35.7539 F2300
G1 X35.7538 Y49.3 E21285.7 F2300
G1 X38.5822 F2300
G1 X49.3 Y38.5823 E21300.8 F2300
G1 Y41.4107 F2300
G1 X41.4107 Y49.3 E21312 F2300
G1 X44.2391 F2300
G1 X49.3 Y44.2391 E21319.1 F2300
G1 Y47.0675 F2300
G1 X47.0675 Y49.3 E21322.3 F2300
G1 X10.7 Y46.0695 F2300
G1 X46.0696 Y10.7 E21372.3 F2300
G1 X43.2412 F2300
G1 X10.7 Y43.2411 E21418.3 F2300
G1 X10.7 Y40.4126 F2300
G1 X40.4127 Y10.7 E21460.3 F2300
G1 X37.5843 F2300
G1 X10.7 Y37.5842 E21498.4 F2300
G1 X10.7 Y34.7558 F2300
G1 X34.7559 Y10.7 E21532.4 F2300
G1 X31.9275 F2300
G1 X10.7 Y31.9274 E21562.4 F2300
G1 Y29.099 F2300
G1 X29.099 Y10.7 E21588.4 F2300
G1 X26.2706 F2300
G1 X10.7 Y26.2705 E21610.4 F2300
G1 Y23.4421 F2300
G1 X23.4422 Y10.7 E21628.5 F2300
G1 X20.6137 Y10.7 F2300
G1 X10.7 Y20.6137 E21642.5 F2300
G1 X10.7 Y17.7853 F2300
G1 X17.7853 Y10.7 E21652.5 F2300
G1 X14.9569 F2300
G1 X10.7 Y14.9568 E21658.5 F2300
G1 X10.7 Y12.1284 F2300
G1 X12.1284 Y10.7 E21660.5 F2300
G1 F70
G1 Z9.6 F70

G1 F2300
G1 X11.102 F2300
G1 X49.3 Y48.8979 E21714.6 F2300
G1 X49.65 Y49.65 F2300
G1 X10.35 E21753.9 F2300
G1 X10.35 Y10.35 E21793.2 F2300
G1 X49.65 E21832.5 F2300
G1 X49.65 Y49.65 E21871.8 F2300
G1 X46.8736 Y49.3 F2300
G1 X10.7 Y13.1265 E21922.9 F2300
G1 Y15.9549 F2300
G1 X44.0452 Y49.3 E21970.1 F2300
G1 X41.2168 F2300
G1 X10.7 Y18.7833 E22013.2 F2300
G1 X10.7 Y21.6117 F2300
G1 X38.3884 Y49.3 E22052.4 F2300
G1 X35.5599 F2300
G1 X10.7 Y24.4402 E22087.5 F2300
G1 Y27.2686 F2300
G1 X32.7315 Y49.3 E22118.7 F2300
G1 X29.9031 F2300
G1 X10.7 Y30.097 E22145.9 F2300
G1 X10.7 Y32.9254 F2300
G1 X27.0746 Y49.3 E22169 F2300
G1 X24.2462 F2300
G1 X10.7 Y35.7538 E22188.2 F2300
G1 Y38.5823 F2300
G1 X21.4178 Y49.3 E22203.3 F2300
G1 X18.5893 F2300
G1 X10.7 Y41.4107 E22214.5 F2300
G1 X10.7 Y44.2391 F2300
G1 X15.7609 Y49.3 E22221.6 F2300
G1 X12.9325 F2300
G1 X10.7 Y47.0675 E22224.8 F2300
G1 X13.9304 Y10.7 F2300
G1 X49.3 Y46.0695 E22274.8 F2300
G1 Y43.2411 F2300
G1 X16.7588 Y10.7 E22320.8 F2300
G1 X19.5873 F2300
G1 X49.3 Y40.4126 E22362.8 F2300
G1 X49.3 Y37.5842 F2300
G1 X22.4157 Y10.7 E22400.9 F2300
G1 X25.2441 Y10.7 F2300
G1 X49.3 Y34.7558 E22434.9 F2300
G1 Y31.9274 F2300
G1 X28.0726 Y10.7 E22464.9 F2300
G1 X30.901 Y10.7 F2300
G1 X49.3 Y29.099 E22490.9 F2300
G1 Y26.2705 F2300
G1 X33.7294 Y10.7 E22512.9 F2300
G1 X36.5578 Y10.7 F2300
G1 X49.3 Y23.4421 E22531 F2300
G1 Y20.6137 F2300
G1 X39.3863 Y10.7 E22545 F2300
G1 X42.2147 Y10.7 F2300
G1 X49.3 Y17.7853 E22555 F2300
G1 Y14.9568 F2300
G1 X45.0431 Y10.7 E22561 F2300
G1 X47.8716 Y10.7 F2300
G1 X49.3 Y12.1284 E22563 F2300
G1 F70
G1 Z10 F70

G1 F2300
G1 Y11.102 F2300
G1 X11.102 Y49.3 E22617.1 F2300
G1 X10.35 Y49.65 F2300
G1 X10.35 Y10.35 E22656.4 F2300
G1 X49.65 E22695.7 F2300
G1 X49.65 Y49.65 E22735 F2300
G1 X10.35 E22774.3 F2300
G1 X10.7 Y46.8736 F2300
G1 X46.8736 Y10.7 E22825.4 F2300
G1 X44.0451 F2300
G1 X10.7 Y44.0452 E22872.6 F2300
G1 Y41.2168 F2300
G1 X41.2167 Y10.7 E22915.7 F2300
G1 X38.3883 F2300
G1 X10.7 Y38.3883 E22954.9 F2300
G1 Y35.5599 F2300
G1 X35.5599 Y10.7 E22990 F2300
G1 X32.7314 F2300
G1 X10.7 Y32.7315 E23021.2 F2300
G1 Y29.903 F2300
G1 X29.903 Y10.7 E23048.4 F2300
G1 X27.0746 Y10.7 F2300
G1 X10.7 Y27.0746 E23071.5 F2300
G1 Y24.2462 F2300
G1 X24.2462 Y10.7 E23090.7 F2300
G1 X21.4177 Y10.7 F2300
G1 X10.7 Y21.4178 E23105.8 F2300
G1 Y18.5893 F2300
G1 X18.5893 Y10.7 E23117 F2300
G1 X15.7609 Y10.7 F2300
G1 X10.7 Y15.7609 E23124.1 F2300
G1 Y12.9325 F2300
G1 X12.9325 Y10.7 E23127.3 F2300
G1 X49.3 Y13.9304 F2300
G1 X13.9305 Y49.3 E23177.3 F2300
G1 X16.7589 F2300
G1 X49.3 Y16.7589 E23223.3 F2300
G1 Y19.5873 F2300
G1 X19.5873 Y49.3 E23265.4 F2300
G1 X22.4157 F2300
G1 X49.3 Y22.4157 E23303.4 F2300
G1 Y25.2441 F2300
G1 X25.2442 Y49.3 E23337.4 F2300
G1 X28.0726 F2300
G1 X49.3 Y28.0726 E23367.4 F2300
G1 Y30.901 F2300
G1 X30.901 Y49.3 E23393.4 F2300
G1 X33.7294 F2300
G1 X49.3 Y33.7294 E23415.5 F2300
G1 X49.3 Y36.5579 F2300
G1 X36.5579 Y49.3 E23433.5 F2300
G1 X39.3863 F2300
G1 X49.3 Y39.3863 E23447.5 F2300
G1 X49.3 Y42.2147 F2300
G1 X42.2147 Y49.3 E23457.5 F2300
G1 X45.0431 F2300
G1 X49.3 Y45.0432 E23463.5 F2300
G1 Y47.8716 F2300
G1 X47.8716 Y49.3 E23465.6 F2300
G1 F70
G1 Z10.4 F70

G1 F2300
G1 X48.898 F2300
G1 X10.7 Y11.102 E23519.6 F2300
G1 X10.35 Y10.35 F2300
G1 X49.65 E23558.9 F2300
G1 X49.65 Y49.65 E23598.2 F2300
G1 X10.35 E23637.5 F2300
G1 X10.35 Y10.35 E23676.8 F2300
G1 X13.1264 Y10.7 F2300
G1 X49.3 Y46.8736 E23727.9 F2300
G1 X49.3 Y44.0451 F2300
G1 X15.9548 Y10.7 E23775.1 F2300
G1 X18.7833 F2300
G1 X49.3 Y41.2167 E23818.2 F2300
G1 X49.3 Y38.3883 F2300
G1 X21.6117 Y10.7 E23857.4 F2300
G1 X24.4401 F2300
G1 X49.3 Y35.5599 E23892.6 F2300
G1 Y32.7314 F2300
G1 X27.2685 Y10.7 E23923.7 F2300
G1 X30.097 F2300
G1 X49.3 Y29.903 E23950.9 F2300
G1 Y27.0746 F2300
G1 X32.9254 Y10.7 E23974 F2300
G1 X35.7538 Y10.7 F2300
G1 X49.3 Y24.2462 E23993.2 F2300
G1 Y21.4177 F2300
G1 X38.5823 Y10.7 E24008.3 F2300
G1 X41.4107 F2300
G1 X49.3 Y18.5893 E24019.5 F2300
G1 Y15.7609 F2300
G1 X44.2391 Y10.7 E24026.6 F2300
G1 X47.0675 F2300
G1 X49.3 Y12.9324 E24029.8 F2300
G1 X46.0696 Y49.3 F2300
G1 X10.7 Y13.9305 E24079.8 F2300
G1 Y16.7589 F2300
G1 X43.2411 Y49.3 E24125.8 F2300
G1 X40.4127 F2300
G1 X10.7 Y19.5873 E24167.9 F2300
G1 X10.7 Y22.4157 F2300
G1 X37.5843 Y49.3 E24205.9 F2300
G1 X34.7559 F2300
G1 X10.7 Y25.2442 E24239.9 F2300
G1 X10.7 Y28.0726 F2300
G1 X31.9274 Y49.3 E24269.9 F2300
G1 X29.099 F2300
G1 X10.7 Y30.901 E24295.9 F2300
G1 X10.7 Y33.7294 F2300
G1 X26.2706 Y49.3 E24318 F2300
G1 X23.4421 F2300
G1 X10.7 Y36.5579 E24336 F2300
G1 X10.7 Y39.3863 F2300
G1 X20.6137 Y49.3 E24350 F2300
G1 X17.7853 F2300
G1 X10.7 Y42.2147 E24360 F2300
G1 Y45.0432 F2300
G1 X14.9569 Y49.3 E24366 F2300
G1 X12.1284 F2300
G1 X10.7 Y47.8716 E24368.1 F2300
G1 F70
G1 Z10.8 F70

G1 F2300
G1 X10.7 Y48.898 F2300
G1 X48.898 Y10.7 E24422.1 F2300
G1 X49.65 Y10.35 F2300
G1 X10.35 E24461.4 F2300
G1 X10.35 Y49.65 E24500.7 F2300
G1 X49.65 E24540 F2300
G1 X49.65 Y10.35 E24579.3 F2300
G1 X49.3 Y13.1264 F2300
G1 X13.1264 Y49.3 E24630.4 F2300
G1 X15.9548 F2300
G1 X49.3 Y15.9549 E24677.6 F2300
G1 Y18.7833 F2300
G1 X18.7832 Y49.3 E24720.8 F2300
G1 X21.6117 F2300
G1 X49.3 Y21.6117 E24759.9 F2300
G1 Y24.4401 F2300
G1 X24.4401 Y49.3 E24795.1 F2300
G1 X27.2685 F2300
G1 X49.3 Y27.2686 E24826.2 F2300
G1 Y30.097 F2300
G1 X30.097 Y49.3 E24853.4 F2300
G1 X32.9254 F2300
G1 X49.3 Y32.9254 E24876.5 F2300
G1 X49.3 Y35.7538 F2300
G1 X35.7538 Y49.3 E24895.7 F2300
G1 X38.5822 F2300
G1 X49.3 Y38.5823 E24910.8 F2300
G1 Y41.4107 F2300
G1 X41.4107 Y49.3 E24922 F2300
G1 X44.2391 F2300
G1 X49.3 Y44.2391 E24929.2 F2300
G1 Y47.0675 F2300
G1 X47.0675 Y49.3 E24932.3 F2300
G1 X10.7 Y46.0695 F2300
G1 X46.0696 Y10.7 E24982.3 F2300
G1 X43.2411 F2300
G1 X10.7 Y43.2411 E25028.4 F2300
G1 Y40.4127 F2300
G1 X40.4127 Y10.7 E25070.4 F2300
G1 X37.5843 F2300
G1 X10.7 Y37.5843 E25108.4 F2300
G1 Y34.7558 F2300
G1 X34.7559 Y10.7 E25142.4 F2300
G1 X31.9274 F2300
G1 X10.7 Y31.9274 E25172.4 F2300
G1 X10.7 Y29.099 F2300
G1 X29.099 Y10.7 E25198.4 F2300
G1 X26.2706 Y10.7 F2300
G1 X10.7 Y26.2706 E25220.5 F2300
G1 Y23.4421 F2300
G1 X23.4421 Y10.7 E25238.5 F2300
G1 X20.6137 F2300
G1 X10.7 Y20.6137 E25252.5 F2300
G1 Y17.7853 F2300
G1 X17.7853 Y10.7 E25262.5 F2300
G1 X14.9569 Y10.7 F2300
G1 X10.7 Y14.9568 E25268.5 F2300
G1 X10.7 Y12.1284 F2300
G1 X12.1284 Y10.7 E25270.6 F2300
G1 F70
G1 Z11.2 F70

G1 F2300
G1 X11.1021 F2300
G1 X49.3 Y48.898 E25324.6 F2300
G1 X49.65 Y49.65 F2300
G1 X10.35 E25363.9 F2300
G1 X10.35 Y10.35 E25403.2 F2300
G1 X49.65 E25442.5 F2300
G1 X49.65 Y49.65 E25481.8 F2300
G1 X46.8736 Y49.3 F2300
G1 X10.7 Y13.1264 E25532.9 F2300
G1 X10.7 Y15.9548 F2300
G1 X44.0451 Y49.3 E25580.1 F2300
G1 X41.2167 F2300
G1 X10.7 Y18.7832 E25623.3 F2300
G1 X10.7 Y21.6117 F2300
G1 X38.3883 Y49.3 E25662.4 F2300
G1 X35.5599 F2300
G1 X10.7 Y24.4401 E25697.6 F2300
G1 Y27.2685 F2300
G1 X32.7314 Y49.3 E25728.7 F2300
G1 X29.903 F2300
G1 X10.7 Y30.097 E25755.9 F2300
G1 X10.7 Y32.9254 F2300
G1 X27.0746 Y49.3 E25779 F2300
G1 X24.2462 F2300
G1 X10.7 Y35.7538 E25798.2 F2300
G1 X10.7 Y38.5822 F2300
G1 X21.4177 Y49.3 E25813.4 F2300
G1 X18.5893 F2300
G1 X10.7 Y41.4107 E25824.5 F2300
G1 X10.7 Y44.2391 F2300
G1 X15.7609 Y49.3 E25831.7 F2300
G1 X12.9325 F2300
G1 X10.7 Y47.0675 E25834.8 F2300
G1 X13.9305 Y10.7 F2300
G1 X49.3 Y46.0696 E25884.8 F2300
G1 Y43.2412 F2300
G1 X16.7589 Y10.7 E25930.9 F2300
G1 X19.5873 F2300
G1 X49.3 Y40.4127 E25972.9 F2300
G1 Y37.5843 F2300
G1 X22.4158 Y10.7 E26010.9 F2300
G1 X25.2442 F2300
G1 X49.3 Y34.7559 E26044.9 F2300
G1 X49.3 Y31.9274 F2300
G1 X28.0726 Y10.7 E26074.9 F2300
G1 X30.901 Y10.7 F2300
G1 X49.3 Y29.099 E26101 F2300
G1 Y26.2706 F2300
G1 X33.7295 Y10.7 E26123 F2300
G1 X36.5579 Y10.7 F2300
G1 X49.3 Y23.4421 E26141 F2300
G1 Y20.6137 F2300
G1 X39.3863 Y10.7 E26155 F2300
G1 X42.2147 Y10.7 F2300
G1 X49.3 Y17.7853 E26165 F2300
G1 Y14.9568 F2300
G1 X45.0432 Y10.7 E26171.1 F2300
G1 X47.8716 F2300
G1 X49.3 Y12.1284 E26173.1 F2300
G1 F70
G1 Z11.6 F70

G1 F2300
G1 X49.3 Y11.1021 F2300
G1 X11.102 Y49.3 E26227.1 F2300
G1 X10.35 Y49.65 F2300
G1 X10.35 Y10.35 E26266.4 F2300
G1 X49.65 E26305.7 F2300
G1 X49.65 Y49.65 E26345 F2300
G1 X10.35 E26384.3 F2300
G1 X10.7 Y46.8735 F2300
G1 X46.8736 Y10.7 E26435.5 F2300
G1 X44.0452 F2300
G1 X10.7 Y44.0451 E26482.6 F2300
G1 Y41.2167 F2300
G1 X41.2168 Y10.7 E26525.8 F2300
G1 X38.3884 F2300
G1 X10.7 Y38.3883 E26564.9 F2300
G1 X10.7 Y35.5598 F2300
G1 X35.5599 Y10.7 E26600.1 F2300
G1 X32.7315 F2300
G1 X10.7 Y32.7314 E26631.2 F2300
G1 Y29.903 F2300
G1 X29.9031 Y10.7 E26658.4 F2300
G1 X27.0746 F2300
G1 X10.7 Y27.0746 E26681.5 F2300
G1 X10.7 Y24.2461 F2300
G1 X24.2462 Y10.7 E26700.7 F2300
G1 X21.4178 F2300
G1 X10.7 Y21.4177 E26715.9 F2300
G1 X10.7 Y18.5893 F2300
G1 X18.5893 Y10.7 E26727 F2300
G1 X15.7609 F2300
G1 X10.7 Y15.7609 E26734.2 F2300
G1 Y12.9325 F2300
G1 X12.9325 Y10.7 E26737.3 F2300
G1 X49.3 Y13.9305 F2300
G1 X13.9304 Y49.3 E26787.3 F2300
G1 X16.7588 F2300
G1 X49.3 Y16.7589 E26833.4 F2300
G1 Y19.5874 F2300
G1 X19.5873 Y49.3 E26875.4 F2300
G1 X22.4157 F2300
G1 X49.3 Y22.4158 E26913.4 F2300
G1 Y25.2442 F2300
G1 X25.2441 Y49.3 E26947.4 F2300
G1 X28.0725 F2300
G1 X49.3 Y28.0726 E26977.4 F2300
G1 Y30.9011 F2300
G1 X30.901 Y49.3 E27003.5 F2300
G1 X33.7294 F2300
G1 X49.3 Y33.7295 E27025.5 F2300
G1 Y36.5579 F2300
G1 X36.5578 Y49.3 E27043.5 F2300
G1 X39.3863 F2300
G1 X49.3 Y39.3863 E27057.5 F2300
G1 X49.3 Y42.2147 F2300
G1 X42.2147 Y49.3 E27067.5 F2300
G1 X45.0431 F2300
G1 X49.3 Y45.0432 E27073.6 F2300
G1 X49.3 Y47.8716 F2300
G1 X47.8716 Y49.3 E27075.6 F2300
G1 F70
G1 Z12 F70

G1 F2300
G1 X48.898 F2300
G1 X10.7 Y11.1021 E27129.6 F2300
G1 X10.35 Y10.35 F2300
G1 X49.65 E27168.9 F2300
G1 X49.65 Y49.65 E27208.2 F2300
G1 X10.35 E27247.5 F2300
G1 X10.35 Y10.35 E27286.8 F2300
G1 X13.1264 Y10.7 F2300
G1 X49.3 Y46.8735 E27338 F2300
G1 Y44.0451 F2300
G1 X15.9548 Y10.7 E27385.1 F2300
G1 X18.7832 F2300
G1 X49.3 Y41.2167 E27428.3 F2300
G1 X49.3 Y38.3883 F2300
G1 X21.6116 Y10.7 E27467.4 F2300
G1 X24.4401 F2300
G1 X49.3 Y35.5598 E27502.6 F2300
G1 Y32.7314 F2300
G1 X27.2685 Y10.7 E27533.7 F2300
G1 X30.0969 Y10.7 F2300
G1 X49.3 Y29.903 E27560.9 F2300
G1 Y27.0746 F2300
G1 X32.9254 Y10.7 E27584.1 F2300
G1 X35.7538 Y10.7 F2300
G1 X49.3 Y24.2461 E27603.2 F2300
G1 Y21.4177 F2300
G1 X38.5822 Y10.7 E27618.4 F2300
G1 X41.4107 F2300
G1 X49.3 Y18.5893 E27629.5 F2300
G1 Y15.7609 F2300
G1 X44.2391 Y10.7 E27636.7 F2300
G1 X47.0675 F2300
G1 X49.3 Y12.9324 E27639.8 F2300
G1 X46.0696 Y49.3 F2300
G1 X10.7 Y13.9305 E27689.9 F2300
G1 Y16.7589 F2300
G1 X43.2412 Y49.3 E27735.9 F2300
G1 X40.4127 F2300
G1 X10.7 Y19.5874 E27777.9 F2300
G1 Y22.4158 F2300
G1 X37.5843 Y49.3 E27815.9 F2300
G1 X34.7559 F2300
G1 X10.7 Y25.2442 E27849.9 F2300
G1 X10.7 Y28.0726 F2300
G1 X31.9275 Y49.3 E27880 F2300
G1 X29.099 F2300
G1 X10.7 Y30.901 E27906 F2300
G1 Y33.7295 F2300
G1 X26.2706 Y49.3 E27928 F2300
G1 X23.4422 F2300
G1 X10.7 Y36.5579 E27946 F2300
G1 X10.7 Y39.3863 F2300
G1 X20.6137 Y49.3 E27960 F2300
G1 X17.7853 F2300
G1 X10.7 Y42.2147 E27970.1 F2300
G1 X10.7 Y45.0432 F2300
G1 X14.9569 Y49.3 E27976.1 F2300
G1 X12.1284 F2300
G1 X10.7 Y47.8716 E27978.1 F2300
G1 F70
G1 Z12.4 F70

G1 F2300
G1 X10.7 Y48.898 F2300
G1 X48.8979 Y10.7 E28032.1 F2300
G1 X49.65 Y10.35 F2300
G1 X10.35 E28071.4 F2300
G1 X10.35 Y49.65 E28110.7 F2300
G1 X49.65 E28150 F2300
G1 X49.65 Y10.35 E28189.3 F2300
G1 X49.3 Y13.1264 F2300
G1 X13.1264 Y49.3 E28240.5 F2300
G1 X15.9549 F2300
G1 X49.3 Y15.9548 E28287.6 F2300
G1 Y18.7832 F2300
G1 X18.7833 Y49.3 E28330.8 F2300
G1 X21.6117 F2300
G1 X49.3 Y21.6117 E28369.9 F2300
G1 Y24.4401 F2300
G1 X24.4401 Y49.3 E28405.1 F2300
G1 X27.2686 F2300
G1 X49.3 Y27.2685 E28436.2 F2300
G1 Y30.097 F2300
G1 X30.097 Y49.3 E28463.4 F2300
G1 X32.9254 F2300
G1 X49.3 Y32.9254 E28486.6 F2300
G1 Y35.7538 F2300
G1 X35.7538 Y49.3 E28505.7 F2300
G1 X38.5823 F2300
G1 X49.3 Y38.5823 E28520.9 F2300
G1 X49.3 Y41.4107 F2300
G1 X41.4107 Y49.3 E28532 F2300
G1 X44.2391 F2300
G1 X49.3 Y44.2391 E28539.2 F2300
G1 Y47.0675 F2300
G1 X47.0675 Y49.3 E28542.3 F2300
G1 X10.7 Y46.0696 F2300
G1 X46.0695 Y10.7 E28592.4 F2300
G1 X43.2411 F2300
G1 X10.7 Y43.2411 E28638.4 F2300
G1 X10.7 Y40.4127 F2300
G1 X40.4127 Y10.7 E28680.4 F2300
G1 X37.5842 F2300
G1 X10.7 Y37.5843 E28718.4 F2300
G1 Y34.7559 F2300
G1 X34.7558 Y10.7 E28752.4 F2300
G1 X31.9274 F2300
G1 X10.7 Y31.9274 E28782.5 F2300
G1 X10.7 Y29.099 F2300
G1 X29.099 Y10.7 E28808.5 F2300
G1 X26.2705 F2300
G1 X10.7 Y26.2706 E28830.5 F2300
G1 X10.7 Y23.4421 F2300
G1 X23.4421 Y10.7 E28848.5 F2300
G1 X20.6137 Y10.7 F2300
G1 X10.7 Y20.6137 E28862.5 F2300
G1 X10.7 Y17.7853 F2300
G1 X17.7853 Y10.7 E28872.6 F2300
G1 X14.9569 F2300
G1 X10.7 Y14.9569 E28878.6 F2300
G1 X10.7 Y12.1284 F2300
G1 X12.1284 Y10.7 E28880.6 F2300
G1 F70
G1 Z12.8 F70

G1 F2300
G1 X11.102 F2300
G1 X49.3 Y48.898 E28934.6 F2300
G1 X49.65 Y49.65 F2300
G1 X10.35 E28973.9 F2300
G1 X10.35 Y10.35 E29013.2 F2300
G1 X49.65 E29052.5 F2300
G1 X49.65 Y49.65 E29091.8 F2300
G1 X46.8736 Y49.3 F2300
G1 X10.7 Y13.1264 E29143 F2300
G1 Y15.9548 F2300
G1 X44.0452 Y49.3 E29190.1 F2300
G1 X41.2168 F2300
G1 X10.7 Y18.7833 E29233.3 F2300
G1 Y21.6117 F2300
G1 X38.3883 Y49.3 E29272.4 F2300
G1 X35.5599 F2300
G1 X10.7 Y24.4401 E29307.6 F2300
G1 Y27.2685 F2300
G1 X32.7315 Y49.3 E29338.8 F2300
G1 X29.903 F2300
G1 X10.7 Y30.097 E29365.9 F2300
G1 Y32.9254 F2300
G1 X27.0746 Y49.3 E29389.1 F2300
G1 X24.2462 F2300
G1 X10.7 Y35.7538 E29408.2 F2300
G1 Y38.5823 F2300
G1 X21.4178 Y49.3 E29423.4 F2300
G1 X18.5893 F2300
G1 X10.7 Y41.4107 E29434.5 F2300
G1 X10.7 Y44.2391 F2300
G1 X15.7609 Y49.3 E29441.7 F2300
G1 X12.9325 F2300
G1 X10.7 Y47.0675 E29444.9 F2300
G1 X13.9304 Y10.7 F2300
G1 X49.3 Y46.0695 E29494.9 F2300
G1 Y43.2411 F2300
G1 X16.7589 Y10.7 E29540.9 F2300
G1 X19.5873 F2300
G1 X49.3 Y40.4127 E29582.9 F2300
G1 Y37.5843 F2300
G1 X22.4157 Y10.7 E29620.9 F2300
G1 X25.2442 F2300
G1 X49.3 Y34.7558 E29654.9 F2300
G1 X49.3 Y31.9274 F2300
G1 X28.0726 Y10.7 E29685 F2300
G1 X30.901 F2300
G1 X49.3 Y29.099 E29711 F2300
G1 Y26.2705 F2300
G1 X33.7294 Y10.7 E29733 F2300
G1 X36.5579 F2300
G1 X49.3 Y23.4421 E29751 F2300
G1 Y20.6137 F2300
G1 X39.3863 Y10.7 E29765 F2300
G1 X42.2147 F2300
G1 X49.3 Y17.7853 E29775.1 F2300
G1 Y14.9568 F2300
G1 X45.0431 Y10.7 E29781.1 F2300
G1 X47.8716 Y10.7 F2300
G1 X49.3 Y12.1284 E29783.1 F2300
G1 F70
G1 Z13.2 F70

G1 F2300
G1 Y11.1021 F2300
G1 X11.102 Y49.3 E29837.1 F2300
G1 X10.35 Y49.65 F2300
G1 X10.35 Y10.35 E29876.4 F2300
G1 X49.65 E29915.7 F2300
G1 X49.65 Y49.65 E29955 F2300
G1 X10.35 E29994.3 F2300
G1 X10.7 Y46.8736 F2300
G1 X46.8736 Y10.7 E30045.5 F2300
G1 X44.0452 F2300
G1 X10.7 Y44.0451 E30092.6 F2300
G1 Y41.2167 F2300
G1 X41.2168 Y10.7 E30135.8 F2300
G1 X38.3883 Y10.7 F2300
G1 X10.7 Y38.3883 E30175 F2300
G1 X10.7 Y35.5599 F2300
G1 X35.5599 Y10.7 E30210.1 F2300
G1 X32.7315 Y10.7 F2300
G1 X10.7 Y32.7314 E30241.3 F2300
G1 Y29.903 F2300
G1 X29.903 Y10.7 E30268.4 F2300
G1 X27.0746 F2300
G1 X10.7 Y27.0746 E30291.6 F2300
G1 Y24.2462 F2300
G1 X24.2462 Y10.7 E30310.7 F2300
G1 X21.4178 F2300
G1 X10.7 Y21.4177 E30325.9 F2300
G1 X10.7 Y18.5893 F2300
G1 X18.5893 Y10.7 E30337 F2300
G1 X15.7609 F2300
G1 X10.7 Y15.7609 E30344.2 F2300
G1 Y12.9325 F2300
G1 X12.9325 Y10.7 E30347.4 F2300
G1 X49.3 Y13.9305 F2300
G1 X13.9304 Y49.3 E30397.4 F2300
G1 X16.7589 F2300
G1 X49.3 Y16.7589 E30443.4 F2300
G1 Y19.5873 F2300
G1 X19.5873 Y49.3 E30485.4 F2300
G1 X22.4157 F2300
G1 X49.3 Y22.4158 E30523.4 F2300
G1 Y25.2442 F2300
G1 X25.2441 Y49.3 E30557.5 F2300
G1 X28.0726 F2300
G1 X49.3 Y28.0726 E30587.5 F2300
G1 Y30.901 F2300
G1 X30.901 Y49.3 E30613.5 F2300
G1 X33.7294 F2300
G1 X49.3 Y33.7295 E30635.5 F2300
G1 X49.3 Y36.5579 F2300
G1 X36.5579 Y49.3 E30653.5 F2300
G1 X39.3863 F2300
G1 X49.3 Y39.3863 E30667.6 F2300
G1 Y42.2147 F2300
G1 X42.2147 Y49.3 E30677.6 F2300
G1 X45.0431 F2300
G1 X49.3 Y45.0432 E30683.6 F2300
G1 Y47.8716 F2300
G1 X47.8716 Y49.3 E30685.6 F2300
G1 F70
G1 Z13.6 F70

G1 F2300
G1 X48.8979 F2300
G1 X10.7 Y11.102 E30739.6 F2300
G1 X10.35 Y10.35 F2300
G1 X49.65 E30778.9 F2300
G1 X49.65 Y49.65 E30818.2 F2300
G1 X10.35 E30857.5 F2300
G1 X10.35 Y10.35 E30896.8 F2300
G1 X13.1264 Y10.7 F2300
G1 X49.3 Y46.8736 E30948 F2300
G1 Y44.0452 F2300
G1 X15.9549 Y10.7 E30995.1 F2300
G1 X18.7833 F2300
G1 X49.3 Y41.2168 E31038.3 F2300
G1 Y38.3883 F2300
G1 X21.6117 Y10.7 E31077.5 F2300
G1 X24.4401 F2300
G1 X49.3 Y35.5599 E31112.6 F2300
G1 Y32.7315 F2300
G1 X27.2686 Y10.7 E31143.8 F2300
G1 X30.097 Y10.7 F2300
G1 X49.3 Y29.903 E31170.9 F2300
G1 Y27.0746 F2300
G1 X32.9254 Y10.7 E31194.1 F2300
G1 X35.7538 F2300
G1 X49.3 Y24.2462 E31213.2 F2300
G1 Y21.4178 F2300
G1 X38.5823 Y10.7 E31228.4 F2300
G1 X41.4107 F2300
G1 X49.3 Y18.5893 E31239.6 F2300
G1 Y15.7609 F2300
G1 X44.2391 Y10.7 E31246.7 F2300
G1 X47.0675 F2300
G1 X49.3 Y12.9325 E31249.9 F2300
G1 X46.0695 Y49.3 F2300
G1 X10.7 Y13.9304 E31299.9 F2300
G1 Y16.7588 F2300
G1 X43.2411 Y49.3 E31345.9 F2300
G1 X40.4127 F2300
G1 X10.7 Y19.5873 E31387.9 F2300
G1 X10.7 Y22.4157 F2300
G1 X37.5842 Y49.3 E31425.9 F2300
G1 X34.7558 F2300
G1 X10.7 Y25.2441 E31460 F2300
G1 Y28.0726 F2300
G1 X31.9274 Y49.3 E31490 F2300
G1 X29.099 F2300
G1 X10.7 Y30.901 E31516 F2300
G1 Y33.7294 F2300
G1 X26.2705 Y49.3 E31538 F2300
G1 X23.4421 F2300
G1 X10.7 Y36.5579 E31556 F2300
G1 X10.7 Y39.3863 F2300
G1 X20.6137 Y49.3 E31570.1 F2300
G1 X17.7853 F2300
G1 X10.7 Y42.2147 E31580.1 F2300
G1 Y45.0432 F2300
G1 X14.9568 Y49.3 E31586.1 F2300
G1 X12.1284 F2300
G1 X10.7 Y47.8716 E31588.1 F2300
G1 F70
G1 Z14 F70

G1 F2300
G1 X10.7 Y48.8979 F2300
G1 X48.898 Y10.7 E31642.1 F2300
G1 X49.65 Y10.35 F2300
G1 X10.35 E31681.4 F2300
G1 X10.35 Y49.65 E31720.7 F2300
G1 X49.65 E31760 F2300
G1 X49.65 Y10.35 E31799.3 F2300
G1 X49.3 Y13.1265 F2300
G1 X13.1263 Y49.3 E31850.5 F2300
G1 X15.9548 F2300
G1 X49.3 Y15.9549 E31897.7 F2300
G1 Y18.7833 F2300
G1 X18.7832 Y49.3 E31940.8 F2300
G1 X21.6116 F2300
G1 X49.3 Y21.6117 E31980 F2300
G1 Y24.4402 F2300
G1 X24.4401 Y49.3 E32015.1 F2300
G1 X27.2685 F2300
G1 X49.3 Y27.2686 E32046.3 F2300
G1 Y30.097 F2300
G1 X30.0969 Y49.3 E32073.4 F2300
G1 X32.9254 F2300
G1 X49.3 Y32.9254 E32096.6 F2300
G1 X49.3 Y35.7539 F2300
G1 X35.7538 Y49.3 E32115.8 F2300
G1 X38.5822 F2300
G1 X49.3 Y38.5823 E32130.9 F2300
G1 Y41.4107 F2300
G1 X41.4107 Y49.3 E32142.1 F2300
G1 X44.2391 F2300
G1 X49.3 Y44.2391 E32149.2 F2300
G1 Y47.0675 F2300
G1 X47.0675 Y49.3 E32152.4 F2300
G1 X10.7 Y46.0695 F2300
G1 X46.0696 Y10.7 E32202.4 F2300
G1 X43.2412 F2300
G1 X10.7 Y43.2411 E32248.4 F2300
G1 Y40.4126 F2300
G1 X40.4127 Y10.7 E32290.4 F2300
G1 X37.5843 F2300
G1 X10.7 Y37.5842 E32328.5 F2300
G1 X10.7 Y34.7558 F2300
G1 X34.7559 Y10.7 E32362.5 F2300
G1 X31.9275 F2300
G1 X10.7 Y31.9274 E32392.5 F2300
G1 Y29.099 F2300
G1 X29.099 Y10.7 E32418.5 F2300
G1 X26.2706 F2300
G1 X10.7 Y26.2705 E32440.5 F2300
G1 Y23.4421 F2300
G1 X23.4422 Y10.7 E32458.6 F2300
G1 X20.6137 Y10.7 F2300
G1 X10.7 Y20.6137 E32472.6 F2300
G1 X10.7 Y17.7853 F2300
G1 X17.7853 Y10.7 E32482.6 F2300
G1 X14.9569 F2300
G1 X10.7 Y14.9568 E32488.6 F2300
G1 Y12.1284 F2300
G1 X12.1284 Y10.7 E32490.6 F2300
G1 F70
G1 Z14.4 F70

G1 F2300
G1 X11.102 F2300
G1 X49.3 Y48.8979 E32544.6 F2300
G1 X49.65 Y49.65 F2300
G1 X10.35 E32583.9 F2300
G1 X10.35 Y10.35 E32623.2 F2300
G1 X49.65 E32662.6 F2300
G1 X49.65 Y49.65 E32701.9 F2300
G1 X46.8736 Y49.3 F2300
G1 X10.7 Y13.1265 E32753 F2300
G1 Y15.9549 F2300
G1 X44.0452 Y49.3 E32800.2 F2300
G1 X41.2168 F2300
G1 X10.7 Y18.7833 E32843.3 F2300
G1 Y21.6117 F2300
G1 X38.3884 Y49.3 E32882.5 F2300
G1 X35.5599 F2300
G1 X10.7 Y24.4402 E32917.6 F2300
G1 X10.7 Y27.2686 F2300
G1 X32.7315 Y49.3 E32948.8 F2300
G1 X29.9031 F2300
G1 X10.7 Y30.097 E32975.9 F2300
G1 X10.7 Y32.9254 F2300
G1 X27.0746 Y49.3 E32999.1 F2300
G1 X24.2462 F2300
G1 X10.7 Y35.7539 E33018.3 F2300
G1 Y38.5823 F2300
G1 X21.4178 Y49.3 E33033.4 F2300
G1 X18.5893 F2300
G1 X10.7 Y41.4107 E33044.6 F2300
G1 X10.7 Y44.2391 F2300
G1 X15.7609 Y49.3 E33051.7 F2300
G1 X12.9325 F2300
G1 X10.7 Y47.0675 E33054.9 F2300
G1 X13.9304 Y10.7 F2300
G1 X49.3 Y46.0695 E33104.9 F2300
G1 Y43.2411 F2300
G1 X16.7588 Y10.7 E33150.9 F2300
G1 X19.5873 F2300
G1 X49.3 Y40.4126 E33192.9 F2300
G1 Y37.5842 F2300
G1 X22.4157 Y10.7 E33231 F2300
G1 X25.2441 F2300
G1 X49.3 Y34.7558 E33265 F2300
G1 X49.3 Y31.9274 F2300
G1 X28.0726 Y10.7 E33295 F2300
G1 X30.901 Y10.7 F2300
G1 X49.3 Y29.099 E33321 F2300
G1 Y26.2705 F2300
G1 X33.7294 Y10.7 E33343 F2300
G1 X36.5578 Y10.7 F2300
G1 X49.3 Y23.4421 E33361.1 F2300
G1 Y20.6137 F2300
G1 X39.3863 Y10.7 E33375.1 F2300
G1 X42.2147 Y10.7 F2300
G1 X49.3 Y17.7853 E33385.1 F2300
G1 Y14.9568 F2300
G1 X45.0431 Y10.7 E33391.1 F2300
G1 X47.8716 F2300
G1 X49.3 Y12.1284 E33393.1 F2300
G1 F70
G1 Z14.8 F70

G1 F2300
G1 Y11.102 F2300
G1 X11.102 Y49.3 E33447.2 F2300
G1 X10.35 Y49.65 F2300
G1 X10.35 Y10.35 E33486.5 F2300
G1 X49.65 E33525.8 F2300
G1 X49.65 Y49.65 E33565.1 F2300
G1 X10.35 E33604.4 F2300
G1 X10.7 Y46.8736 F2300
G1 X46.8736 Y10.7 E33655.5 F2300
G1 X44.0451 F2300
G1 X10.7 Y44.0452 E33702.7 F2300
G1 Y41.2168 F2300
G1 X41.2167 Y10.7 E33745.8 F2300
G1 X38.3883 F2300
G1 X10.7 Y38.3883 E33785 F2300
G1 Y35.5599 F2300
G1 X35.5599 Y10.7 E33820.1 F2300
G1 X32.7314 F2300
G1 X10.7 Y32.7315 E33851.3 F2300
G1 X10.7 Y29.903 F2300
G1 X29.903 Y10.7 E33878.5 F2300
G1 X27.0746 F2300
G1 X10.7 Y27.0746 E33901.6 F2300
G1 X10.7 Y24.2462 F2300
G1 X24.2462 Y10.7 E33920.8 F2300
G1 X21.4177 Y10.7 F2300
G1 X10.7 Y21.4177 E33935.9 F2300
G1 X10.7 Y18.5893 F2300
G1 X18.5893 Y10.7 E33947.1 F2300
G1 X15.7609 Y10.7 F2300
G1 X10.7 Y15.7609 E33954.2 F2300
G1 X10.7 Y12.9325 F2300
G1 X12.9325 Y10.7 E33957.4 F2300
G1 X49.3 Y13.9304 F2300
G1 X13.9305 Y49.3 E34007.4 F2300
G1 X16.7589 F2300
G1 X49.3 Y16.7589 E34053.4 F2300
G1 X49.3 Y19.5873 F2300
G1 X19.5873 Y49.3 E34095.4 F2300
G1 X22.4157 F2300
G1 X49.3 Y22.4157 E34133.5 F2300
G1 Y25.2441 F2300
G1 X25.2442 Y49.3 E34167.5 F2300
G1 X28.0726 F2300
G1 X49.3 Y28.0726 E34197.5 F2300
G1 Y30.901 F2300
G1 X30.901 Y49.3 E34223.5 F2300
G1 X33.7294 F2300
G1 X49.3 Y33.7294 E34245.5 F2300
G1 X49.3 Y36.5579 F2300
G1 X36.5579 Y49.3 E34263.6 F2300
G1 X39.3863 F2300
G1 X49.3 Y39.3863 E34277.6 F2300
G1 X49.3 Y42.2147 F2300
G1 X42.2147 Y49.3 E34287.6 F2300
G1 X45.0431 F2300
G1 X49.3 Y45.0432 E34293.6 F2300
G1 Y47.8716 F2300
G1 X47.8716 Y49.3 E34295.6 F2300
G1 F70
G1 Z15.2 F70

G1 F2300
G1 X48.898 F2300
G1 X10.7 Y11.102 E34349.7 F2300
G1 X10.35 Y10.35 F2300
G1 X49.65 E34389 F2300
G1 X49.65 Y49.65 E34428.3 F2300
G1 X10.35 E34467.6 F2300
G1 X10.35 Y10.35 E34506.9 F2300
G1 X13.1264 Y10.7 F2300
G1 X49.3 Y46.8736 E34558 F2300
G1 X49.3 Y44.0452 F2300
G1 X15.9548 Y10.7 E34605.2 F2300
G1 X18.7833 F2300
G1 X49.3 Y41.2167 E34648.3 F2300
G1 X49.3 Y38.3883 F2300
G1 X21.6117 Y10.7 E34687.5 F2300
G1 X24.4401 F2300
G1 X49.3 Y35.5599 E34722.6 F2300
G1 Y32.7314 F2300
G1 X27.2685 Y10.7 E34753.8 F2300
G1 X30.097 F2300
G1 X49.3 Y29.903 E34781 F2300
G1 Y27.0746 F2300
G1 X32.9254 Y10.7 E34804.1 F2300
G1 X35.7538 Y10.7 F2300
G1 X49.3 Y24.2462 E34823.3 F2300
G1 Y21.4177 F2300
G1 X38.5823 Y10.7 E34838.4 F2300
G1 X41.4107 F2300
G1 X49.3 Y18.5893 E34849.6 F2300
G1 Y15.7609 F2300
G1 X44.2391 Y10.7 E34856.7 F2300
G1 X47.0675 F2300
G1 X49.3 Y12.9325 E34859.9 F2300
G1 X46.0696 Y49.3 F2300
G1 X10.7 Y13.9305 E34909.9 F2300
G1 X10.7 Y16.7589 F2300
G1 X43.2411 Y49.3 E34955.9 F2300
G1 X40.4127 F2300
G1 X10.7 Y19.5873 E34998 F2300
G1 Y22.4157 F2300
G1 X37.5843 Y49.3 E35036 F2300
G1 X34.7559 F2300
G1 X10.7 Y25.2442 E35070 F2300
G1 X10.7 Y28.0726 F2300
G1 X31.9274 Y49.3 E35100 F2300
G1 X29.099 F2300
G1 X10.7 Y30.901 E35126 F2300
G1 Y33.7295 F2300
G1 X26.2706 Y49.3 E35148.1 F2300
G1 X23.4421 F2300
G1 X10.7 Y36.5579 E35166.1 F2300
G1 X10.7 Y39.3863 F2300
G1 X20.6137 Y49.3 E35180.1 F2300
G1 X17.7853 F2300
G1 X10.7 Y42.2147 E35190.1 F2300
G1 Y45.0432 F2300
G1 X14.9569 Y49.3 E35196.1 F2300
G1 X12.1284 F2300
G1 X10.7 Y47.8716 E35198.2 F2300
G1 F70
G1 Z15.6 F70

G1 F2300
G1 X10.7 Y48.898 F2300
G1 X48.898 Y10.7 E35252.2 F2300
G1 X49.65 Y10.35 F2300
G1 X10.35 E35291.5 F2300
G1 X10.35 Y49.65 E35330.8 F2300
G1 X49.65 E35370.1 F2300
G1 X49.65 Y10.35 E35409.4 F2300
G1 X49.3 Y13.1264 F2300
G1 X13.1264 Y49.3 E35460.5 F2300
G1 X15.9548 F2300
G1 X49.3 Y15.9549 E35507.7 F2300
G1 Y18.7833 F2300
G1 X18.7832 Y49.3 E35550.8 F2300
G1 X21.6117 F2300
G1 X49.3 Y21.6117 E35590 F2300
G1 Y24.4401 F2300
G1 X24.4401 Y49.3 E35625.2 F2300
G1 X27.2685 F2300
G1 X49.3 Y27.2686 E35656.3 F2300
G1 Y30.097 F2300
G1 X30.097 Y49.3 E35683.5 F2300
G1 X32.9254 F2300
G1 X49.3 Y32.9254 E35706.6 F2300
G1 Y35.7538 F2300
G1 X35.7538 Y49.3 E35725.8 F2300
G1 X38.5822 F2300
G1 X49.3 Y38.5823 E35740.9 F2300
G1 Y41.4107 F2300
G1 X41.4107 Y49.3 E35752.1 F2300
G1 X44.2391 F2300
G1 X49.3 Y44.2391 E35759.2 F2300
G1 Y47.0675 F2300
G1 X47.0675 Y49.3 E35762.4 F2300
G1 X10.7 Y46.0695 F2300
G1 X46.0696 Y10.7 E35812.4 F2300
G1 X43.2411 F2300
G1 X10.7 Y43.2411 E35858.4 F2300
G1 Y40.4127 F2300
G1 X40.4127 Y10.7 E35900.5 F2300
G1 X37.5843 F2300
G1 X10.7 Y37.5842 E35938.5 F2300
G1 X10.7 Y34.7558 F2300
G1 X34.7559 Y10.7 E35972.5 F2300
G1 X31.9274 Y10.7 F2300
G1 X10.7 Y31.9274 E36002.5 F2300
G1 X10.7 Y29.099 F2300
G1 X29.099 Y10.7 E36028.5 F2300
G1 X26.2706 F2300
G1 X10.7 Y26.2705 E36050.6 F2300
G1 Y23.4421 F2300
G1 X23.4421 Y10.7 E36068.6 F2300
G1 X20.6137 F2300
G1 X10.7 Y20.6137 E36082.6 F2300
G1 Y17.7853 F2300
G1 X17.7853 Y10.7 E36092.6 F2300
G1 X14.9569 Y10.7 F2300
G1 X10.7 Y14.9568 E36098.6 F2300
G1 X10.7 Y12.1284 F2300
G1 X12.1284 Y10.7 E36100.7 F2300
G1 F70
G1 Z16 F70

G1 F2300
G1 X11.1021 F2300
G1 X49.3 Y48.898 E36154.7 F2300
G1 X49.65 Y49.65 F2300
G1 X10.35 E36194 F2300
G1 X10.35 Y10.35 E36233.3 F2300
G1 X49.65 E36272.6 F2300
G1 X49.65 Y49.65 E36311.9 F2300
G1 X46.8736 Y49.3 F2300
G1 X10.7 Y13.1264 E36363 F2300
G1 Y15.9548 F2300
G1 X44.0451 Y49.3 E36410.2 F2300
G1 X41.2167 F2300
G1 X10.7 Y18.7832 E36453.4 F2300
G1 Y21.6117 F2300
G1 X38.3883 Y49.3 E36492.5 F2300
G1 X35.5599 F2300
G1 X10.7 Y24.4401 E36527.7 F2300
G1 X10.7 Y27.2685 F2300
G1 X32.7314 Y49.3 E36558.8 F2300
G1 X29.903 F2300
G1 X10.7 Y30.097 E36586 F2300
G1 X10.7 Y32.9254 F2300
G1 X27.0746 Y49.3 E36609.1 F2300
G1 X24.2462 F2300
G1 X10.7 Y35.7538 E36628.3 F2300
G1 Y38.5822 F2300
G1 X21.4177 Y49.3 E36643.4 F2300
G1 X18.5893 F2300
G1 X10.7 Y41.4107 E36654.6 F2300
G1 Y44.2391 F2300
G1 X15.7609 Y49.3 E36661.8 F2300
G1 X12.9325 F2300
G1 X10.7 Y47.0675 E36664.9 F2300
G1 X13.9305 Y10.7 F2300
G1 X49.3 Y46.0696 E36714.9 F2300
G1 Y43.2412 F2300
G1 X16.7589 Y10.7 E36761 F2300
G1 X19.5873 F2300
G1 X49.3 Y40.4127 E36803 F2300
G1 Y37.5843 F2300
G1 X22.4158 Y10.7 E36841 F2300
G1 X25.2442 F2300
G1 X49.3 Y34.7559 E36875 F2300
G1 X49.3 Y31.9274 F2300
G1 X28.0726 Y10.7 E36905 F2300
G1 X30.901 F2300
G1 X49.3 Y29.099 E36931.1 F2300
G1 Y26.2706 F2300
G1 X33.7295 Y10.7 E36953.1 F2300
G1 X36.5579 Y10.7 F2300
G1 X49.3 Y23.4421 E36971.1 F2300
G1 Y20.6137 F2300
G1 X39.3863 Y10.7 E36985.1 F2300
G1 X42.2147 Y10.7 F2300
G1 X49.3 Y17.7853 E36995.1 F2300
G1 Y14.9568 F2300
G1 X45.0432 Y10.7 E37001.1 F2300
G1 X47.8716 Y10.7 F2300
G1 X49.3 Y12.1284 E37003.2 F2300
G1 F70
G1 Z16.4 F70

G1 F2300
G1 Y11.1021 F2300
G1 X11.1019 Y49.3 E37057.2 F2300
G1 X10.35 Y49.65 F2300
G1 X10.35 Y10.35 E37096.5 F2300
G1 X49.65 E37135.8 F2300
G1 X49.65 Y49.65 E37175.1 F2300
G1 X10.35 E37214.4 F2300
G1 X10.7 Y46.8735 F2300
G1 X46.8737 Y10.7 E37265.5 F2300
G1 X44.0452 Y10.7 F2300
G1 X10.7 Y44.0451 E37312.7 F2300
G1 Y41.2167 F2300
G1 X41.2168 Y10.7 E37355.9 F2300
G1 X38.3884 F2300
G1 X10.7 Y38.3883 E37395 F2300
G1 Y35.5598 F2300
G1 X35.5599 Y10.7 E37430.2 F2300
G1 X32.7315 Y10.7 F2300
G1 X10.7 Y32.7314 E37461.3 F2300
G1 X10.7 Y29.903 F2300
G1 X29.9031 Y10.7 E37488.5 F2300
G1 X27.0746 Y10.7 F2300
G1 X10.7 Y27.0746 E37511.6 F2300
G1 Y24.2461 F2300
G1 X24.2462 Y10.7 E37530.8 F2300
G1 X21.4178 Y10.7 F2300
G1 X10.7 Y21.4177 E37546 F2300
G1 Y18.5893 F2300
G1 X18.5893 Y10.7 E37557.1 F2300
G1 X15.7609 Y10.7 F2300
G1 X10.7 Y15.7609 E37564.3 F2300
G1 X10.7 Y12.9325 F2300
G1 X12.9325 Y10.7 E37567.4 F2300
G1 X49.3 Y13.9305 F2300
G1 X13.9304 Y49.3 E37617.4 F2300
G1 X16.7588 F2300
G1 X49.3 Y16.7589 E37663.5 F2300
G1 Y19.5874 F2300
G1 X19.5872 Y49.3 E37705.5 F2300
G1 X22.4157 F2300
G1 X49.3 Y22.4158 E37743.5 F2300
G1 Y25.2442 F2300
G1 X25.2441 Y49.3 E37777.5 F2300
G1 X28.0725 F2300
G1 X49.3 Y28.0726 E37807.5 F2300
G1 Y30.9011 F2300
G1 X30.901 Y49.3 E37833.6 F2300
G1 X33.7294 F2300
G1 X49.3 Y33.7295 E37855.6 F2300
G1 Y36.5579 F2300
G1 X36.5578 Y49.3 E37873.6 F2300
G1 X39.3863 F2300
G1 X49.3 Y39.3863 E37887.6 F2300
G1 Y42.2147 F2300
G1 X42.2147 Y49.3 E37897.6 F2300
G1 X45.0431 F2300
G1 X49.3 Y45.0432 E37903.7 F2300
G1 X49.3 Y47.8716 F2300
G1 X47.8716 Y49.3 E37905.7 F2300
G1 F70
G1 Z16.8 F70

G1 F2300
G1 X48.898 F2300
G1 X10.7 Y11.1021 E37959.7 F2300
G1 X10.35 Y10.35 F2300
G1 X49.65 E37999 F2300
G1 Y49.65 E38038.3 F2300
G1 X10.35 E38077.6 F2300
G1 X10.35 Y10.35 E38116.9 F2300
G1 X13.1264 Y10.7 F2300
G1 X49.3 Y46.8735 E38168.1 F2300
G1 Y44.0451 F2300
G1 X15.9548 Y10.7 E38215.2 F2300
G1 X18.7832 F2300
G1 X49.3 Y41.2167 E38258.4 F2300
G1 Y38.3883 F2300
G1 X21.6116 Y10.7 E38297.5 F2300
G1 X24.4401 F2300
G1 X49.3 Y35.5598 E38332.7 F2300
G1 Y32.7314 F2300
G1 X27.2685 Y10.7 E38363.8 F2300
G1 X30.0969 F2300
G1 X49.3 Y29.903 E38391 F2300
G1 X49.3 Y27.0746 F2300
G1 X32.9254 Y10.7 E38414.1 F2300
G1 X35.7538 Y10.7 F2300
G1 X49.3 Y24.2461 E38433.3 F2300
G1 X49.3 Y21.4177 F2300
G1 X38.5822 Y10.7 E38448.5 F2300
G1 X41.4107 Y10.7 F2300
G1 X49.3 Y18.5893 E38459.6 F2300
G1 Y15.7609 F2300
G1 X44.2391 Y10.7 E38466.8 F2300
G1 X47.0675 Y10.7 F2300
G1 X49.3 Y12.9325 E38469.9 F2300
G1 X46.0696 Y49.3 F2300
G1 X10.7 Y13.9305 E38519.9 F2300
G1 X10.7 Y16.7589 F2300
G1 X43.2412 Y49.3 E38566 F2300
G1 X40.4127 F2300
G1 X10.7 Y19.5873 E38608 F2300
G1 X10.7 Y22.4158 F2300
G1 X37.5843 Y49.3 E38646 F2300
G1 X34.7559 F2300
G1 X10.7 Y25.2442 E38680 F2300
G1 X10.7 Y28.0726 F2300
G1 X31.9275 Y49.3 E38710 F2300
G1 X29.099 F2300
G1 X10.7 Y30.901 E38736.1 F2300
G1 X10.7 Y33.7295 F2300
G1 X26.2706 Y49.3 E38758.1 F2300
G1 X23.4422 F2300
G1 X10.7 Y36.5579 E38776.1 F2300
G1 Y39.3863 F2300
G1 X20.6137 Y49.3 E38790.1 F2300
G1 X17.7853 F2300
G1 X10.7 Y42.2147 E38800.1 F2300
G1 Y45.0432 F2300
G1 X14.9569 Y49.3 E38806.2 F2300
G1 X12.1284 F2300
G1 X10.7 Y47.8716 E38808.2 F2300
G1 F70
G1 Z17.2 F70

G1 F2300
G1 X10.7 Y48.8979 F2300
G1 X48.8981 Y10.7 E38862.2 F2300
G1 X49.65 Y10.35 F2300
G1 X10.35 E38901.5 F2300
G1 X10.35 Y49.65 E38940.8 F2300
G1 X49.65 E38980.1 F2300
G1 Y10.35 E39019.4 F2300
G1 X49.3 Y13.1265 F2300
G1 X13.1263 Y49.3 E39070.6 F2300
G1 X15.9547 F2300
G1 X49.3 Y15.9549 E39117.7 F2300
G1 Y18.7834 F2300
G1 X18.7832 Y49.3 E39160.9 F2300
G1 X21.6116 F2300
G1 X49.3 Y21.6118 E39200 F2300
G1 Y24.4402 F2300
G1 X24.44 Y49.3 E39235.2 F2300
G1 X27.2685 F2300
G1 X49.3 Y27.2686 E39266.3 F2300
G1 Y30.097 F2300
G1 X30.0969 Y49.3 E39293.5 F2300
G1 X32.9253 F2300
G1 X49.3 Y32.9255 E39316.7 F2300
G1 Y35.7539 F2300
G1 X35.7538 Y49.3 E39335.8 F2300
G1 X38.5822 F2300
G1 X49.3 Y38.5823 E39351 F2300
G1 Y41.4107 F2300
G1 X41.4107 Y49.3 E39362.1 F2300
G1 X44.2391 F2300
G1 X49.3 Y44.2391 E39369.3 F2300
G1 Y47.0675 F2300
G1 X47.0675 Y49.3 E39372.4 F2300
G1 X10.7 Y46.0694 F2300
G1 X46.0697 Y10.7 E39422.5 F2300
G1 X43.2412 F2300
G1 X10.7 Y43.241 E39468.5 F2300
G1 Y40.4126 F2300
G1 X40.4128 Y10.7 E39510.5 F2300
G1 X37.5844 F2300
G1 X10.7 Y37.5842 E39548.5 F2300
G1 Y34.7558 F2300
G1 X34.7559 Y10.7 E39582.5 F2300
G1 X31.9275 F2300
G1 X10.7 Y31.9273 E39612.6 F2300
G1 Y29.0989 F2300
G1 X29.099 Y10.7 E39638.6 F2300
G1 X26.2706 Y10.7 F2300
G1 X10.7 Y26.2705 E39660.6 F2300
G1 Y23.4421 F2300
G1 X23.4422 Y10.7 E39678.6 F2300
G1 X20.6137 F2300
G1 X10.7 Y20.6137 E39692.6 F2300
G1 X10.7 Y17.7853 F2300
G1 X17.7853 Y10.7 E39702.7 F2300
G1 X14.9569 F2300
G1 X10.7 Y14.9568 E39708.7 F2300
G1 X10.7 Y12.1284 F2300
G1 X12.1284 Y10.7 E39710.7 F2300
G1 F70
G1 Z17.6 F70

G1 F2300
G1 X11.102 F2300
G1 X49.3 Y48.898 E39764.7 F2300
G1 X49.65 Y49.65 F2300
G1 X10.35 E39804 F2300
G1 X10.35 Y10.35 E39843.3 F2300
G1 X49.65 E39882.6 F2300
G1 Y49.65 E39921.9 F2300
G1 X46.8736 Y49.3 F2300
G1 X10.7 Y13.1264 E39973.1 F2300
G1 Y15.9548 F2300
G1 X44.0452 Y49.3 E40020.2 F2300
G1 X41.2167 F2300
G1 X10.7 Y18.7833 E40063.4 F2300
G1 Y21.6117 F2300
G1 X38.3883 Y49.3 E40102.5 F2300
G1 X35.5599 F2300
G1 X10.7 Y24.4401 E40137.7 F2300
G1 X10.7 Y27.2686 F2300
G1 X32.7315 Y49.3 E40168.9 F2300
G1 X29.903 F2300
G1 X10.7 Y30.097 E40196 F2300
G1 Y32.9254 F2300
G1 X27.0746 Y49.3 E40219.2 F2300
G1 X24.2462 F2300
G1 X10.7 Y35.7538 E40238.3 F2300
G1 X10.7 Y38.5823 F2300
G1 X21.4178 Y49.3 E40253.5 F2300
G1 X18.5893 F2300
G1 X10.7 Y41.4107 E40264.6 F2300
G1 X10.7 Y44.2391 F2300
G1 X15.7609 Y49.3 E40271.8 F2300
G1 X12.9325 F2300
G1 X10.7 Y47.0675 E40274.9 F2300
G1 X13.9304 Y10.7 F2300
G1 X49.3 Y46.0695 E40325 F2300
G1 Y43.2411 F2300
G1 X16.7589 Y10.7 E40371 F2300
G1 X19.5873 F2300
G1 X49.3 Y40.4127 E40413 F2300
G1 Y37.5843 F2300
G1 X22.4157 Y10.7 E40451 F2300
G1 X25.2442 F2300
G1 X49.3 Y34.7558 E40485 F2300
G1 Y31.9274 F2300
G1 X28.0726 Y10.7 E40515.1 F2300
G1 X30.901 F2300
G1 X49.3 Y29.099 E40541.1 F2300
G1 Y26.2706 F2300
G1 X33.7294 Y10.7 E40563.1 F2300
G1 X36.5579 F2300
G1 X49.3 Y23.4421 E40581.1 F2300
G1 Y20.6137 F2300
G1 X39.3863 Y10.7 E40595.1 F2300
G1 X42.2147 F2300
G1 X49.3 Y17.7853 E40605.2 F2300
G1 Y14.9568 F2300
G1 X45.0432 Y10.7 E40611.2 F2300
G1 X47.8716 Y10.7 F2300
G1 X49.3 Y12.1284 E40613.2 F2300
G1 F70
G1 Z18 F70

G1 F2300
G1 X49.3 Y11.1019 F2300
G1 X11.1021 Y49.3 E40667.2 F2300
G1 X10.35 Y49.65 F2300
G1 X10.35 Y10.35 E40706.5 F2300
G1 X49.65 E40745.8 F2300
G1 Y49.65 E40785.1 F2300
G1 X10.35 E40824.4 F2300
G1 X10.7 Y46.8737 F2300
G1 X46.8735 Y10.7 E40875.6 F2300
G1 X44.0451 F2300
G1 X10.7 Y44.0453 E40922.7 F2300
G1 Y41.2168 F2300
G1 X41.2166 Y10.7 E40965.9 F2300
G1 X38.3882 F2300
G1 X10.7 Y38.3884 E41005 F2300
G1 Y35.56 F2300
G1 X35.5598 Y10.7 E41040.2 F2300
G1 X32.7314 F2300
G1 X10.7 Y32.7315 E41071.4 F2300
G1 Y29.9031 F2300
G1 X29.903 Y10.7 E41098.5 F2300
G1 X27.0746 Y10.7 F2300
G1 X10.7 Y27.0747 E41121.7 F2300
G1 X10.7 Y24.2462 F2300
G1 X24.2461 Y10.7 E41140.8 F2300
G1 X21.4177 F2300
G1 X10.7 Y21.4178 E41156 F2300
G1 X10.7 Y18.5893 F2300
G1 X18.5893 Y10.7 E41167.1 F2300
G1 X15.7609 Y10.7 F2300
G1 X10.7 Y15.7609 E41174.3 F2300
G1 Y12.9325 F2300
G1 X12.9325 Y10.7 E41177.5 F2300
G1 X49.3 Y13.9303 F2300
G1 X13.9306 Y49.3 E41227.5 F2300
G1 X16.759 F2300
G1 X49.3 Y16.7588 E41273.5 F2300
G1 Y19.5872 F2300
G1 X19.5874 Y49.3 E41315.5 F2300
G1 X22.4158 F2300
G1 X49.3 Y22.4157 E41353.5 F2300
G1 X49.3 Y25.2441 F2300
G1 X25.2442 Y49.3 E41387.6 F2300
G1 X28.0727 F2300
G1 X49.3 Y28.0725 E41417.6 F2300
G1 X49.3 Y30.901 F2300
G1 X30.9011 Y49.3 E41443.6 F2300
G1 X33.7295 F2300
G1 X49.3 Y33.7294 E41465.6 F2300
G1 Y36.5578 F2300
G1 X36.5579 Y49.3 E41483.6 F2300
G1 X39.3863 F2300
G1 X49.3 Y39.3863 E41497.6 F2300
G1 X49.3 Y42.2147 F2300
G1 X42.2147 Y49.3 E41507.7 F2300
G1 X45.0432 F2300
G1 X49.3 Y45.0431 E41513.7 F2300
G1 Y47.8716 F2300
G1 X47.8716 Y49.3 E41515.7 F2300
G1 F70
G1 Z18.4 F70

G1 F2300
G1 X48.8979 F2300
G1 X10.7 Y11.102 E41569.7 F2300
G1 X10.35 Y10.35 F2300
G1 X49.65 E41609 F2300
G1 Y49.65 E41648.3 F2300
G1 X10.35 E41687.6 F2300
G1 X10.35 Y10.35 E41726.9 F2300
G1 X13.1264 Y10.7 F2300
G1 X49.3 Y46.8736 E41778.1 F2300
G1 Y44.0452 F2300
G1 X15.9549 Y10.7 E41825.2 F2300
G1 X18.7833 F2300
G1 X49.3 Y41.2168 E41868.4 F2300
G1 Y38.3883 F2300
G1 X21.6117 Y10.7 E41907.6 F2300
G1 X24.4401 F2300
G1 X49.3 Y35.5599 E41942.7 F2300
G1 X49.3 Y32.7315 F2300
G1 X27.2686 Y10.7 E41973.9 F2300
G1 X30.097 F2300
G1 X49.3 Y29.903 E42001 F2300
G1 X49.3 Y27.0746 F2300
G1 X32.9254 Y10.7 E42024.2 F2300
G1 X35.7538 F2300
G1 X49.3 Y24.2462 E42043.3 F2300
G1 X49.3 Y21.4178 F2300
G1 X38.5823 Y10.7 E42058.5 F2300
G1 X41.4107 F2300
G1 X49.3 Y18.5893 E42069.6 F2300
G1 X49.3 Y15.7609 F2300
G1 X44.2391 Y10.7 E42076.8 F2300
G1 X47.0675 F2300
G1 X49.3 Y12.9325 E42080 F2300
G1 X46.0695 Y49.3 F2300
G1 X10.7 Y13.9304 E42130 F2300
G1 Y16.7588 F2300
G1 X43.2411 Y49.3 E42176 F2300
G1 X40.4127 F2300
G1 X10.7 Y19.5873 E42218 F2300
G1 Y22.4157 F2300
G1 X37.5842 Y49.3 E42256 F2300
G1 X34.7558 F2300
G1 X10.7 Y25.2441 E42290.1 F2300
G1 Y28.0726 F2300
G1 X31.9274 Y49.3 E42320.1 F2300
G1 X29.099 F2300
G1 X10.7 Y30.901 E42346.1 F2300
G1 X10.7 Y33.7294 F2300
G1 X26.2705 Y49.3 E42368.1 F2300
G1 X23.4421 F2300
G1 X10.7 Y36.5579 E42386.1 F2300
G1 Y39.3863 F2300
G1 X20.6137 Y49.3 E42400.2 F2300
G1 X17.7853 F2300
G1 X10.7 Y42.2147 E42410.2 F2300
G1 Y45.0432 F2300
G1 X14.9569 Y49.3 E42416.2 F2300
G1 X12.1284 F2300
G1 X10.7 Y47.8716 E42418.2 F2300
G1 F70
G1 Z18.8 F70

G1 F2300
G1 X10.7 Y48.898 F2300
G1 X48.8979 Y10.7 E42472.2 F2300
G1 X49.65 Y10.35 F2300
G1 X10.35 E42511.5 F2300
G1 X10.35 Y49.65 E42550.8 F2300
G1 X49.65 E42590.1 F2300
G1 Y10.35 E42629.4 F2300
G1 X49.3 Y13.1263 F2300
G1 X13.1265 Y49.3 E42680.6 F2300
G1 X15.9549 F2300
G1 X49.3 Y15.9548 E42727.8 F2300
G1 Y18.7832 F2300
G1 X18.7833 Y49.3 E42770.9 F2300
G1 X21.6117 F2300
G1 X49.3 Y21.6116 E42810.1 F2300
G1 Y24.4401 F2300
G1 X24.4402 Y49.3 E42845.2 F2300
G1 X27.2686 F2300
G1 X49.3 Y27.2685 E42876.4 F2300
G1 Y30.0969 F2300
G1 X30.097 Y49.3 E42903.5 F2300
G1 X32.9254 F2300
G1 X49.3 Y32.9254 E42926.7 F2300
G1 Y35.7538 F2300
G1 X35.7538 Y49.3 E42945.8 F2300
G1 X38.5823 F2300
G1 X49.3 Y38.5822 E42961 F2300
G1 X49.3 Y41.4107 F2300
G1 X41.4107 Y49.3 E42972.2 F2300
G1 X44.2391 F2300
G1 X49.3 Y44.2391 E42979.3 F2300
G1 X49.3 Y47.0675 F2300
G1 X47.0675 Y49.3 E42982.5 F2300
G1 X10.7 Y46.0696 F2300
G1 X46.0695 Y10.7 E43032.5 F2300
G1 X43.2411 F2300
G1 X10.7 Y43.2412 E43078.5 F2300
G1 Y40.4128 F2300
G1 X40.4126 Y10.7 E43120.5 F2300
G1 X37.5842 F2300
G1 X10.7 Y37.5843 E43158.5 F2300
G1 Y34.7559 F2300
G1 X34.7558 Y10.7 E43192.6 F2300
G1 X31.9274 F2300
G1 X10.7 Y31.9275 E43222.6 F2300
G1 X10.7 Y29.099 F2300
G1 X29.099 Y10.7 E43248.6 F2300
G1 X26.2705 F2300
G1 X10.7 Y26.2706 E43270.6 F2300
G1 Y23.4422 F2300
G1 X23.4421 Y10.7 E43288.6 F2300
G1 X20.6137 Y10.7 F2300
G1 X10.7 Y20.6137 E43302.7 F2300
G1 Y17.7853 F2300
G1 X17.7853 Y10.7 E43312.7 F2300
G1 X14.9568 F2300
G1 X10.7 Y14.9569 E43318.7 F2300
G1 X10.7 Y12.1284 F2300
G1 X12.1284 Y10.7 E43320.7 F2300
G1 F70
G1 Z19.2 F70

G1 F2300
G1 X11.1021 F2300
G1 X49.3 Y48.8981 E43374.7 F2300
G1 X49.65 Y49.65 F2300
G1 X10.35 E43414 F2300
G1 X10.35 Y10.35 E43453.3 F2300
G1 X49.65 E43492.6 F2300
G1 Y49.65 E43531.9 F2300
G1 X46.8735 Y49.3 F2300
G1 X10.7 Y13.1263 E43583.1 F2300
G1 X10.7 Y15.9548 F2300
G1 X44.0451 Y49.3 E43630.3 F2300
G1 X41.2167 F2300
G1 X10.7 Y18.7832 E43673.4 F2300
G1 X10.7 Y21.6116 F2300
G1 X38.3882 Y49.3 E43712.6 F2300
G1 X35.5598 F2300
G1 X10.7 Y24.4401 E43747.7 F2300
G1 Y27.2685 F2300
G1 X32.7314 Y49.3 E43778.9 F2300
G1 X29.903 F2300
G1 X10.7 Y30.0969 E43806 F2300
G1 Y32.9254 F2300
G1 X27.0746 Y49.3 E43829.2 F2300
G1 X24.2461 F2300
G1 X10.7 Y35.7538 E43848.4 F2300
G1 Y38.5822 F2300
G1 X21.4177 Y49.3 E43863.5 F2300
G1 X18.5893 F2300
G1 X10.7 Y41.4107 E43874.7 F2300
G1 Y44.2391 F2300
G1 X15.7609 Y49.3 E43881.8 F2300
G1 X12.9325 F2300
G1 X10.7 Y47.0675 E43885 F2300
G1 X13.9305 Y10.7 F2300
G1 X49.3 Y46.0696 E43935 F2300
G1 Y43.2412 F2300
G1 X16.759 Y10.7 E43981 F2300
G1 X19.5874 F2300
G1 X49.3 Y40.4128 E44023 F2300
G1 Y37.5843 F2300
G1 X22.4158 Y10.7 E44061.1 F2300
G1 X25.2442 F2300
G1 X49.3 Y34.7559 E44095.1 F2300
G1 Y31.9275 F2300
G1 X28.0726 Y10.7 E44125.1 F2300
G1 X30.9011 Y10.7 F2300
G1 X49.3 Y29.099 E44151.1 F2300
G1 Y26.2706 F2300
G1 X33.7295 Y10.7 E44173.1 F2300
G1 X36.5579 F2300
G1 X49.3 Y23.4422 E44191.2 F2300
G1 Y20.6137 F2300
G1 X39.3863 Y10.7 E44205.2 F2300
G1 X42.2147 F2300
G1 X49.3 Y17.7853 E44215.2 F2300
G1 Y14.9569 F2300
G1 X45.0432 Y10.7 E44221.2 F2300
G1 X47.8716 F2300
G1 X49.3 Y12.1284 E44223.2 F2300
G1 F70
G1 Z19.6 F70

G1 F2300
G1 X49.3 Y11.102 F2300
G1 X11.102 Y49.3 E44277.2 F2300
G1 X10.35 Y49.65 F2300
G1 X10.35 Y10.35 E44316.6 F2300
G1 X49.65 E44355.9 F2300
G1 Y49.65 E44395.2 F2300
G1 X10.35 E44434.5 F2300
G1 X10.7 Y46.8736 F2300
G1 X46.8736 Y10.7 E44485.6 F2300
G1 X44.0451 F2300
G1 X10.7 Y44.0452 E44532.8 F2300
G1 Y41.2168 F2300
G1 X41.2167 Y10.7 E44575.9 F2300
G1 X38.3883 F2300
G1 X10.7 Y38.3883 E44615.1 F2300
G1 X10.7 Y35.5599 F2300
G1 X35.5599 Y10.7 E44650.2 F2300
G1 X32.7314 F2300
G1 X10.7 Y32.7315 E44681.4 F2300
G1 Y29.903 F2300
G1 X29.903 Y10.7 E44708.5 F2300
G1 X27.0746 Y10.7 F2300
G1 X10.7 Y27.0746 E44731.7 F2300
G1 X10.7 Y24.2462 F2300
G1 X24.2462 Y10.7 E44750.9 F2300
G1 X21.4177 F2300
G1 X10.7 Y21.4177 E44766 F2300
G1 X10.7 Y18.5893 F2300
G1 X18.5893 Y10.7 E44777.2 F2300
G1 X15.7609 F2300
G1 X10.7 Y15.7609 E44784.3 F2300
G1 X10.7 Y12.9325 F2300
G1 X12.9325 Y10.7 E44787.5 F2300
G1 X49.3 Y13.9304 F2300
G1 X13.9305 Y49.3 E44837.5 F2300
G1 X16.7589 F2300
G1 X49.3 Y16.7589 E44883.5 F2300
G1 X49.3 Y19.5873 F2300
G1 X19.5873 Y49.3 E44925.5 F2300
G1 X22.4157 F2300
G1 X49.3 Y22.4157 E44963.6 F2300
G1 Y25.2441 F2300
G1 X25.2442 Y49.3 E44997.6 F2300
G1 X28.0726 F2300
G1 X49.3 Y28.0726 E45027.6 F2300
G1 Y30.901 F2300
G1 X30.901 Y49.3 E45053.6 F2300
G1 X33.7294 F2300
G1 X49.3 Y33.7294 E45075.6 F2300
G1 X49.3 Y36.5579 F2300
G1 X36.5579 Y49.3 E45093.7 F2300
G1 X39.3863 F2300
G1 X49.3 Y39.3863 E45107.7 F2300
G1 Y42.2147 F2300
G1 X42.2147 Y49.3 E45117.7 F2300
G1 X45.0431 F2300
G1 X49.3 Y45.0432 E45123.7 F2300
G1 Y47.8716 F2300
G1 X47.8716 Y49.3 E45125.7 F2300
G1 F70
G1 Z20 F70

G1 F2300
G1 X48.8978 F2300
G1 X10.7 Y11.1019 E45179.8 F2300
G1 X10.35 Y10.35 F2300
G1 X49.65 E45219.1 F2300
G1 Y49.65 E45258.4 F2300
G1 X10.35 E45297.7 F2300
G1 X10.35 Y10.35 E45337 F2300
G1 X13.1265 Y10.7 F2300
G1 X49.3 Y46.8737 E45388.1 F2300
G1 X49.3 Y44.0453 F2300
G1 X15.955 Y10.7 E45435.3 F2300
G1 X18.7834 F2300
G1 X49.3 Y41.2168 E45478.4 F2300
G1 X49.3 Y38.3884 F2300
G1 X21.6118 Y10.7 E45517.6 F2300
G1 X24.4402 F2300
G1 X49.3 Y35.56 E45552.7 F2300
G1 X49.3 Y32.7315 F2300
G1 X27.2686 Y10.7 E45583.9 F2300
G1 X30.097 F2300
G1 X49.3 Y29.9031 E45611.1 F2300
G1 Y27.0747 F2300
G1 X32.9255 Y10.7 E45634.2 F2300
G1 X35.7539 Y10.7 F2300
G1 X49.3 Y24.2462 E45653.4 F2300
G1 X49.3 Y21.4178 F2300
G1 X38.5823 Y10.7 E45668.5 F2300
G1 X41.4107 F2300
G1 X49.3 Y18.5893 E45679.7 F2300
G1 X49.3 Y15.7609 F2300
G1 X44.2391 Y10.7 E45686.8 F2300
G1 X47.0675 F2300
G1 X49.3 Y12.9325 E45690 F2300
G1 X46.0694 Y49.3 F2300
G1 X10.7 Y13.9303 E45740 F2300
G1 Y16.7588 F2300
G1 X43.241 Y49.3 E45786 F2300
G1 X40.4126 Y49.3 F2300
G1 X10.7 Y19.5872 E45828.1 F2300
G1 Y22.4156 F2300
G1 X37.5842 Y49.3 E45866.1 F2300
G1 X34.7558 F2300
G1 X10.7 Y25.2441 E45900.1 F2300
G1 Y28.0725 F2300
G1 X31.9273 Y49.3 E45930.1 F2300
G1 X29.0989 F2300
G1 X10.7 Y30.9009 E45956.1 F2300
G1 Y33.7294 F2300
G1 X26.2705 Y49.3 E45978.1 F2300
G1 X23.4421 F2300
G1 X10.7 Y36.5578 E45996.2 F2300
G1 Y39.3863 F2300
G1 X20.6137 Y49.3 E46010.2 F2300
G1 X17.7853 F2300
G1 X10.7 Y42.2147 E46020.2 F2300
G1 X10.7 Y45.0431 F2300
G1 X14.9568 Y49.3 E46026.2 F2300
G1 X12.1284 F2300
G1 X10.7 Y47.8716 E46028.2 F2300
G1 F70
G1 Z20.4 F70

G1 F2300
G1 X10.7 Y48.898 F2300
G1 X48.898 Y10.7 E46082.3 F2300
G1 X49.65 Y10.35 F2300
G1 X10.35 E46121.6 F2300
G1 X10.35 Y49.65 E46160.9 F2300
G1 X49.65 E46200.2 F2300
G1 Y10.35 E46239.5 F2300
G1 X49.3 Y13.1264 F2300
G1 X13.1264 Y49.3 E46290.6 F2300
G1 X15.9548 F2300
G1 X49.3 Y15.9549 E46337.8 F2300
G1 Y18.7833 F2300
G1 X18.7832 Y49.3 E46380.9 F2300
G1 X21.6117 F2300
G1 X49.3 Y21.6117 E46420.1 F2300
G1 Y24.4401 F2300
G1 X24.4401 Y49.3 E46455.2 F2300
G1 X27.2685 F2300
G1 X49.3 Y27.2686 E46486.4 F2300
G1 Y30.097 F2300
G1 X30.097 Y49.3 E46513.6 F2300
G1 X32.9254 F2300
G1 X49.3 Y32.9254 E46536.7 F2300
G1 Y35.7538 F2300
G1 X35.7538 Y49.3 E46555.9 F2300
G1 X38.5822 F2300
G1 X49.3 Y38.5823 E46571 F2300
G1 Y41.4107 F2300
G1 X41.4107 Y49.3 E46582.2 F2300
G1 X44.2391 F2300
G1 X49.3 Y44.2391 E46589.3 F2300
G1 Y47.0675 F2300
G1 X47.0675 Y49.3 E46592.5 F2300
G1 X10.7 Y46.0695 F2300
G1 X46.0696 Y10.7 E46642.5 F2300
G1 X43.2411 F2300
G1 X10.7 Y43.2411 E46688.5 F2300
G1 Y40.4127 F2300
G1 X40.4127 Y10.7 E46730.6 F2300
G1 X37.5843 F2300
G1 X10.7 Y37.5842 E46768.6 F2300
G1 X10.7 Y34.7558 F2300
G1 X34.7559 Y10.7 E46802.6 F2300
G1 X31.9274 F2300
G1 X10.7 Y31.9274 E46832.6 F2300
G1 X10.7 Y29.099 F2300
G1 X29.099 Y10.7 E46858.6 F2300
G1 X26.2706 Y10.7 F2300
G1 X10.7 Y26.2706 E46880.7 F2300
G1 X10.7 Y23.4421 F2300
G1 X23.4421 Y10.7 E46898.7 F2300
G1 X20.6137 F2300
G1 X10.7 Y20.6137 E46912.7 F2300
G1 Y17.7853 F2300
G1 X17.7853 Y10.7 E46922.7 F2300
G1 X14.9569 F2300
G1 X10.7 Y14.9568 E46928.7 F2300
G1 X10.7 Y12.1284 F2300
G1 X12.1284 Y10.7 E46930.8 F2300
G1 F70
G1 Z20.8 F70

G1 F2300
G1 X11.1019 Y10.7 F2300
G1 X49.3 Y48.8979 E46984.8 F2300
G1 X49.65 Y49.65 F2300
G1 X10.35 E47024.1 F2300
G1 X10.35 Y10.35 E47063.4 F2300
G1 X49.65 E47102.7 F2300
G1 Y49.65 E47142 F2300
G1 X46.8737 Y49.3 F2300
G1 X10.7 Y13.1265 E47193.1 F2300
G1 X10.7 Y15.9549 F2300
G1 X44.0453 Y49.3 E47240.3 F2300
G1 X41.2168 F2300
G1 X10.7 Y18.7833 E47283.4 F2300
G1 Y21.6118 F2300
G1 X38.3884 Y49.3 E47322.6 F2300
G1 X35.56 F2300
G1 X10.7 Y24.4402 E47357.8 F2300
G1 Y27.2686 F2300
G1 X32.7315 Y49.3 E47388.9 F2300
G1 X29.9031 F2300
G1 X10.7 Y30.097 E47416.1 F2300
G1 Y32.9255 F2300
G1 X27.0746 Y49.3 E47439.2 F2300
G1 X24.2462 F2300
G1 X10.7 Y35.7539 E47458.4 F2300
G1 Y38.5823 F2300
G1 X21.4178 Y49.3 E47473.5 F2300
G1 X18.5893 F2300
G1 X10.7 Y41.4107 E47484.7 F2300
G1 Y44.2391 F2300
G1 X15.7609 Y49.3 E47491.9 F2300
G1 X12.9325 F2300
G1 X10.7 Y47.0676 E47495 F2300
G1 X13.9304 Y10.7 F2300
G1 X49.3 Y46.0695 E47545 F2300
G1 Y43.241 F2300
G1 X16.7588 Y10.7 E47591 F2300
G1 X19.5872 F2300
G1 X49.3 Y40.4126 E47633.1 F2300
G1 Y37.5842 F2300
G1 X22.4157 Y10.7 E47671.1 F2300
G1 X25.2441 F2300
G1 X49.3 Y34.7558 E47705.1 F2300
G1 Y31.9274 F2300
G1 X28.0725 Y10.7 E47735.1 F2300
G1 X30.901 F2300
G1 X49.3 Y29.0989 E47761.1 F2300
G1 Y26.2705 F2300
G1 X33.7294 Y10.7 E47783.2 F2300
G1 X36.5578 F2300
G1 X49.3 Y23.4421 E47801.2 F2300
G1 Y20.6137 F2300
G1 X39.3863 Y10.7 E47815.2 F2300
G1 X42.2147 Y10.7 F2300
G1 X49.3 Y17.7853 E47825.2 F2300
G1 Y14.9568 F2300
G1 X45.0431 Y10.7 E47831.2 F2300
G1 X47.8716 Y10.7 F2300
G1 X49.3 Y12.1284 E47833.3 F2300
G1 F70
G1 Z21.2 F70

G1 F2300
G1 Y11.1021 F2300
G1 X11.1019 Y49.3 E47887.3 F2300
G1 X10.35 Y49.65 F2300
G1 X10.35 Y10.35 E47926.6 F2300
G1 X49.65 E47965.9 F2300
G1 Y49.65 E48005.2 F2300
G1 X10.35 E48044.5 F2300
G1 X10.7 Y46.8735 F2300
G1 X46.8737 Y10.7 E48095.6 F2300
G1 X44.0452 F2300
G1 X10.7 Y44.0451 E48142.8 F2300
G1 Y41.2167 F2300
G1 X41.2168 Y10.7 E48186 F2300
G1 X38.3884 F2300
G1 X10.7 Y38.3883 E48225.1 F2300
G1 Y35.5598 F2300
G1 X35.5599 Y10.7 E48260.3 F2300
G1 X32.7315 Y10.7 F2300
G1 X10.7 Y32.7314 E48291.4 F2300
G1 Y29.903 F2300
G1 X29.9031 Y10.7 E48318.6 F2300
G1 X27.0746 F2300
G1 X10.7 Y27.0746 E48341.7 F2300
G1 X10.7 Y24.2461 F2300
G1 X24.2462 Y10.7 E48360.9 F2300
G1 X21.4178 F2300
G1 X10.7 Y21.4177 E48376 F2300
G1 X10.7 Y18.5893 F2300
G1 X18.5893 Y10.7 E48387.2 F2300
G1 X15.7609 Y10.7 F2300
G1 X10.7 Y15.7609 E48394.4 F2300
G1 Y12.9325 F2300
G1 X12.9325 Y10.7 E48397.5 F2300
G1 X49.3 Y13.9305 F2300
G1 X13.9304 Y49.3 E48447.5 F2300
G1 X16.7588 F2300
G1 X49.3 Y16.7589 E48493.6 F2300
G1 X49.3 Y19.5874 F2300
G1 X19.5872 Y49.3 E48535.6 F2300
G1 X22.4157 F2300
G1 X49.3 Y22.4158 E48573.6 F2300
G1 Y25.2442 F2300
G1 X25.2441 Y49.3 E48607.6 F2300
G1 X28.0725 F2300
G1 X49.3 Y28.0726 E48637.6 F2300
G1 Y30.9011 F2300
G1 X30.901 Y49.3 E48663.7 F2300
G1 X33.7294 F2300
G1 X49.3 Y33.7295 E48685.7 F2300
G1 Y36.5579 F2300
G1 X36.5578 Y49.3 E48703.7 F2300
G1 X39.3863 F2300
G1 X49.3 Y39.3863 E48717.7 F2300
G1 Y42.2147 F2300
G1 X42.2147 Y49.3 E48727.7 F2300
G1 X45.0431 F2300
G1 X49.3 Y45.0432 E48733.8 F2300
G1 X49.3 Y47.8716 F2300
G1 X47.8716 Y49.3 E48735.8 F2300
G1 F70
G1 Z21.6 F70

G1 F2300
G1 X48.898 F2300
G1 X10.7 Y11.1021 E48789.8 F2300
G1 X10.35 Y10.35 F2300
G1 X49.65 E48829.1 F2300
G1 Y49.65 E48868.4 F2300
G1 X10.35 E48907.7 F2300
G1 X10.35 Y10.35 E48947 F2300
G1 X13.1264 Y10.7 F2300
G1 X49.3 Y46.8735 E48998.1 F2300
G1 Y44.0451 F2300
G1 X15.9548 Y10.7 E49045.3 F2300
G1 X18.7832 F2300
G1 X49.3 Y41.2167 E49088.5 F2300
G1 X49.3 Y38.3883 F2300
G1 X21.6117 Y10.7 E49127.6 F2300
G1 X24.4401 F2300
G1 X49.3 Y35.5598 E49162.8 F2300
G1 X49.3 Y32.7314 F2300
G1 X27.2685 Y10.7 E49193.9 F2300
G1 X30.0969 F2300
G1 X49.3 Y29.903 E49221.1 F2300
G1 X49.3 Y27.0746 F2300
G1 X32.9254 Y10.7 E49244.2 F2300
G1 X35.7538 Y10.7 F2300
G1 X49.3 Y24.2462 E49263.4 F2300
G1 X49.3 Y21.4177 F2300
G1 X38.5822 Y10.7 E49278.6 F2300
G1 X41.4107 Y10.7 F2300
G1 X49.3 Y18.5893 E49289.7 F2300
G1 Y15.7609 F2300
G1 X44.2391 Y10.7 E49296.9 F2300
G1 X47.0675 F2300
G1 X49.3 Y12.9325 E49300 F2300
G1 X46.0696 Y49.3 F2300
G1 X10.7 Y13.9305 E49350 F2300
G1 Y16.7589 F2300
G1 X43.2412 Y49.3 E49396.1 F2300
G1 X40.4127 Y49.3 F2300
G1 X10.7 Y19.5873 E49438.1 F2300
G1 Y22.4158 F2300
G1 X37.5843 Y49.3 E49476.1 F2300
G1 X34.7559 F2300
G1 X10.7 Y25.2442 E49510.1 F2300
G1 X10.7 Y28.0726 F2300
G1 X31.9275 Y49.3 E49540.1 F2300
G1 X29.099 F2300
G1 X10.7 Y30.901 E49566.2 F2300
G1 X10.7 Y33.7295 F2300
G1 X26.2706 Y49.3 E49588.2 F2300
G1 X23.4422 F2300
G1 X10.7 Y36.5579 E49606.2 F2300
G1 Y39.3863 F2300
G1 X20.6137 Y49.3 E49620.2 F2300
G1 X17.7853 F2300
G1 X10.7 Y42.2147 E49630.2 F2300
G1 X10.7 Y45.0432 F2300
G1 X14.9569 Y49.3 E49636.3 F2300
G1 X12.1284 F2300
G1 X10.7 Y47.8716 E49638.3 F2300
G1 F70
G1 Z22 F70

G1 F2300
G1 X10.7 Y48.8979 F2300
G1 X48.8981 Y10.7 E49692.3 F2300
G1 X49.65 Y10.35 F2300
G1 X10.35 E49731.6 F2300
G1 X10.35 Y49.65 E49770.9 F2300
G1 X49.65 E49810.2 F2300
G1 Y10.35 E49849.5 F2300
G1 X49.3 Y13.1265 F2300
G1 X13.1263 Y49.3 E49900.7 F2300
G1 X15.9547 F2300
G1 X49.3 Y15.9549 E49947.8 F2300
G1 Y18.7834 F2300
G1 X18.7832 Y49.3 E49991 F2300
G1 X21.6116 F2300
G1 X49.3 Y21.6118 E50030.1 F2300
G1 Y24.4402 F2300
G1 X24.44 Y49.3 E50065.3 F2300
G1 X27.2685 F2300
G1 X49.3 Y27.2686 E50096.4 F2300
G1 Y30.097 F2300
G1 X30.0969 Y49.3 E50123.6 F2300
G1 X32.9253 F2300
G1 X49.3 Y32.9255 E50146.8 F2300
G1 Y35.7539 F2300
G1 X35.7538 Y49.3 E50165.9 F2300
G1 X38.5822 F2300
G1 X49.3 Y38.5823 E50181.1 F2300
G1 Y41.4107 F2300
G1 X41.4107 Y49.3 E50192.2 F2300
G1 X44.2391 F2300
G1 X49.3 Y44.2391 E50199.4 F2300
G1 Y47.0676 F2300
G1 X47.0675 Y49.3 E50202.5 F2300
G1 X10.7 Y46.0694 F2300
G1 X46.0697 Y10.7 E50252.6 F2300
G1 X43.2412 F2300
G1 X10.7 Y43.241 E50298.6 F2300
G1 Y40.4126 F2300
G1 X40.4128 Y10.7 E50340.6 F2300
G1 X37.5844 F2300
G1 X10.7 Y37.5842 E50378.6 F2300
G1 Y34.7558 F2300
G1 X34.7559 Y10.7 E50412.6 F2300
G1 X31.9275 F2300
G1 X10.7 Y31.9273 E50442.6 F2300
G1 X10.7 Y29.0989 F2300
G1 X29.099 Y10.7 E50468.7 F2300
G1 X26.2706 F2300
G1 X10.7 Y26.2705 E50490.7 F2300
G1 X10.7 Y23.4421 F2300
G1 X23.4422 Y10.7 E50508.7 F2300
G1 X20.6137 F2300
G1 X10.7 Y20.6137 E50522.7 F2300
G1 X10.7 Y17.7853 F2300
G1 X17.7853 Y10.7 E50532.7 F2300
G1 X14.9569 F2300
G1 X10.7 Y14.9568 E50538.8 F2300
G1 X10.7 Y12.1284 F2300
G1 X12.1284 Y10.7 E50540.8 F2300
G1 F70
G1 Z22.4 F70

G1 F2300
G1 X11.102 F2300
G1 X49.3 Y48.898 E50594.8 F2300
G1 X49.65 Y49.65 F2300
G1 X10.35 E50634.1 F2300
G1 X10.35 Y10.35 E50673.4 F2300
G1 X49.65 E50712.7 F2300
G1 Y49.65 E50752 F2300
G1 X46.8736 Y49.3 F2300
G1 X10.7 Y13.1264 E50803.2 F2300
G1 X10.7 Y15.9548 F2300
G1 X44.0452 Y49.3 E50850.3 F2300
G1 X41.2167 F2300
G1 X10.7 Y18.7833 E50893.5 F2300
G1 X10.7 Y21.6117 F2300
G1 X38.3883 Y49.3 E50932.6 F2300
G1 X35.5599 F2300
G1 X10.7 Y24.4401 E50967.8 F2300
G1 Y27.2686 F2300
G1 X32.7315 Y49.3 E50998.9 F2300
G1 X29.903 F2300
G1 X10.7 Y30.097 E51026.1 F2300
G1 X10.7 Y32.9254 F2300
G1 X27.0746 Y49.3 E51049.3 F2300
G1 X24.2462 F2300
G1 X10.7 Y35.7538 E51068.4 F2300
G1 Y38.5823 F2300
G1 X21.4178 Y49.3 E51083.6 F2300
G1 X18.5893 F2300
G1 X10.7 Y41.4107 E51094.7 F2300
G1 Y44.2391 F2300
G1 X15.7609 Y49.3 E51101.9 F2300
G1 X12.9325 F2300
G1 X10.7 Y47.0675 E51105 F2300
G1 X13.9304 Y10.7 F2300
G1 X49.3 Y46.0695 E51155.1 F2300
G1 Y43.2411 F2300
G1 X16.7589 Y10.7 E51201.1 F2300
G1 X19.5873 F2300
G1 X49.3 Y40.4127 E51243.1 F2300
G1 Y37.5843 F2300
G1 X22.4157 Y10.7 E51281.1 F2300
G1 X25.2442 Y10.7 F2300
G1 X49.3 Y34.7558 E51315.1 F2300
G1 Y31.9274 F2300
G1 X28.0726 Y10.7 E51345.2 F2300
G1 X30.901 F2300
G1 X49.3 Y29.099 E51371.2 F2300
G1 Y26.2706 F2300
G1 X33.7294 Y10.7 E51393.2 F2300
G1 X36.5579 Y10.7 F2300
G1 X49.3 Y23.4421 E51411.2 F2300
G1 Y20.6137 F2300
G1 X39.3863 Y10.7 E51425.2 F2300
G1 X42.2147 F2300
G1 X49.3 Y17.7853 E51435.3 F2300
G1 Y14.9568 F2300
G1 X45.0431 Y10.7 E51441.3 F2300
G1 X47.8716 F2300
G1 X49.3 Y12.1284 E51443.3 F2300
G1 F70
G1 Z22.8 F70

G1 F2300
G1 X49.3 Y11.1019 F2300
G1 X11.1021 Y49.3 E51497.3 F2300
G1 X10.35 Y49.65 F2300
G1 X10.35 Y10.35 E51536.6 F2300
G1 X49.65 E51575.9 F2300
G1 Y49.65 E51615.2 F2300
G1 X10.35 E51654.5 F2300
G1 X10.7 Y46.8737 F2300
G1 X46.8735 Y10.7 E51705.7 F2300
G1 X44.0451 Y10.7 F2300
G1 X10.7 Y44.0453 E51752.8 F2300
G1 Y41.2168 F2300
G1 X41.2166 Y10.7 E51796 F2300
G1 X38.3882 Y10.7 F2300
G1 X10.7 Y38.3884 E51835.1 F2300
G1 Y35.56 F2300
G1 X35.5598 Y10.7 E51870.3 F2300
G1 X32.7314 Y10.7 F2300
G1 X10.7 Y32.7315 E51901.5 F2300
G1 Y29.9031 F2300
G1 X29.903 Y10.7 E51928.6 F2300
G1 X27.0746 Y10.7 F2300
G1 X10.7 Y27.0747 E51951.8 F2300
G1 Y24.2462 F2300
G1 X24.2461 Y10.7 E51970.9 F2300
G1 X21.4177 Y10.7 F2300
G1 X10.7 Y21.4178 E51986.1 F2300
G1 Y18.5893 F2300
G1 X18.5893 Y10.7 E51997.2 F2300
G1 X15.7609 Y10.7 F2300
G1 X10.7 Y15.7609 E52004.4 F2300
G1 X10.7 Y12.9325 F2300
G1 X12.9325 Y10.7 E52007.5 F2300
G1 X49.3 Y13.9303 F2300
G1 X13.9306 Y49.3 E52057.6 F2300
G1 X16.759 F2300
G1 X49.3 Y16.7588 E52103.6 F2300
G1 Y19.5872 F2300
G1 X19.5874 Y49.3 E52145.6 F2300
G1 X22.4158 F2300
G1 X49.3 Y22.4157 E52183.6 F2300
G1 X49.3 Y25.2441 F2300
G1 X25.2442 Y49.3 E52217.6 F2300
G1 X28.0727 F2300
G1 X49.3 Y28.0725 E52247.7 F2300
G1 X49.3 Y30.901 F2300
G1 X30.9011 Y49.3 E52273.7 F2300
G1 X33.7295 F2300
G1 X49.3 Y33.7294 E52295.7 F2300
G1 X49.3 Y36.5578 F2300
G1 X36.5579 Y49.3 E52313.7 F2300
G1 X39.3863 F2300
G1 X49.3 Y39.3863 E52327.7 F2300
G1 X49.3 Y42.2147 F2300
G1 X42.2147 Y49.3 E52337.8 F2300
G1 X45.0432 F2300
G1 X49.3 Y45.0431 E52343.8 F2300
G1 Y47.8716 F2300
G1 X47.8716 Y49.3 E52345.8 F2300
G1 F70
G1 Z23.2 F70

G1 F2300
G1 X48.8979 F2300
G1 X10.7 Y11.102 E52399.8 F2300
G1 X10.35 Y10.35 F2300
G1 X49.65 E52439.1 F2300
G1 X49.65 Y49.65 E52478.4 F2300
G1 X10.35 E52517.7 F2300
G1 X10.35 Y10.35 E52557 F2300
G1 X13.1265 Y10.7 F2300
G1 X49.3 Y46.8736 E52608.2 F2300
G1 Y44.0452 F2300
G1 X15.9549 Y10.7 E52655.3 F2300
G1 X18.7833 F2300
G1 X49.3 Y41.2168 E52698.5 F2300
G1 X49.3 Y38.3883 F2300
G1 X21.6117 Y10.7 E52737.6 F2300
G1 X24.4401 F2300
G1 X49.3 Y35.5599 E52772.8 F2300
G1 X49.3 Y32.7315 F2300
G1 X27.2686 Y10.7 E52804 F2300
G1 X30.097 Y10.7 F2300
G1 X49.3 Y29.903 E52831.1 F2300
G1 Y27.0746 F2300
G1 X32.9254 Y10.7 E52854.3 F2300
G1 X35.7538 F2300
G1 X49.3 Y24.2462 E52873.4 F2300
G1 Y21.4178 F2300
G1 X38.5823 Y10.7 E52888.6 F2300
G1 X41.4107 F2300
G1 X49.3 Y18.5893 E52899.7 F2300
G1 Y15.7609 F2300
G1 X44.2391 Y10.7 E52906.9 F2300
G1 X47.0675 Y10.7 F2300
G1 X49.3 Y12.9325 E52910.1 F2300
G1 X46.0695 Y49.3 F2300
G1 X10.7 Y13.9304 E52960.1 F2300
G1 X10.7 Y16.7588 F2300
G1 X43.2411 Y49.3 E53006.1 F2300
G1 X40.4127 F2300
G1 X10.7 Y19.5873 E53048.1 F2300
G1 X10.7 Y22.4157 F2300
G1 X37.5842 Y49.3 E53086.1 F2300
G1 X34.7558 F2300
G1 X10.7 Y25.2441 E53120.2 F2300
G1 X10.7 Y28.0726 F2300
G1 X31.9274 Y49.3 E53150.2 F2300
G1 X29.099 F2300
G1 X10.7 Y30.901 E53176.2 F2300
G1 X10.7 Y33.7294 F2300
G1 X26.2705 Y49.3 E53198.2 F2300
G1 X23.4421 F2300
G1 X10.7 Y36.5579 E53216.2 F2300
G1 Y39.3863 F2300
G1 X20.6137 Y49.3 E53230.2 F2300
G1 X17.7853 F2300
G1 X10.7 Y42.2147 E53240.3 F2300
G1 Y45.0432 F2300
G1 X14.9569 Y49.3 E53246.3 F2300
G1 X12.1284 F2300
G1 X10.7 Y47.8716 E53248.3 F2300
G1 F70
G1 Z23.6 F70

G1 F2300
G1 X10.7 Y48.898 F2300
G1 X48.8979 Y10.7 E53302.3 F2300
G1 X49.65 Y10.35 F2300
G1 X10.35 E53341.6 F2300
G1 X10.35 Y49.65 E53380.9 F2300
G1 X49.65 E53420.2 F2300
G1 X49.65 Y10.35 E53459.5 F2300
G1 X49.3 Y13.1263 F2300
G1 X13.1265 Y49.3 E53510.7 F2300
G1 X15.9549 F2300
G1 X49.3 Y15.9548 E53557.8 F2300
G1 Y18.7832 F2300
G1 X18.7833 Y49.3 E53601 F2300
G1 X21.6117 F2300
G1 X49.3 Y21.6116 E53640.2 F2300
G1 Y24.4401 F2300
G1 X24.4402 Y49.3 E53675.3 F2300
G1 X27.2686 F2300
G1 X49.3 Y27.2685 E53706.5 F2300
G1 Y30.0969 F2300
G1 X30.097 Y49.3 E53733.6 F2300
G1 X32.9254 F2300
G1 X49.3 Y32.9254 E53756.8 F2300
G1 X49.3 Y35.7538 F2300
G1 X35.7539 Y49.3 E53775.9 F2300
G1 X38.5823 F2300
G1 X49.3 Y38.5822 E53791.1 F2300
G1 Y41.4107 F2300
G1 X41.4107 Y49.3 E53802.2 F2300
G1 X44.2391 F2300
G1 X49.3 Y44.2391 E53809.4 F2300
G1 Y47.0675 F2300
G1 X47.0675 Y49.3 E53812.6 F2300
G1 X10.7 Y46.0696 F2300
G1 X46.0695 Y10.7 E53862.6 F2300
G1 X43.2411 F2300
G1 X10.7 Y43.2412 E53908.6 F2300
G1 Y40.4127 F2300
G1 X40.4126 Y10.7 E53950.6 F2300
G1 X37.5842 F2300
G1 X10.7 Y37.5843 E53988.6 F2300
G1 Y34.7559 F2300
G1 X34.7558 Y10.7 E54022.7 F2300
G1 X31.9274 F2300
G1 X10.7 Y31.9275 E54052.7 F2300
G1 X10.7 Y29.099 F2300
G1 X29.099 Y10.7 E54078.7 F2300
G1 X26.2705 F2300
G1 X10.7 Y26.2706 E54100.7 F2300
G1 Y23.4422 F2300
G1 X23.4421 Y10.7 E54118.7 F2300
G1 X20.6137 F2300
G1 X10.7 Y20.6137 E54132.8 F2300
G1 Y17.7853 F2300
G1 X17.7853 Y10.7 E54142.8 F2300
G1 X14.9568 F2300
G1 X10.7 Y14.9569 E54148.8 F2300
G1 X10.7 Y12.1284 F2300
G1 X12.1284 Y10.7 E54150.8 F2300
G1 F70
G1 Z24 F70

G1 F2300
G1 X11.1021 Y10.7 F2300
G1 X49.3 Y48.8981 E54204.8 F2300
G1 X49.65 Y49.65 F2300
G1 X10.35 E54244.1 F2300
G1 X10.35 Y10.35 E54283.4 F2300
G1 X49.65 E54322.7 F2300
G1 X49.65 Y49.65 E54362 F2300
G1 X46.8735 Y49.3 F2300
G1 X10.7 Y13.1263 E54413.2 F2300
G1 X10.7 Y15.9548 F2300
G1 X44.0451 Y49.3 E54460.4 F2300
G1 X41.2167 F2300
G1 X10.7 Y18.7832 E54503.5 F2300
G1 Y21.6116 F2300
G1 X38.3882 Y49.3 E54542.7 F2300
G1 X35.5598 F2300
G1 X10.7 Y24.4401 E54577.8 F2300
G1 X10.7 Y27.2685 F2300
G1 X32.7314 Y49.3 E54609 F2300
G1 X29.903 F2300
G1 X10.7 Y30.0969 E54636.1 F2300
G1 X10.7 Y32.9254 F2300
G1 X27.0746 Y49.3 E54659.3 F2300
G1 X24.2461 F2300
G1 X10.7 Y35.7538 E54678.4 F2300
G1 X10.7 Y38.5822 F2300
G1 X21.4177 Y49.3 E54693.6 F2300
G1 X18.5893 F2300
G1 X10.7 Y41.4107 E54704.8 F2300
G1 Y44.2391 F2300
G1 X15.7609 Y49.3 E54711.9 F2300
G1 X12.9325 F2300
G1 X10.7 Y47.0675 E54715.1 F2300
G1 X13.9305 Y10.7 F2300
G1 X49.3 Y46.0696 E54765.1 F2300
G1 Y43.2412 F2300
G1 X16.759 Y10.7 E54811.1 F2300
G1 X19.5874 F2300
G1 X49.3 Y40.4128 E54853.1 F2300
G1 Y37.5843 F2300
G1 X22.4158 Y10.7 E54891.1 F2300
G1 X25.2442 F2300
G1 X49.3 Y34.7559 E54925.2 F2300
G1 X49.3 Y31.9275 F2300
G1 X28.0726 Y10.7 E54955.2 F2300
G1 X30.9011 Y10.7 F2300
G1 X49.3 Y29.099 E54981.2 F2300
G1 Y26.2706 F2300
G1 X33.7295 Y10.7 E55003.2 F2300
G1 X36.5579 Y10.7 F2300
G1 X49.3 Y23.4422 E55021.2 F2300
G1 Y20.6137 F2300
G1 X39.3863 Y10.7 E55035.3 F2300
G1 X42.2147 Y10.7 F2300
G1 X49.3 Y17.7853 E55045.3 F2300
G1 Y14.9569 F2300
G1 X45.0432 Y10.7 E55051.3 F2300
G1 X47.8716 F2300
G1 X49.3 Y12.1284 E55053.3 F2300
G1 F70
G1 Z24.4 F70

G1 F2300
G1 Y11.102 F2300
G1 X11.102 Y49.3 E55107.3 F2300
G1 X10.35 Y49.65 F2300
G1 X10.35 Y10.35 E55146.6 F2300
G1 X49.65 E55185.9 F2300
G1 X49.65 Y49.65 E55225.2 F2300
G1 X10.35 E55264.5 F2300
G1 X10.7 Y46.8736 F2300
G1 X46.8736 Y10.7 E55315.7 F2300
G1 X44.0451 F2300
G1 X10.7 Y44.0452 E55362.9 F2300
G1 X10.7 Y41.2168 F2300
G1 X41.2167 Y10.7 E55406 F2300
G1 X38.3883 F2300
G1 X10.7 Y38.3883 E55445.2 F2300
G1 Y35.5599 F2300
G1 X35.5599 Y10.7 E55480.3 F2300
G1 X32.7314 F2300
G1 X10.7 Y32.7315 E55511.5 F2300
G1 X10.7 Y29.903 F2300
G1 X29.903 Y10.7 E55538.6 F2300
G1 X27.0746 F2300
G1 X10.7 Y27.0746 E55561.8 F2300
G1 X10.7 Y24.2462 F2300
G1 X24.2462 Y10.7 E55581 F2300
G1 X21.4177 Y10.7 F2300
G1 X10.7 Y21.4177 E55596.1 F2300
G1 Y18.5893 F2300
G1 X18.5893 Y10.7 E55607.3 F2300
G1 X15.7609 F2300
G1 X10.7 Y15.7609 E55614.4 F2300
G1 X10.7 Y12.9325 F2300
G1 X12.9325 Y10.7 E55617.6 F2300
G1 X49.3 Y13.9304 F2300
G1 X13.9305 Y49.3 E55667.6 F2300
G1 X16.7589 F2300
G1 X49.3 Y16.7589 E55713.6 F2300
G1 Y19.5873 F2300
G1 X19.5873 Y49.3 E55755.6 F2300
G1 X22.4157 F2300
G1 X49.3 Y22.4157 E55793.7 F2300
G1 Y25.2441 F2300
G1 X25.2442 Y49.3 E55827.7 F2300
G1 X28.0726 F2300
G1 X49.3 Y28.0726 E55857.7 F2300
G1 Y30.901 F2300
G1 X30.901 Y49.3 E55883.7 F2300
G1 X33.7294 F2300
G1 X49.3 Y33.7294 E55905.7 F2300
G1 X49.3 Y36.5579 F2300
G1 X36.5579 Y49.3 E55923.8 F2300
G1 X39.3863 F2300
G1 X49.3 Y39.3863 E55937.8 F2300
G1 Y42.2147 F2300
G1 X42.2147 Y49.3 E55947.8 F2300
G1 X45.0431 F2300
G1 X49.3 Y45.0432 E55953.8 F2300
G1 Y47.8716 F2300
G1 X47.8716 Y49.3 E55955.8 F2300
G1 F70
G1 Z24.8 F70

G1 F2300
G1 X48.8978 F2300
G1 X10.7 Y11.1019 E56009.9 F2300
G1 X10.35 Y10.35 F2300
G1 X49.65 E56049.2 F2300
G1 X49.65 Y49.65 E56088.5 F2300
G1 X10.35 E56127.8 F2300
G1 X10.35 Y10.35 E56167.1 F2300
G1 X13.1265 Y10.7 F2300
G1 X49.3 Y46.8737 E56218.2 F2300
G1 X49.3 Y44.0453 F2300
G1 X15.955 Y10.7 E56265.4 F2300
G1 X18.7834 F2300
G1 X49.3 Y41.2168 E56308.5 F2300
G1 Y38.3884 F2300
G1 X21.6118 Y10.7 E56347.7 F2300
G1 X24.4402 F2300
G1 X49.3 Y35.56 E56382.8 F2300
G1 Y32.7315 F2300
G1 X27.2686 Y10.7 E56414 F2300
G1 X30.097 F2300
G1 X49.3 Y29.9031 E56441.1 F2300
G1 Y27.0747 F2300
G1 X32.9255 Y10.7 E56464.3 F2300
G1 X35.7539 Y10.7 F2300
G1 X49.3 Y24.2462 E56483.5 F2300
G1 Y21.4178 F2300
G1 X38.5823 Y10.7 E56498.6 F2300
G1 X41.4107 F2300
G1 X49.3 Y18.5893 E56509.8 F2300
G1 Y15.7609 F2300
G1 X44.2391 Y10.7 E56516.9 F2300
G1 X47.0675 F2300
G1 X49.3 Y12.9325 E56520.1 F2300
G1 X46.0694 Y49.3 F2300
G1 X10.7 Y13.9303 E56570.1 F2300
G1 X10.7 Y16.7588 F2300
G1 X43.241 Y49.3 E56616.1 F2300
G1 X40.4126 Y49.3 F2300
G1 X10.7 Y19.5872 E56658.1 F2300
G1 Y22.4156 F2300
G1 X37.5842 Y49.3 E56696.2 F2300
G1 X34.7558 F2300
G1 X10.7 Y25.2441 E56730.2 F2300
G1 X10.7 Y28.0725 F2300
G1 X31.9273 Y49.3 E56760.2 F2300
G1 X29.0989 F2300
G1 X10.7 Y30.9009 E56786.2 F2300
G1 X10.7 Y33.7294 F2300
G1 X26.2705 Y49.3 E56808.2 F2300
G1 X23.4421 F2300
G1 X10.7 Y36.5578 E56826.3 F2300
G1 Y39.3863 F2300
G1 X20.6137 Y49.3 E56840.3 F2300
G1 X17.7853 F2300
G1 X10.7 Y42.2147 E56850.3 F2300
G1 X10.7 Y45.0431 F2300
G1 X14.9568 Y49.3 E56856.3 F2300
G1 X12.1284 F2300
G1 X10.7 Y47.8716 E56858.3 F2300
G1 F70
G1 Z25.2 F70

